(G-CODE GENERATED BY FLATCAM v8.992 - www.flatcam.org - Version Date: 2020/05/03)

(Name: alTest)
(Type: G-code from Geometry)
(Units: MM)

(Created on Sunday, 24 May 2020 at 18:47)

(This preprocessor is used with a motion controller loaded with GRBL firmware.)
(It is configured to be compatible with almost any version of GRBL firmware.)

(TOOL DIAMETER: 0.1 mm)
(Feedrate_XY: 500.0 mm/min)
(Feedrate_Z: 500.0 mm/min)
(Feedrate rapids 1500.0 mm/min)

(Z_Cut: -0.8 mm)
(Z_Move: 2.0 mm)
(Z Start: None mm)
(Z End: 15.0 mm)
(Steps per circle: 64)
(Preprocessor Geometry: grbl_11)

(X range:   59.8829 ...   90.9171  mm)
(Y range:   29.6829 ...   86.6500  mm)

(Spindle Speed: 1000 RPM)
G21
G90
G17
G94




G01 F500.00
G00 Z2.0000

M03 S1000
G4 P2.0
G00 X60.4421 Y36.1766
G01 F500.00
G01 Z-0.8000
G01 F500.00
G01 X60.4458 Y36.1428 F500.00
G01 X60.4477 Y36.1088 F500.00
G01 X60.4491 Y36.1026 F500.00
G01 X60.4529 Y36.0800 F500.00
G01 X60.4629 Y36.0474 F500.00
G01 X60.4692 Y36.0222 F500.00
G01 X60.4718 Y36.0164 F500.00
G01 X60.4799 Y35.9949 F500.00
G01 X60.4960 Y35.9649 F500.00
G01 X60.5071 Y35.9414 F500.00
G01 X60.5107 Y35.9363 F500.00
G01 X60.5229 Y35.9168 F500.00
G01 X60.5445 Y35.8905 F500.00
G01 X60.5599 Y35.8696 F500.00
G01 X60.5645 Y35.8652 F500.00
G01 X60.5802 Y35.8484 F500.00
G01 X60.6066 Y35.8268 F500.00
G01 X60.6322 Y35.8035 F500.00
G01 X61.0240 Y35.5096 F500.00
G01 X61.0386 Y35.5005 F500.00
G01 X61.0465 Y35.4946 F500.00
G01 X61.0801 Y35.4765 F500.00
G01 X61.1083 Y35.4600 F500.00
G01 X61.1163 Y35.4568 F500.00
G01 X61.1252 Y35.4526 F500.00
G01 X61.1617 Y35.4414 F500.00
G01 X61.1926 Y35.4306 F500.00
G01 X61.2023 Y35.4288 F500.00
G01 X61.2106 Y35.4267 F500.00
G01 X61.2431 Y35.4235 F500.00
G01 X61.2809 Y35.4182 F500.00
G01 X61.2908 Y35.4183 F500.00
G01 X61.3087 Y35.4171 F500.00
G01 X62.6984 Y35.4171 F500.00
G01 X62.7156 Y35.4185 F500.00
G01 X62.7254 Y35.4186 F500.00
G01 X62.7578 Y35.4236 F500.00
G01 X62.7957 Y35.4280 F500.00
G01 X62.8052 Y35.4305 F500.00
G01 X62.8136 Y35.4322 F500.00
G01 X62.8443 Y35.4434 F500.00
G01 X62.8807 Y35.4551 F500.00
G01 X62.8895 Y35.4594 F500.00
G01 X62.8974 Y35.4627 F500.00
G01 X62.9254 Y35.4797 F500.00
G01 X62.9588 Y35.4982 F500.00
G01 X62.9666 Y35.5041 F500.00
G01 X62.9817 Y35.5138 F500.00
G01 X63.3735 Y35.8077 F500.00
G01 X63.3983 Y35.8310 F500.00
G01 X63.4243 Y35.8529 F500.00
G01 X63.4398 Y35.8699 F500.00
G01 X63.4443 Y35.8743 F500.00
G01 X63.4594 Y35.8955 F500.00
G01 X63.4807 Y35.9221 F500.00
G01 X63.4838 Y35.9276 F500.00
G01 X63.4961 Y35.9469 F500.00
G01 X63.5104 Y35.9779 F500.00
G01 X63.5226 Y36.0008 F500.00
G01 X63.5245 Y36.0068 F500.00
G01 X63.5329 Y36.0282 F500.00
G01 X63.5409 Y36.0613 F500.00
G01 X63.5484 Y36.0862 F500.00
G01 X63.5491 Y36.0925 F500.00
G01 X63.5531 Y36.1151 F500.00
G01 X63.5546 Y36.1492 F500.00
G01 X63.5579 Y36.1837 F500.00
G01 X63.5579 Y36.4438 F500.00
G01 X63.5587 Y36.4599 F500.00
G01 X63.5610 Y36.4837 F500.00
G01 X63.5610 Y38.4663 F500.00
G01 X63.5513 Y38.5648 F500.00
G01 X63.5251 Y38.6511 F500.00
G01 X63.4826 Y38.7306 F500.00
G01 X63.4254 Y38.8004 F500.00
G01 X63.3556 Y38.8576 F500.00
G01 X63.2761 Y38.9001 F500.00
G01 X63.1898 Y38.9263 F500.00
G01 X63.0913 Y38.9360 F500.00
G01 X62.9076 Y38.9360 F500.00
G01 X62.8927 Y38.9367 F500.00
G01 X62.8731 Y38.9394 F500.00
G01 X62.8562 Y38.9436 F500.00
G01 X62.8399 Y38.9495 F500.00
G01 X62.8242 Y38.9569 F500.00
G01 X62.8093 Y38.9658 F500.00
G01 X62.7934 Y38.9778 F500.00
G01 X62.7824 Y38.9879 F500.00
G01 X62.7724 Y38.9989 F500.00
G01 X62.7618 Y39.0127 F500.00
G01 X62.7521 Y39.0285 F500.00
G01 X62.7450 Y39.0431 F500.00
G01 X62.7382 Y39.0617 F500.00
G01 X62.7340 Y39.0785 F500.00
G01 X62.7314 Y39.0957 F500.00
G01 X62.7306 Y39.1131 F500.00
G01 X62.7314 Y39.1304 F500.00
G01 X62.7340 Y39.1476 F500.00
G01 X62.7382 Y39.1645 F500.00
G01 X62.7445 Y39.1820 F500.00
G01 X62.7515 Y39.1965 F500.00
G01 X62.7591 Y39.2094 F500.00
G01 X62.7716 Y39.2263 F500.00
G01 X62.7824 Y39.2383 F500.00
G01 X62.7934 Y39.2483 F500.00
G01 X62.8254 Y39.2746 F500.00
G01 X62.8826 Y39.3444 F500.00
G01 X62.9251 Y39.4239 F500.00
G01 X62.9513 Y39.5102 F500.00
G01 X62.9609 Y39.6080 F500.00
G01 X62.9586 Y39.8903 F500.00
G01 X62.9029 Y39.9459 F500.00
G01 X62.5500 Y39.9459 F500.00
G01 X62.5499 Y39.5963 F500.00
G01 X62.5490 Y39.5902 F500.00
G01 X62.5471 Y39.5832 F500.00
G01 X62.5447 Y39.5775 F500.00
G01 X62.5409 Y39.5712 F500.00
G01 X62.5362 Y39.5655 F500.00
G01 X62.5317 Y39.5613 F500.00
G01 X62.5267 Y39.5578 F500.00
G01 X62.5203 Y39.5543 F500.00
G01 X62.5110 Y39.5512 F500.00
G01 X62.5049 Y39.5502 F500.00
G01 X62.5000 Y39.5500 F500.00
G01 X62.0291 Y39.5500 F500.00
G01 X62.0291 Y38.5250 F500.00
G01 X63.1012 Y38.5250 F500.00
G01 X63.1085 Y38.5243 F500.00
G01 X63.1145 Y38.5228 F500.00
G01 X63.1214 Y38.5202 F500.00
G01 X63.1278 Y38.5166 F500.00
G01 X63.1336 Y38.5120 F500.00
G01 X63.1379 Y38.5077 F500.00
G01 X63.1422 Y38.5017 F500.00
G01 X63.1452 Y38.4964 F500.00
G01 X63.1475 Y38.4907 F500.00
G01 X63.1488 Y38.4860 F500.00
G01 X63.1496 Y38.4811 F500.00
G01 X63.1500 Y38.4750 F500.00
G01 X63.1500 Y36.1750 F500.00
G01 X63.1495 Y36.1677 F500.00
G01 X63.1479 Y36.1606 F500.00
G01 X63.1453 Y36.1537 F500.00
G01 X63.1417 Y36.1474 F500.00
G01 X63.1364 Y36.1407 F500.00
G01 X63.1300 Y36.1350 F500.00
G01 X62.7300 Y35.8350 F500.00
G01 X62.7248 Y35.8316 F500.00
G01 X62.7204 Y35.8294 F500.00
G01 X62.7146 Y35.8272 F500.00
G01 X62.7086 Y35.8257 F500.00
G01 X62.7000 Y35.8250 F500.00
G01 X61.3000 Y35.8250 F500.00
G01 X61.2914 Y35.8257 F500.00
G01 X61.2842 Y35.8276 F500.00
G01 X61.2762 Y35.8310 F500.00
G01 X61.2700 Y35.8350 F500.00
G01 X60.8700 Y36.1350 F500.00
G01 X60.8628 Y36.1416 F500.00
G01 X60.8570 Y36.1494 F500.00
G01 X60.8542 Y36.1548 F500.00
G01 X60.8518 Y36.1617 F500.00
G01 X60.8504 Y36.1689 F500.00
G01 X60.8500 Y36.1750 F500.00
G01 X60.8500 Y38.4750 F500.00
G01 X60.8502 Y38.4799 F500.00
G01 X60.8512 Y38.4860 F500.00
G01 X60.8534 Y38.4930 F500.00
G01 X60.8571 Y38.5007 F500.00
G01 X60.8621 Y38.5077 F500.00
G01 X60.8673 Y38.5129 F500.00
G01 X60.8733 Y38.5172 F500.00
G01 X60.8809 Y38.5212 F500.00
G01 X60.8890 Y38.5238 F500.00
G01 X60.8963 Y38.5249 F500.00
G01 X61.4209 Y38.5250 F500.00
G01 X61.4209 Y39.5500 F500.00
G01 X60.9488 Y39.5500 F500.00
G01 X60.9415 Y39.5507 F500.00
G01 X60.9343 Y39.5525 F500.00
G01 X60.9275 Y39.5553 F500.00
G01 X60.9202 Y39.5598 F500.00
G01 X60.9164 Y39.5630 F500.00
G01 X60.9121 Y39.5673 F500.00
G01 X60.9091 Y39.5712 F500.00
G01 X60.9059 Y39.5764 F500.00
G01 X60.9038 Y39.5809 F500.00
G01 X60.9018 Y39.5867 F500.00
G01 X60.9005 Y39.5927 F500.00
G01 X60.9001 Y39.5975 F500.00
G01 X60.9000 Y39.9459 F500.00
G01 X60.5471 Y39.9459 F500.00
G01 X60.4914 Y39.8903 F500.00
G01 X60.4891 Y39.6080 F500.00
G01 X60.4987 Y39.5102 F500.00
G01 X60.5249 Y39.4239 F500.00
G01 X60.5674 Y39.3444 F500.00
G01 X60.6246 Y39.2746 F500.00
G01 X60.6944 Y39.2174 F500.00
G01 X60.7148 Y39.2064 F500.00
G01 X60.7266 Y39.1994 F500.00
G01 X60.7417 Y39.1885 F500.00
G01 X60.7555 Y39.1761 F500.00
G01 X60.7687 Y39.1613 F500.00
G01 X60.7775 Y39.1492 F500.00
G01 X60.7865 Y39.1343 F500.00
G01 X60.7939 Y39.1186 F500.00
G01 X60.7990 Y39.1046 F500.00
G01 X60.8044 Y39.0830 F500.00
G01 X60.8065 Y39.0682 F500.00
G01 X60.8074 Y39.0496 F500.00
G01 X60.8065 Y39.0335 F500.00
G01 X60.8040 Y39.0163 F500.00
G01 X60.7997 Y38.9995 F500.00
G01 X60.7939 Y38.9831 F500.00
G01 X60.7865 Y38.9674 F500.00
G01 X60.7775 Y38.9525 F500.00
G01 X60.7672 Y38.9385 F500.00
G01 X60.7572 Y38.9274 F500.00
G01 X60.7426 Y38.9140 F500.00
G01 X60.7276 Y38.9030 F500.00
G01 X60.7138 Y38.8947 F500.00
G01 X60.6444 Y38.8576 F500.00
G01 X60.5746 Y38.8004 F500.00
G01 X60.5174 Y38.7306 F500.00
G01 X60.4749 Y38.6511 F500.00
G01 X60.4487 Y38.5648 F500.00
G01 X60.4390 Y38.4663 F500.00
G01 X60.4390 Y36.4837 F500.00
G01 X60.4413 Y36.4599 F500.00
G01 X60.4421 Y36.4438 F500.00
G01 X60.4421 Y36.1766 F500.00
G00 Z2.0000
G00 X64.2692 Y34.3993
G01 F500.00
G01 Z-0.8000
G01 F500.00
G01 X64.2177 Y34.4177 F500.00
G01 X64.1463 Y34.4356 F500.00
G01 X64.0735 Y34.4464 F500.00
G01 X63.9988 Y34.4500 F500.00
G01 X63.9265 Y34.4464 F500.00
G01 X63.8537 Y34.4356 F500.00
G01 X63.7823 Y34.4177 F500.00
G01 X63.7119 Y34.3924 F500.00
G01 X63.6465 Y34.3614 F500.00
G01 X63.5833 Y34.3236 F500.00
G01 X63.5242 Y34.2798 F500.00
G01 X63.4697 Y34.2303 F500.00
G01 X63.4202 Y34.1758 F500.00
G01 X63.3764 Y34.1167 F500.00
G01 X63.3386 Y34.0535 F500.00
G01 X63.3066 Y33.9859 F500.00
G01 X63.2823 Y33.9177 F500.00
G01 X63.2644 Y33.8463 F500.00
G01 X63.2536 Y33.7735 F500.00
G01 X63.2500 Y33.7000 F500.00
G01 X63.2536 Y33.6265 F500.00
G01 X63.2644 Y33.5537 F500.00
G01 X63.2823 Y33.4823 F500.00
G01 X63.3071 Y33.4130 F500.00
G01 X63.3386 Y33.3465 F500.00
G01 X63.3764 Y33.2833 F500.00
G01 X63.4202 Y33.2242 F500.00
G01 X63.4697 Y33.1697 F500.00
G01 X63.5242 Y33.1202 F500.00
G01 X63.5833 Y33.0764 F500.00
G01 X63.6465 Y33.0386 F500.00
G01 X63.7141 Y33.0066 F500.00
G01 X63.7823 Y32.9823 F500.00
G01 X63.8513 Y32.9649 F500.00
G01 X63.9265 Y32.9536 F500.00
G01 X64.0000 Y32.9500 F500.00
G01 X64.0711 Y32.9534 F500.00
G01 X64.1463 Y32.9644 F500.00
G01 X64.2177 Y32.9823 F500.00
G01 X64.2847 Y33.0062 F500.00
G01 X64.3535 Y33.0386 F500.00
G01 X64.4167 Y33.0764 F500.00
G01 X64.4739 Y33.1187 F500.00
G01 X64.5303 Y33.1697 F500.00
G01 X64.5813 Y33.2261 F500.00
G01 X64.6236 Y33.2833 F500.00
G01 X64.6614 Y33.3465 F500.00
G01 X64.6938 Y33.4153 F500.00
G01 X64.7177 Y33.4823 F500.00
G01 X64.7356 Y33.5537 F500.00
G01 X64.7466 Y33.6289 F500.00
G01 X64.7500 Y33.7000 F500.00
G01 X64.7464 Y33.7735 F500.00
G01 X64.7351 Y33.8487 F500.00
G01 X64.7177 Y33.9177 F500.00
G01 X64.6993 Y33.9692 F500.00
G01 X65.4500 Y34.7199 F500.00
G01 X65.4500 Y34.6000 F500.00
G01 X65.4504 Y34.5939 F500.00
G01 X65.4515 Y34.5879 F500.00
G01 X65.4538 Y34.5809 F500.00
G01 X65.4565 Y34.5754 F500.00
G01 X65.4606 Y34.5692 F500.00
G01 X65.4655 Y34.5638 F500.00
G01 X65.4712 Y34.5591 F500.00
G01 X65.4775 Y34.5553 F500.00
G01 X65.4843 Y34.5525 F500.00
G01 X65.4902 Y34.5510 F500.00
G01 X65.5000 Y34.5500 F500.00
G01 X66.2959 Y34.5500 F500.00
G01 X66.2959 Y34.0895 F500.00
G01 X66.2973 Y34.0622 F500.00
G01 X66.3017 Y34.0327 F500.00
G01 X66.3090 Y34.0037 F500.00
G01 X66.3195 Y33.9745 F500.00
G01 X66.3318 Y33.9486 F500.00
G01 X66.3458 Y33.9251 F500.00
G01 X66.3657 Y33.8981 F500.00
G01 X66.3849 Y33.8769 F500.00
G01 X66.4769 Y33.7849 F500.00
G01 X66.4991 Y33.7649 F500.00
G01 X66.5230 Y33.7471 F500.00
G01 X66.5465 Y33.7330 F500.00
G01 X66.5756 Y33.7190 F500.00
G01 X66.6037 Y33.7090 F500.00
G01 X66.6303 Y33.7023 F500.00
G01 X66.6622 Y33.6973 F500.00
G01 X66.6920 Y33.6959 F500.00
G01 X74.0396 Y33.6959 F500.00
G01 X74.0462 Y33.6872 F500.00
G01 X74.0577 Y33.6745 F500.00
G01 X74.0722 Y33.6612 F500.00
G01 X74.0889 Y33.6487 F500.00
G01 X74.1068 Y33.6381 F500.00
G01 X74.1235 Y33.6302 F500.00
G01 X74.1443 Y33.6230 F500.00
G01 X74.1610 Y33.6188 F500.00
G01 X74.1780 Y33.6163 F500.00
G01 X74.1975 Y33.6151 F500.00
G01 X75.8500 Y33.6150 F500.00
G01 X75.8696 Y33.6160 F500.00
G01 X75.8890 Y33.6188 F500.00
G01 X75.9081 Y33.6236 F500.00
G01 X75.9265 Y33.6302 F500.00
G01 X75.9443 Y33.6386 F500.00
G01 X75.9611 Y33.6487 F500.00
G01 X75.9769 Y33.6604 F500.00
G01 X75.9896 Y33.6719 F500.00
G01 X76.0046 Y33.6881 F500.00
G01 X76.0156 Y33.7029 F500.00
G01 X76.0264 Y33.7207 F500.00
G01 X76.0338 Y33.7362 F500.00
G01 X76.0410 Y33.7558 F500.00
G01 X76.0456 Y33.7736 F500.00
G01 X76.0492 Y33.7978 F500.00
G01 X76.0500 Y33.8150 F500.00
G01 X76.0500 Y34.1162 F500.00
G01 X76.0490 Y34.1346 F500.00
G01 X76.0466 Y34.1516 F500.00
G01 X76.0406 Y34.1754 F500.00
G01 X76.0348 Y34.1915 F500.00
G01 X76.0275 Y34.2071 F500.00
G01 X76.0163 Y34.2261 F500.00
G01 X76.0030 Y34.2437 F500.00
G01 X75.9914 Y34.2564 F500.00
G01 X75.9769 Y34.2696 F500.00
G01 X75.9611 Y34.2813 F500.00
G01 X75.9464 Y34.2902 F500.00
G01 X75.9265 Y34.2998 F500.00
G01 X75.9081 Y34.3064 F500.00
G01 X75.8914 Y34.3106 F500.00
G01 X75.8672 Y34.3142 F500.00
G01 X75.8500 Y34.3150 F500.00
G01 X74.2000 Y34.3150 F500.00
G01 X74.1804 Y34.3140 F500.00
G01 X74.1622 Y34.3114 F500.00
G01 X74.1431 Y34.3067 F500.00
G01 X74.1354 Y34.3041 F500.00
G01 X66.9041 Y34.3041 F500.00
G01 X66.9041 Y34.5500 F500.00
G01 X67.7025 Y34.5501 F500.00
G01 X67.7110 Y34.5512 F500.00
G01 X67.7203 Y34.5543 F500.00
G01 X67.7278 Y34.5584 F500.00
G01 X67.7345 Y34.5638 F500.00
G01 X67.7402 Y34.5702 F500.00
G01 X67.7447 Y34.5775 F500.00
G01 X67.7482 Y34.5867 F500.00
G01 X67.7498 Y34.5951 F500.00
G01 X67.7500 Y37.2000 F500.00
G01 X67.7493 Y37.2084 F500.00
G01 X67.7472 Y37.2166 F500.00
G01 X67.7431 Y37.2254 F500.00
G01 X67.7374 Y37.2332 F500.00
G01 X67.7312 Y37.2390 F500.00
G01 X67.2302 Y37.6398 F500.00
G01 X67.2240 Y37.6439 F500.00
G01 X67.2171 Y37.6470 F500.00
G01 X67.2099 Y37.6490 F500.00
G01 X67.2025 Y37.6499 F500.00
G01 X66.0000 Y37.6500 F500.00
G01 X65.9938 Y37.6496 F500.00
G01 X65.9888 Y37.6487 F500.00
G01 X65.9829 Y37.6470 F500.00
G01 X65.9783 Y37.6450 F500.00
G01 X65.9739 Y37.6426 F500.00
G01 X65.9688 Y37.6390 F500.00
G01 X65.4688 Y37.2390 F500.00
G01 X65.4626 Y37.2332 F500.00
G01 X65.4569 Y37.2254 F500.00
G01 X65.4533 Y37.2178 F500.00
G01 X65.4507 Y37.2084 F500.00
G01 X65.4500 Y37.2000 F500.00
G01 X65.4500 Y35.5801 F500.00
G01 X64.2692 Y34.3993 F500.00
G00 Z2.0000
G00 X68.8579 Y31.1845
G01 F500.00
G01 Z-0.8000
G01 F500.00
G01 X68.8250 Y31.3503 F500.00
G01 X68.7603 Y31.5064 F500.00
G01 X68.6664 Y31.6469 F500.00
G01 X68.5469 Y31.7664 F500.00
G01 X68.4064 Y31.8603 F500.00
G01 X68.2503 Y31.9250 F500.00
G01 X68.0845 Y31.9579 F500.00
G01 X67.9155 Y31.9579 F500.00
G01 X67.7497 Y31.9250 F500.00
G01 X67.5936 Y31.8603 F500.00
G01 X67.4531 Y31.7664 F500.00
G01 X67.3336 Y31.6469 F500.00
G01 X67.2397 Y31.5064 F500.00
G01 X67.1750 Y31.3503 F500.00
G01 X67.1734 Y31.3422 F500.00
G01 X67.1698 Y31.3277 F500.00
G01 X67.1636 Y31.3101 F500.00
G01 X67.1549 Y31.2923 F500.00
G01 X67.1472 Y31.2795 F500.00
G01 X67.1369 Y31.2656 F500.00
G01 X67.1252 Y31.2527 F500.00
G01 X67.1104 Y31.2395 F500.00
G01 X67.0963 Y31.2294 F500.00
G01 X67.0835 Y31.2217 F500.00
G01 X67.0700 Y31.2153 F500.00
G01 X67.0514 Y31.2085 F500.00
G01 X67.0345 Y31.2042 F500.00
G01 X67.0174 Y31.2017 F500.00
G01 X67.0000 Y31.2008 F500.00
G01 X66.9826 Y31.2017 F500.00
G01 X66.9631 Y31.2048 F500.00
G01 X66.9463 Y31.2092 F500.00
G01 X66.9322 Y31.2143 F500.00
G01 X66.9187 Y31.2206 F500.00
G01 X66.9016 Y31.2307 F500.00
G01 X66.8877 Y31.2410 F500.00
G01 X66.8748 Y31.2527 F500.00
G01 X66.8631 Y31.2656 F500.00
G01 X66.8528 Y31.2795 F500.00
G01 X66.8451 Y31.2923 F500.00
G01 X66.8364 Y31.3101 F500.00
G01 X66.8302 Y31.3277 F500.00
G01 X66.8266 Y31.3422 F500.00
G01 X66.8250 Y31.3503 F500.00
G01 X66.7603 Y31.5064 F500.00
G01 X66.6664 Y31.6469 F500.00
G01 X66.5469 Y31.7664 F500.00
G01 X66.4064 Y31.8603 F500.00
G01 X66.2503 Y31.9250 F500.00
G01 X66.0845 Y31.9579 F500.00
G01 X65.9155 Y31.9579 F500.00
G01 X65.7497 Y31.9250 F500.00
G01 X65.5936 Y31.8603 F500.00
G01 X65.4531 Y31.7664 F500.00
G01 X65.3336 Y31.6469 F500.00
G01 X65.2397 Y31.5064 F500.00
G01 X65.1750 Y31.3503 F500.00
G01 X65.1734 Y31.3422 F500.00
G01 X65.1698 Y31.3277 F500.00
G01 X65.1636 Y31.3101 F500.00
G01 X65.1549 Y31.2923 F500.00
G01 X65.1472 Y31.2795 F500.00
G01 X65.1369 Y31.2656 F500.00
G01 X65.1252 Y31.2527 F500.00
G01 X65.1104 Y31.2395 F500.00
G01 X65.0963 Y31.2294 F500.00
G01 X65.0835 Y31.2217 F500.00
G01 X65.0700 Y31.2153 F500.00
G01 X65.0514 Y31.2085 F500.00
G01 X65.0345 Y31.2042 F500.00
G01 X65.0174 Y31.2017 F500.00
G01 X65.0000 Y31.2008 F500.00
G01 X64.9826 Y31.2017 F500.00
G01 X64.9631 Y31.2048 F500.00
G01 X64.9463 Y31.2092 F500.00
G01 X64.9322 Y31.2143 F500.00
G01 X64.9187 Y31.2206 F500.00
G01 X64.9016 Y31.2307 F500.00
G01 X64.8877 Y31.2410 F500.00
G01 X64.8748 Y31.2527 F500.00
G01 X64.8631 Y31.2656 F500.00
G01 X64.8528 Y31.2795 F500.00
G01 X64.8451 Y31.2923 F500.00
G01 X64.8364 Y31.3101 F500.00
G01 X64.8302 Y31.3277 F500.00
G01 X64.8266 Y31.3422 F500.00
G01 X64.8250 Y31.3503 F500.00
G01 X64.7603 Y31.5064 F500.00
G01 X64.6664 Y31.6469 F500.00
G01 X64.5469 Y31.7664 F500.00
G01 X64.4064 Y31.8603 F500.00
G01 X64.2503 Y31.9250 F500.00
G01 X64.0845 Y31.9579 F500.00
G01 X63.9155 Y31.9579 F500.00
G01 X63.7497 Y31.9250 F500.00
G01 X63.5936 Y31.8603 F500.00
G01 X63.4531 Y31.7664 F500.00
G01 X63.3336 Y31.6469 F500.00
G01 X63.2397 Y31.5064 F500.00
G01 X63.1750 Y31.3503 F500.00
G01 X63.1734 Y31.3422 F500.00
G01 X63.1698 Y31.3277 F500.00
G01 X63.1631 Y31.3090 F500.00
G01 X63.1562 Y31.2944 F500.00
G01 X63.1485 Y31.2816 F500.00
G01 X63.1353 Y31.2637 F500.00
G01 X63.1243 Y31.2518 F500.00
G01 X63.1104 Y31.2395 F500.00
G01 X63.0963 Y31.2294 F500.00
G01 X63.0835 Y31.2217 F500.00
G01 X63.0700 Y31.2153 F500.00
G01 X63.0514 Y31.2085 F500.00
G01 X63.0345 Y31.2042 F500.00
G01 X63.0174 Y31.2017 F500.00
G01 X62.9988 Y31.2008 F500.00
G01 X62.9826 Y31.2017 F500.00
G01 X62.9631 Y31.2048 F500.00
G01 X62.9463 Y31.2092 F500.00
G01 X62.9322 Y31.2143 F500.00
G01 X62.9187 Y31.2206 F500.00
G01 X62.9016 Y31.2307 F500.00
G01 X62.8877 Y31.2410 F500.00
G01 X62.8748 Y31.2527 F500.00
G01 X62.8624 Y31.2665 F500.00
G01 X62.8528 Y31.2795 F500.00
G01 X62.8451 Y31.2923 F500.00
G01 X62.8364 Y31.3101 F500.00
G01 X62.8302 Y31.3277 F500.00
G01 X62.8266 Y31.3422 F500.00
G01 X62.8250 Y31.3503 F500.00
G01 X62.7603 Y31.5064 F500.00
G01 X62.6664 Y31.6469 F500.00
G01 X62.5469 Y31.7664 F500.00
G01 X62.4064 Y31.8603 F500.00
G01 X62.2503 Y31.9250 F500.00
G01 X62.0845 Y31.9579 F500.00
G01 X61.9155 Y31.9579 F500.00
G01 X61.7497 Y31.9250 F500.00
G01 X61.5936 Y31.8603 F500.00
G01 X61.4531 Y31.7664 F500.00
G01 X61.3336 Y31.6469 F500.00
G01 X61.2397 Y31.5064 F500.00
G01 X61.1750 Y31.3503 F500.00
G01 X61.1421 Y31.1845 F500.00
G01 X61.1421 Y31.0155 F500.00
G01 X61.1750 Y30.8497 F500.00
G01 X61.2397 Y30.6936 F500.00
G01 X61.3336 Y30.5531 F500.00
G01 X61.4531 Y30.4336 F500.00
G01 X61.5936 Y30.3397 F500.00
G01 X61.7497 Y30.2750 F500.00
G01 X61.9155 Y30.2421 F500.00
G01 X62.0845 Y30.2421 F500.00
G01 X62.2503 Y30.2750 F500.00
G01 X62.4064 Y30.3397 F500.00
G01 X62.5469 Y30.4336 F500.00
G01 X62.6664 Y30.5531 F500.00
G01 X62.7603 Y30.6936 F500.00
G01 X62.8250 Y30.8497 F500.00
G01 X62.8266 Y30.8578 F500.00
G01 X62.8302 Y30.8723 F500.00
G01 X62.8364 Y30.8899 F500.00
G01 X62.8451 Y30.9077 F500.00
G01 X62.8528 Y30.9205 F500.00
G01 X62.8631 Y30.9344 F500.00
G01 X62.8748 Y30.9473 F500.00
G01 X62.8896 Y30.9605 F500.00
G01 X62.9037 Y30.9706 F500.00
G01 X62.9165 Y30.9783 F500.00
G01 X62.9300 Y30.9847 F500.00
G01 X62.9486 Y30.9915 F500.00
G01 X62.9655 Y30.9958 F500.00
G01 X62.9826 Y30.9983 F500.00
G01 X63.0000 Y30.9992 F500.00
G01 X63.0174 Y30.9983 F500.00
G01 X63.0369 Y30.9952 F500.00
G01 X63.0537 Y30.9908 F500.00
G01 X63.0678 Y30.9857 F500.00
G01 X63.0813 Y30.9794 F500.00
G01 X63.0984 Y30.9693 F500.00
G01 X63.1123 Y30.9590 F500.00
G01 X63.1252 Y30.9473 F500.00
G01 X63.1369 Y30.9344 F500.00
G01 X63.1472 Y30.9205 F500.00
G01 X63.1549 Y30.9077 F500.00
G01 X63.1636 Y30.8899 F500.00
G01 X63.1698 Y30.8723 F500.00
G01 X63.1734 Y30.8578 F500.00
G01 X63.1750 Y30.8497 F500.00
G01 X63.2397 Y30.6936 F500.00
G01 X63.3336 Y30.5531 F500.00
G01 X63.4531 Y30.4336 F500.00
G01 X63.5936 Y30.3397 F500.00
G01 X63.7497 Y30.2750 F500.00
G01 X63.9155 Y30.2421 F500.00
G01 X64.0845 Y30.2421 F500.00
G01 X64.2503 Y30.2750 F500.00
G01 X64.4064 Y30.3397 F500.00
G01 X64.5469 Y30.4336 F500.00
G01 X64.6664 Y30.5531 F500.00
G01 X64.7603 Y30.6936 F500.00
G01 X64.8250 Y30.8497 F500.00
G01 X64.8266 Y30.8578 F500.00
G01 X64.8302 Y30.8723 F500.00
G01 X64.8364 Y30.8899 F500.00
G01 X64.8451 Y30.9077 F500.00
G01 X64.8528 Y30.9205 F500.00
G01 X64.8631 Y30.9344 F500.00
G01 X64.8748 Y30.9473 F500.00
G01 X64.8896 Y30.9605 F500.00
G01 X64.9037 Y30.9706 F500.00
G01 X64.9165 Y30.9783 F500.00
G01 X64.9300 Y30.9847 F500.00
G01 X64.9486 Y30.9915 F500.00
G01 X64.9655 Y30.9958 F500.00
G01 X64.9826 Y30.9983 F500.00
G01 X65.0000 Y30.9992 F500.00
G01 X65.0174 Y30.9983 F500.00
G01 X65.0369 Y30.9952 F500.00
G01 X65.0537 Y30.9908 F500.00
G01 X65.0678 Y30.9857 F500.00
G01 X65.0813 Y30.9794 F500.00
G01 X65.0984 Y30.9693 F500.00
G01 X65.1123 Y30.9590 F500.00
G01 X65.1252 Y30.9473 F500.00
G01 X65.1369 Y30.9344 F500.00
G01 X65.1472 Y30.9205 F500.00
G01 X65.1549 Y30.9077 F500.00
G01 X65.1636 Y30.8899 F500.00
G01 X65.1698 Y30.8723 F500.00
G01 X65.1734 Y30.8578 F500.00
G01 X65.1750 Y30.8497 F500.00
G01 X65.2397 Y30.6936 F500.00
G01 X65.3336 Y30.5531 F500.00
G01 X65.4531 Y30.4336 F500.00
G01 X65.5936 Y30.3397 F500.00
G01 X65.7497 Y30.2750 F500.00
G01 X65.9155 Y30.2421 F500.00
G01 X66.0845 Y30.2421 F500.00
G01 X66.2503 Y30.2750 F500.00
G01 X66.4064 Y30.3397 F500.00
G01 X66.5469 Y30.4336 F500.00
G01 X66.6664 Y30.5531 F500.00
G01 X66.7603 Y30.6936 F500.00
G01 X66.8250 Y30.8497 F500.00
G01 X66.8266 Y30.8578 F500.00
G01 X66.8302 Y30.8723 F500.00
G01 X66.8369 Y30.8910 F500.00
G01 X66.8438 Y30.9056 F500.00
G01 X66.8515 Y30.9184 F500.00
G01 X66.8647 Y30.9363 F500.00
G01 X66.8757 Y30.9482 F500.00
G01 X66.8896 Y30.9605 F500.00
G01 X66.9037 Y30.9706 F500.00
G01 X66.9165 Y30.9783 F500.00
G01 X66.9300 Y30.9847 F500.00
G01 X66.9486 Y30.9915 F500.00
G01 X66.9655 Y30.9958 F500.00
G01 X66.9826 Y30.9983 F500.00
G01 X67.0012 Y30.9992 F500.00
G01 X67.0174 Y30.9983 F500.00
G01 X67.0369 Y30.9952 F500.00
G01 X67.0537 Y30.9908 F500.00
G01 X67.0678 Y30.9857 F500.00
G01 X67.0813 Y30.9794 F500.00
G01 X67.0984 Y30.9693 F500.00
G01 X67.1123 Y30.9590 F500.00
G01 X67.1252 Y30.9473 F500.00
G01 X67.1376 Y30.9335 F500.00
G01 X67.1472 Y30.9205 F500.00
G01 X67.1549 Y30.9077 F500.00
G01 X67.1636 Y30.8899 F500.00
G01 X67.1698 Y30.8723 F500.00
G01 X67.1734 Y30.8578 F500.00
G01 X67.1750 Y30.8497 F500.00
G01 X67.2397 Y30.6936 F500.00
G01 X67.3336 Y30.5531 F500.00
G01 X67.4531 Y30.4336 F500.00
G01 X67.5936 Y30.3397 F500.00
G01 X67.7497 Y30.2750 F500.00
G01 X67.9155 Y30.2421 F500.00
G01 X68.0845 Y30.2421 F500.00
G01 X68.2503 Y30.2750 F500.00
G01 X68.4064 Y30.3397 F500.00
G01 X68.5469 Y30.4336 F500.00
G01 X68.6664 Y30.5531 F500.00
G01 X68.7603 Y30.6936 F500.00
G01 X68.8250 Y30.8497 F500.00
G01 X68.8579 Y31.0155 F500.00
G01 X68.8579 Y31.1845 F500.00
G00 Z2.0000
G00 X70.4692 Y35.3007
G01 F500.00
G01 Z-0.8000
G01 F500.00
G01 X70.7499 Y35.0199 F500.00
G01 X70.7740 Y34.9984 F500.00
G01 X70.7960 Y34.9821 F500.00
G01 X70.8216 Y34.9668 F500.00
G01 X70.8486 Y34.9540 F500.00
G01 X70.8744 Y34.9447 F500.00
G01 X70.9081 Y34.9363 F500.00
G01 X70.9352 Y34.9323 F500.00
G01 X70.9625 Y34.9309 F500.00
G01 X74.0726 Y34.9309 F500.00
G01 X74.0889 Y34.9187 F500.00
G01 X74.1036 Y34.9098 F500.00
G01 X74.1258 Y34.8993 F500.00
G01 X74.1419 Y34.8936 F500.00
G01 X74.1610 Y34.8888 F500.00
G01 X74.1804 Y34.8860 F500.00
G01 X74.1988 Y34.8850 F500.00
G01 X75.8512 Y34.8850 F500.00
G01 X75.8696 Y34.8860 F500.00
G01 X75.8890 Y34.8888 F500.00
G01 X75.9081 Y34.8936 F500.00
G01 X75.9265 Y34.9002 F500.00
G01 X75.9443 Y34.9086 F500.00
G01 X75.9611 Y34.9187 F500.00
G01 X75.9769 Y34.9304 F500.00
G01 X75.9914 Y34.9436 F500.00
G01 X76.0046 Y34.9581 F500.00
G01 X76.0163 Y34.9739 F500.00
G01 X76.0264 Y34.9907 F500.00
G01 X76.0348 Y35.0085 F500.00
G01 X76.0414 Y35.0269 F500.00
G01 X76.0462 Y35.0460 F500.00
G01 X76.0490 Y35.0654 F500.00
G01 X76.0499 Y35.0825 F500.00
G01 X76.0499 Y35.3875 F500.00
G01 X76.0490 Y35.4046 F500.00
G01 X76.0462 Y35.4240 F500.00
G01 X76.0414 Y35.4431 F500.00
G01 X76.0357 Y35.4592 F500.00
G01 X76.0258 Y35.4804 F500.00
G01 X76.0163 Y35.4961 F500.00
G01 X76.0061 Y35.5099 F500.00
G01 X75.9914 Y35.5264 F500.00
G01 X75.9749 Y35.5411 F500.00
G01 X75.9611 Y35.5513 F500.00
G01 X75.9464 Y35.5602 F500.00
G01 X75.9265 Y35.5698 F500.00
G01 X75.9081 Y35.5764 F500.00
G01 X75.8914 Y35.5806 F500.00
G01 X75.8696 Y35.5840 F500.00
G01 X75.8500 Y35.5850 F500.00
G01 X74.1988 Y35.5850 F500.00
G01 X74.1804 Y35.5840 F500.00
G01 X74.1610 Y35.5812 F500.00
G01 X74.1419 Y35.5764 F500.00
G01 X74.1258 Y35.5707 F500.00
G01 X74.1036 Y35.5602 F500.00
G01 X74.0889 Y35.5513 F500.00
G01 X74.0726 Y35.5391 F500.00
G01 X71.0910 Y35.5391 F500.00
G01 X70.8993 Y35.7308 F500.00
G01 X70.9177 Y35.7823 F500.00
G01 X70.9351 Y35.8513 F500.00
G01 X70.9464 Y35.9265 F500.00
G01 X70.9500 Y36.0000 F500.00
G01 X70.9466 Y36.0711 F500.00
G01 X70.9356 Y36.1463 F500.00
G01 X70.9177 Y36.2177 F500.00
G01 X70.8938 Y36.2847 F500.00
G01 X70.8614 Y36.3535 F500.00
G01 X70.8236 Y36.4167 F500.00
G01 X70.7813 Y36.4739 F500.00
G01 X70.7303 Y36.5303 F500.00
G01 X70.6739 Y36.5813 F500.00
G01 X70.6167 Y36.6236 F500.00
G01 X70.5535 Y36.6614 F500.00
G01 X70.4847 Y36.6938 F500.00
G01 X70.4177 Y36.7177 F500.00
G01 X70.3463 Y36.7356 F500.00
G01 X70.2711 Y36.7466 F500.00
G01 X70.2000 Y36.7500 F500.00
G01 X70.1265 Y36.7464 F500.00
G01 X70.0513 Y36.7351 F500.00
G01 X69.9823 Y36.7177 F500.00
G01 X69.9141 Y36.6934 F500.00
G01 X69.8465 Y36.6614 F500.00
G01 X69.7833 Y36.6236 F500.00
G01 X69.7242 Y36.5798 F500.00
G01 X69.6697 Y36.5303 F500.00
G01 X69.6202 Y36.4758 F500.00
G01 X69.5764 Y36.4167 F500.00
G01 X69.5386 Y36.3535 F500.00
G01 X69.5071 Y36.2870 F500.00
G01 X69.4823 Y36.2177 F500.00
G01 X69.4644 Y36.1463 F500.00
G01 X69.4536 Y36.0735 F500.00
G01 X69.4500 Y36.0000 F500.00
G01 X69.4536 Y35.9265 F500.00
G01 X69.4644 Y35.8537 F500.00
G01 X69.4823 Y35.7823 F500.00
G01 X69.5066 Y35.7141 F500.00
G01 X69.5386 Y35.6465 F500.00
G01 X69.5764 Y35.5833 F500.00
G01 X69.6202 Y35.5242 F500.00
G01 X69.6697 Y35.4697 F500.00
G01 X69.7242 Y35.4202 F500.00
G01 X69.7833 Y35.3764 F500.00
G01 X69.8465 Y35.3386 F500.00
G01 X69.9119 Y35.3076 F500.00
G01 X69.9823 Y35.2823 F500.00
G01 X70.0537 Y35.2644 F500.00
G01 X70.1265 Y35.2536 F500.00
G01 X70.1988 Y35.2500 F500.00
G01 X70.2735 Y35.2536 F500.00
G01 X70.3463 Y35.2644 F500.00
G01 X70.4177 Y35.2823 F500.00
G01 X70.4692 Y35.3007 F500.00
G00 Z2.0000
G00 X70.4500 Y39.5500
G01 F500.00
G01 Z-0.8000
G01 F500.00
G01 X69.9791 Y39.5500 F500.00
G01 X69.9791 Y39.1971 F500.00
G01 X70.0346 Y39.1416 F500.00
G01 X70.4419 Y39.1390 F500.00
G01 X70.5398 Y39.1487 F500.00
G01 X70.6261 Y39.1749 F500.00
G01 X70.7056 Y39.2174 F500.00
G01 X70.7754 Y39.2746 F500.00
G01 X70.8326 Y39.3444 F500.00
G01 X70.8751 Y39.4239 F500.00
G01 X70.9013 Y39.5102 F500.00
G01 X70.9109 Y39.6080 F500.00
G01 X70.9087 Y39.8692 F500.00
G01 X70.8320 Y39.9459 F500.00
G01 X70.5000 Y39.9459 F500.00
G01 X70.5000 Y39.6000 F500.00
G01 X70.4996 Y39.5939 F500.00
G01 X70.4978 Y39.5855 F500.00
G01 X70.4947 Y39.5775 F500.00
G01 X70.4902 Y39.5702 F500.00
G01 X70.4836 Y39.5630 F500.00
G01 X70.4767 Y39.5578 F500.00
G01 X70.4680 Y39.5534 F500.00
G01 X70.4585 Y39.5507 F500.00
G01 X70.4500 Y39.5500 F500.00
G00 Z2.0000
G00 X70.8530 Y40.5541
G01 F500.00
G01 Z-0.8000
G01 F500.00
G01 X70.9086 Y40.6097 F500.00
G01 X70.9109 Y40.8920 F500.00
G01 X70.9013 Y40.9898 F500.00
G01 X70.8751 Y41.0761 F500.00
G01 X70.8326 Y41.1556 F500.00
G01 X70.7754 Y41.2254 F500.00
G01 X70.7056 Y41.2826 F500.00
G01 X70.6261 Y41.3251 F500.00
G01 X70.5398 Y41.3513 F500.00
G01 X70.4419 Y41.3610 F500.00
G01 X70.0346 Y41.3584 F500.00
G01 X69.9791 Y41.3029 F500.00
G01 X69.9791 Y40.9500 F500.00
G01 X70.4500 Y40.9500 F500.00
G01 X70.4598 Y40.9490 F500.00
G01 X70.4645 Y40.9478 F500.00
G01 X70.4703 Y40.9457 F500.00
G01 X70.4767 Y40.9422 F500.00
G01 X70.4817 Y40.9387 F500.00
G01 X70.4870 Y40.9336 F500.00
G01 X70.4909 Y40.9288 F500.00
G01 X70.4941 Y40.9236 F500.00
G01 X70.4971 Y40.9168 F500.00
G01 X70.4990 Y40.9098 F500.00
G01 X70.4999 Y40.9037 F500.00
G01 X70.5000 Y40.5541 F500.00
G01 X70.8530 Y40.5541 F500.00
G00 Z2.0000
G00 X68.9000 Y40.9500
G01 F500.00
G01 Z-0.8000
G01 F500.00
G01 X69.3709 Y40.9500 F500.00
G01 X69.3709 Y41.3029 F500.00
G01 X69.3154 Y41.3584 F500.00
G01 X68.9081 Y41.3610 F500.00
G01 X68.8102 Y41.3513 F500.00
G01 X68.7239 Y41.3251 F500.00
G01 X68.6444 Y41.2826 F500.00
G01 X68.5746 Y41.2254 F500.00
G01 X68.5174 Y41.1556 F500.00
G01 X68.4749 Y41.0761 F500.00
G01 X68.4487 Y40.9898 F500.00
G01 X68.4391 Y40.8920 F500.00
G01 X68.4414 Y40.6097 F500.00
G01 X68.4971 Y40.5541 F500.00
G01 X68.8500 Y40.5541 F500.00
G01 X68.8500 Y40.9000 F500.00
G01 X68.8504 Y40.9061 F500.00
G01 X68.8525 Y40.9157 F500.00
G01 X68.8559 Y40.9236 F500.00
G01 X68.8613 Y40.9317 F500.00
G01 X68.8673 Y40.9379 F500.00
G01 X68.8754 Y40.9435 F500.00
G01 X68.8832 Y40.9471 F500.00
G01 X68.8915 Y40.9493 F500.00
G01 X68.9000 Y40.9500 F500.00
G00 Z2.0000
G00 X68.8500 Y39.6000
G01 F500.00
G01 Z-0.8000
G01 F500.00
G01 X68.8500 Y39.9459 F500.00
G01 X68.4971 Y39.9459 F500.00
G01 X68.4414 Y39.8903 F500.00
G01 X68.4391 Y39.6080 F500.00
G01 X68.4487 Y39.5102 F500.00
G01 X68.4749 Y39.4239 F500.00
G01 X68.5174 Y39.3444 F500.00
G01 X68.5746 Y39.2746 F500.00
G01 X68.6444 Y39.2174 F500.00
G01 X68.7239 Y39.1749 F500.00
G01 X68.8102 Y39.1487 F500.00
G01 X68.9081 Y39.1390 F500.00
G01 X69.3154 Y39.1416 F500.00
G01 X69.3709 Y39.1971 F500.00
G01 X69.3709 Y39.5500 F500.00
G01 X68.8951 Y39.5502 F500.00
G01 X68.8867 Y39.5518 F500.00
G01 X68.8775 Y39.5553 F500.00
G01 X68.8692 Y39.5606 F500.00
G01 X68.8630 Y39.5664 F500.00
G01 X68.8578 Y39.5733 F500.00
G01 X68.8534 Y39.5820 F500.00
G01 X68.8507 Y39.5915 F500.00
G01 X68.8500 Y39.6000 F500.00
G00 Z2.0000
G00 X62.5500 Y40.9000
G01 F500.00
G01 Z-0.8000
G01 F500.00
G01 X62.5500 Y40.5541 F500.00
G01 X62.9029 Y40.5541 F500.00
G01 X62.9586 Y40.6097 F500.00
G01 X62.9609 Y40.8920 F500.00
G01 X62.9513 Y40.9898 F500.00
G01 X62.9251 Y41.0761 F500.00
G01 X62.8826 Y41.1556 F500.00
G01 X62.8254 Y41.2254 F500.00
G01 X62.7556 Y41.2826 F500.00
G01 X62.6761 Y41.3251 F500.00
G01 X62.5898 Y41.3513 F500.00
G01 X62.4919 Y41.3610 F500.00
G01 X62.0846 Y41.3584 F500.00
G01 X62.0291 Y41.3029 F500.00
G01 X62.0291 Y40.9500 F500.00
G01 X62.5049 Y40.9498 F500.00
G01 X62.5133 Y40.9482 F500.00
G01 X62.5225 Y40.9447 F500.00
G01 X62.5308 Y40.9394 F500.00
G01 X62.5370 Y40.9336 F500.00
G01 X62.5429 Y40.9257 F500.00
G01 X62.5466 Y40.9180 F500.00
G01 X62.5490 Y40.9098 F500.00
G01 X62.5500 Y40.9000 F500.00
G00 Z2.0000
G00 X60.9500 Y40.9500
G01 F500.00
G01 Z-0.8000
G01 F500.00
G01 X61.4209 Y40.9500 F500.00
G01 X61.4209 Y41.3029 F500.00
G01 X61.3654 Y41.3584 F500.00
G01 X60.9581 Y41.3610 F500.00
G01 X60.8602 Y41.3513 F500.00
G01 X60.7739 Y41.3251 F500.00
G01 X60.6944 Y41.2826 F500.00
G01 X60.6246 Y41.2254 F500.00
G01 X60.5674 Y41.1556 F500.00
G01 X60.5249 Y41.0761 F500.00
G01 X60.4987 Y40.9898 F500.00
G01 X60.4891 Y40.8920 F500.00
G01 X60.4914 Y40.6097 F500.00
G01 X60.5471 Y40.5541 F500.00
G01 X60.9000 Y40.5541 F500.00
G01 X60.9000 Y40.9000 F500.00
G01 X60.9004 Y40.9061 F500.00
G01 X60.9025 Y40.9157 F500.00
G01 X60.9059 Y40.9236 F500.00
G01 X60.9113 Y40.9317 F500.00
G01 X60.9173 Y40.9379 F500.00
G01 X60.9254 Y40.9435 F500.00
G01 X60.9332 Y40.9471 F500.00
G01 X60.9415 Y40.9493 F500.00
G01 X60.9500 Y40.9500 F500.00
G00 Z2.0000
G00 X62.5000 Y44.0500
G01 F500.00
G01 Z-0.8000
G01 F500.00
G01 X62.5098 Y44.0510 F500.00
G01 X62.5191 Y44.0538 F500.00
G01 X62.5278 Y44.0584 F500.00
G01 X62.5354 Y44.0646 F500.00
G01 X62.5416 Y44.0722 F500.00
G01 X62.5462 Y44.0809 F500.00
G01 X62.5488 Y44.0890 F500.00
G01 X62.5500 Y44.0988 F500.00
G01 X62.5500 Y45.4012 F500.00
G01 X62.5488 Y45.4110 F500.00
G01 X62.5475 Y45.4157 F500.00
G01 X62.5452 Y45.4214 F500.00
G01 X62.5402 Y45.4298 F500.00
G01 X62.5370 Y45.4336 F500.00
G01 X62.5327 Y45.4379 F500.00
G01 X62.5246 Y45.4435 F500.00
G01 X62.5168 Y45.4471 F500.00
G01 X62.5085 Y45.4493 F500.00
G01 X62.5000 Y45.4500 F500.00
G01 X60.9500 Y45.4500 F500.00
G01 X60.9439 Y45.4496 F500.00
G01 X60.9390 Y45.4488 F500.00
G01 X60.9297 Y45.4457 F500.00
G01 X60.9254 Y45.4435 F500.00
G01 X60.9202 Y45.4402 F500.00
G01 X60.9164 Y45.4370 F500.00
G01 X60.9121 Y45.4327 F500.00
G01 X60.9071 Y45.4257 F500.00
G01 X60.9034 Y45.4180 F500.00
G01 X60.9007 Y45.4085 F500.00
G01 X60.9000 Y45.4000 F500.00
G01 X60.9000 Y44.1000 F500.00
G01 X60.9002 Y44.0951 F500.00
G01 X60.9012 Y44.0890 F500.00
G01 X60.9025 Y44.0843 F500.00
G01 X60.9048 Y44.0786 F500.00
G01 X60.9098 Y44.0702 F500.00
G01 X60.9130 Y44.0664 F500.00
G01 X60.9173 Y44.0621 F500.00
G01 X60.9243 Y44.0571 F500.00
G01 X60.9320 Y44.0534 F500.00
G01 X60.9415 Y44.0507 F500.00
G01 X60.9500 Y44.0500 F500.00
G01 X62.5000 Y44.0500 F500.00
G00 Z2.0000
G00 X60.4987 Y45.4899
G01 F500.00
G01 Z-0.8000
G01 F500.00
G01 X60.5026 Y45.5055 F500.00
G01 X60.5053 Y45.5251 F500.00
G01 X60.5060 Y45.5400 F500.00
G01 X60.5053 Y45.5549 F500.00
G01 X60.5030 Y45.5721 F500.00
G01 X60.4983 Y45.5914 F500.00
G01 X60.4925 Y45.6078 F500.00
G01 X60.4851 Y45.6235 F500.00
G01 X60.4761 Y45.6384 F500.00
G01 X60.4658 Y45.6523 F500.00
G01 X60.4541 Y45.6652 F500.00
G01 X60.4412 Y45.6769 F500.00
G01 X60.4252 Y45.6885 F500.00
G01 X60.4124 Y45.6962 F500.00
G01 X60.3989 Y45.7026 F500.00
G01 X60.3826 Y45.7087 F500.00
G01 X60.3634 Y45.7137 F500.00
G01 X60.3463 Y45.7162 F500.00
G01 X60.3289 Y45.7171 F500.00
G01 X60.0588 Y45.7170 F500.00
G01 X60.0426 Y45.7162 F500.00
G01 X60.0279 Y45.7141 F500.00
G01 X60.0074 Y45.7091 F500.00
G01 X59.9922 Y45.7036 F500.00
G01 X59.9787 Y45.6973 F500.00
G01 X59.9616 Y45.6872 F500.00
G01 X59.9477 Y45.6769 F500.00
G01 X59.9366 Y45.6669 F500.00
G01 X59.9231 Y45.6523 F500.00
G01 X59.9128 Y45.6384 F500.00
G01 X59.9051 Y45.6256 F500.00
G01 X59.8964 Y45.6078 F500.00
G01 X59.8899 Y45.5890 F500.00
G01 X59.8863 Y45.5745 F500.00
G01 X59.8838 Y45.5574 F500.00
G01 X59.8829 Y45.5400 F500.00
G01 X59.8829 Y29.8600 F500.00
G01 X59.8841 Y29.8402 F500.00
G01 X59.8863 Y29.8255 F500.00
G01 X59.8906 Y29.8086 F500.00
G01 X59.8974 Y29.7900 F500.00
G01 X59.9038 Y29.7765 F500.00
G01 X59.9115 Y29.7637 F500.00
G01 X59.9231 Y29.7477 F500.00
G01 X59.9366 Y29.7331 F500.00
G01 X59.9477 Y29.7231 F500.00
G01 X59.9596 Y29.7142 F500.00
G01 X59.9776 Y29.7033 F500.00
G01 X59.9945 Y29.6955 F500.00
G01 X60.0086 Y29.6906 F500.00
G01 X60.0231 Y29.6869 F500.00
G01 X60.0426 Y29.6838 F500.00
G01 X60.0600 Y29.6829 F500.00
G01 X90.7400 Y29.6829 F500.00
G01 X90.7598 Y29.6841 F500.00
G01 X90.7745 Y29.6863 F500.00
G01 X90.7914 Y29.6906 F500.00
G01 X90.8100 Y29.6974 F500.00
G01 X90.8235 Y29.7038 F500.00
G01 X90.8363 Y29.7115 F500.00
G01 X90.8523 Y29.7231 F500.00
G01 X90.8669 Y29.7366 F500.00
G01 X90.8769 Y29.7477 F500.00
G01 X90.8858 Y29.7596 F500.00
G01 X90.8967 Y29.7776 F500.00
G01 X90.9045 Y29.7945 F500.00
G01 X90.9094 Y29.8086 F500.00
G01 X90.9131 Y29.8231 F500.00
G01 X90.9162 Y29.8426 F500.00
G01 X90.9171 Y29.8600 F500.00
G01 X90.9171 Y45.5400 F500.00
G01 X90.9159 Y45.5598 F500.00
G01 X90.9137 Y45.5745 F500.00
G01 X90.9094 Y45.5914 F500.00
G01 X90.9026 Y45.6100 F500.00
G01 X90.8962 Y45.6235 F500.00
G01 X90.8885 Y45.6363 F500.00
G01 X90.8769 Y45.6523 F500.00
G01 X90.8634 Y45.6669 F500.00
G01 X90.8523 Y45.6769 F500.00
G01 X90.8404 Y45.6858 F500.00
G01 X90.8224 Y45.6967 F500.00
G01 X90.8055 Y45.7045 F500.00
G01 X90.7914 Y45.7094 F500.00
G01 X90.7769 Y45.7131 F500.00
G01 X90.7574 Y45.7162 F500.00
G01 X90.7400 Y45.7171 F500.00
G01 X88.0627 Y45.7171 F500.00
G01 X88.0454 Y45.7162 F500.00
G01 X88.0282 Y45.7137 F500.00
G01 X88.0113 Y45.7094 F500.00
G01 X87.9938 Y45.7031 F500.00
G01 X87.9771 Y45.6949 F500.00
G01 X87.9644 Y45.6872 F500.00
G01 X87.9523 Y45.6784 F500.00
G01 X87.9375 Y45.6652 F500.00
G01 X87.9244 Y45.6504 F500.00
G01 X87.9155 Y45.6384 F500.00
G01 X87.9078 Y45.6256 F500.00
G01 X87.8992 Y45.6078 F500.00
G01 X87.8926 Y45.5890 F500.00
G01 X87.8891 Y45.5745 F500.00
G01 X87.8868 Y45.5598 F500.00
G01 X87.8857 Y45.5375 F500.00
G01 X87.8865 Y45.5226 F500.00
G01 X87.8891 Y45.5055 F500.00
G01 X87.8933 Y45.4886 F500.00
G01 X87.8983 Y45.4745 F500.00
G01 X87.9134 Y45.4378 F500.00
G01 X87.9579 Y45.2140 F500.00
G01 X87.9579 Y44.9860 F500.00
G01 X87.9134 Y44.7622 F500.00
G01 X87.8261 Y44.5515 F500.00
G01 X87.6994 Y44.3619 F500.00
G01 X87.5381 Y44.2006 F500.00
G01 X87.3485 Y44.0739 F500.00
G01 X87.1378 Y43.9866 F500.00
G01 X86.9140 Y43.9421 F500.00
G01 X86.6860 Y43.9421 F500.00
G01 X86.4622 Y43.9866 F500.00
G01 X86.2515 Y44.0739 F500.00
G01 X86.0619 Y44.2006 F500.00
G01 X85.9006 Y44.3619 F500.00
G01 X85.7960 Y44.5184 F500.00
G01 X85.7863 Y44.5313 F500.00
G01 X85.7755 Y44.5433 F500.00
G01 X85.7598 Y44.5574 F500.00
G01 X85.7478 Y44.5662 F500.00
G01 X85.7329 Y44.5752 F500.00
G01 X85.7149 Y44.5835 F500.00
G01 X85.7008 Y44.5884 F500.00
G01 X85.6840 Y44.5927 F500.00
G01 X85.6668 Y44.5952 F500.00
G01 X85.6494 Y44.5961 F500.00
G01 X84.4714 Y44.5961 F500.00
G01 X84.4553 Y44.5953 F500.00
G01 X84.4345 Y44.5921 F500.00
G01 X84.4200 Y44.5884 F500.00
G01 X84.4060 Y44.5835 F500.00
G01 X84.3880 Y44.5752 F500.00
G01 X84.3711 Y44.5648 F500.00
G01 X84.3591 Y44.5559 F500.00
G01 X84.3480 Y44.5459 F500.00
G01 X84.3346 Y44.5313 F500.00
G01 X84.3229 Y44.5153 F500.00
G01 X84.3153 Y44.5025 F500.00
G01 X84.3079 Y44.4868 F500.00
G01 X84.3013 Y44.4680 F500.00
G01 X84.2978 Y44.4535 F500.00
G01 X84.2955 Y44.4388 F500.00
G01 X84.2944 Y44.4190 F500.00
G01 X84.2954 Y44.4004 F500.00
G01 X84.2978 Y44.3845 F500.00
G01 X84.3017 Y44.3688 F500.00
G01 X84.3074 Y44.3524 F500.00
G01 X84.3134 Y44.3378 F500.00
G01 X84.3579 Y44.1140 F500.00
G01 X84.3579 Y43.8860 F500.00
G01 X84.3134 Y43.6622 F500.00
G01 X84.2261 Y43.4515 F500.00
G01 X84.0994 Y43.2619 F500.00
G01 X83.9638 Y43.1262 F500.00
G01 X83.9506 Y43.1114 F500.00
G01 X83.9418 Y43.0994 F500.00
G01 X83.9341 Y43.0866 F500.00
G01 X83.9259 Y43.0699 F500.00
G01 X83.9196 Y43.0524 F500.00
G01 X83.9149 Y43.0331 F500.00
G01 X83.9128 Y43.0184 F500.00
G01 X83.9119 Y43.0010 F500.00
G01 X83.9120 Y42.1593 F500.00
G01 X83.9130 Y42.1411 F500.00
G01 X83.9152 Y42.1266 F500.00
G01 X83.9186 Y42.1124 F500.00
G01 X83.9249 Y42.0940 F500.00
G01 X83.9321 Y42.0785 F500.00
G01 X83.9407 Y42.0638 F500.00
G01 X83.9506 Y42.0500 F500.00
G01 X83.9619 Y42.0372 F500.00
G01 X83.9726 Y42.0272 F500.00
G01 X83.9869 Y42.0159 F500.00
G01 X84.0002 Y42.0074 F500.00
G01 X84.0198 Y41.9976 F500.00
G01 X84.0334 Y41.9924 F500.00
G01 X84.0498 Y41.9878 F500.00
G01 X84.0666 Y41.9849 F500.00
G01 X84.0836 Y41.9835 F500.00
G01 X84.1007 Y41.9838 F500.00
G01 X84.1176 Y41.9858 F500.00
G01 X84.1342 Y41.9893 F500.00
G01 X84.1494 Y41.9941 F500.00
G01 X84.1683 Y42.0022 F500.00
G01 X84.1811 Y42.0093 F500.00
G01 X84.1943 Y42.0181 F500.00
G01 X84.5183 Y42.2612 F500.00
G01 X84.5334 Y42.2709 F500.00
G01 X84.5412 Y42.2768 F500.00
G01 X84.5746 Y42.2953 F500.00
G01 X84.6026 Y42.3123 F500.00
G01 X84.6105 Y42.3156 F500.00
G01 X84.6193 Y42.3199 F500.00
G01 X84.6557 Y42.3316 F500.00
G01 X84.6864 Y42.3428 F500.00
G01 X84.6948 Y42.3445 F500.00
G01 X84.7043 Y42.3470 F500.00
G01 X84.7422 Y42.3514 F500.00
G01 X84.7746 Y42.3564 F500.00
G01 X84.7844 Y42.3565 F500.00
G01 X84.8016 Y42.3579 F500.00
G01 X86.1913 Y42.3579 F500.00
G01 X86.2092 Y42.3567 F500.00
G01 X86.2191 Y42.3568 F500.00
G01 X86.2569 Y42.3515 F500.00
G01 X86.2894 Y42.3483 F500.00
G01 X86.2977 Y42.3462 F500.00
G01 X86.3074 Y42.3444 F500.00
G01 X86.3383 Y42.3336 F500.00
G01 X86.3748 Y42.3224 F500.00
G01 X86.3837 Y42.3182 F500.00
G01 X86.3917 Y42.3150 F500.00
G01 X86.4199 Y42.2985 F500.00
G01 X86.4535 Y42.2804 F500.00
G01 X86.4614 Y42.2745 F500.00
G01 X86.4760 Y42.2654 F500.00
G01 X86.8678 Y41.9715 F500.00
G01 X86.8934 Y41.9482 F500.00
G01 X86.9198 Y41.9266 F500.00
G01 X86.9355 Y41.9098 F500.00
G01 X86.9401 Y41.9054 F500.00
G01 X86.9555 Y41.8845 F500.00
G01 X86.9771 Y41.8582 F500.00
G01 X86.9893 Y41.8387 F500.00
G01 X86.9929 Y41.8336 F500.00
G01 X87.0040 Y41.8101 F500.00
G01 X87.0201 Y41.7801 F500.00
G01 X87.0282 Y41.7586 F500.00
G01 X87.0308 Y41.7528 F500.00
G01 X87.0371 Y41.7276 F500.00
G01 X87.0471 Y41.6950 F500.00
G01 X87.0509 Y41.6724 F500.00
G01 X87.0523 Y41.6662 F500.00
G01 X87.0542 Y41.6322 F500.00
G01 X87.0579 Y41.5984 F500.00
G01 X87.0579 Y41.3312 F500.00
G01 X87.0587 Y41.3151 F500.00
G01 X87.0610 Y41.2913 F500.00
G01 X87.0610 Y39.3087 F500.00
G01 X87.0513 Y39.2102 F500.00
G01 X87.0251 Y39.1239 F500.00
G01 X86.9826 Y39.0444 F500.00
G01 X86.9254 Y38.9746 F500.00
G01 X86.8556 Y38.9174 F500.00
G01 X86.7761 Y38.8749 F500.00
G01 X86.6898 Y38.8487 F500.00
G01 X86.5913 Y38.8390 F500.00
G01 X85.1192 Y38.8390 F500.00
G01 X85.1018 Y38.8381 F500.00
G01 X85.0870 Y38.8360 F500.00
G01 X85.0654 Y38.8306 F500.00
G01 X85.0514 Y38.8255 F500.00
G01 X85.0357 Y38.8181 F500.00
G01 X85.0188 Y38.8077 F500.00
G01 X85.0068 Y38.7988 F500.00
G01 X84.9948 Y38.7880 F500.00
G01 X84.8638 Y38.6570 F500.00
G01 X84.8529 Y38.6450 F500.00
G01 X84.8418 Y38.6301 F500.00
G01 X84.8328 Y38.6152 F500.00
G01 X84.8254 Y38.5995 F500.00
G01 X84.8196 Y38.5832 F500.00
G01 X84.8153 Y38.5663 F500.00
G01 X84.8131 Y38.5516 F500.00
G01 X84.8119 Y38.5318 F500.00
G01 X84.8119 Y38.1977 F500.00
G01 X84.8128 Y38.1816 F500.00
G01 X84.8149 Y38.1669 F500.00
G01 X84.8196 Y38.1476 F500.00
G01 X84.8254 Y38.1312 F500.00
G01 X84.8328 Y38.1155 F500.00
G01 X84.8418 Y38.1006 F500.00
G01 X84.8529 Y38.0857 F500.00
G01 X84.8638 Y38.0738 F500.00
G01 X84.9994 Y37.9381 F500.00
G01 X85.1261 Y37.7485 F500.00
G01 X85.2134 Y37.5378 F500.00
G01 X85.2579 Y37.3140 F500.00
G01 X85.2579 Y37.0860 F500.00
G01 X85.2134 Y36.8622 F500.00
G01 X85.1261 Y36.6515 F500.00
G01 X84.9994 Y36.4619 F500.00
G01 X84.8619 Y36.3243 F500.00
G01 X84.8511 Y36.3123 F500.00
G01 X84.8408 Y36.2984 F500.00
G01 X84.8318 Y36.2835 F500.00
G01 X84.8244 Y36.2678 F500.00
G01 X84.8185 Y36.2514 F500.00
G01 X84.8149 Y36.2369 F500.00
G01 X84.8116 Y36.2149 F500.00
G01 X84.8109 Y36.2000 F500.00
G01 X84.8119 Y36.1814 F500.00
G01 X84.8149 Y36.1631 F500.00
G01 X84.8185 Y36.1486 F500.00
G01 X84.8235 Y36.1345 F500.00
G01 X84.8318 Y36.1165 F500.00
G01 X84.8422 Y36.0996 F500.00
G01 X84.8511 Y36.0877 F500.00
G01 X84.8619 Y36.0757 F500.00
G01 X84.9994 Y35.9381 F500.00
G01 X85.1261 Y35.7485 F500.00
G01 X85.2134 Y35.5378 F500.00
G01 X85.2579 Y35.3140 F500.00
G01 X85.2579 Y35.0860 F500.00
G01 X85.2134 Y34.8622 F500.00
G01 X85.1261 Y34.6515 F500.00
G01 X84.9994 Y34.4619 F500.00
G01 X84.8619 Y34.3243 F500.00
G01 X84.8511 Y34.3123 F500.00
G01 X84.8408 Y34.2984 F500.00
G01 X84.8318 Y34.2835 F500.00
G01 X84.8254 Y34.2700 F500.00
G01 X84.8179 Y34.2490 F500.00
G01 X84.8143 Y34.2345 F500.00
G01 X84.8118 Y34.2174 F500.00
G01 X84.8109 Y34.2000 F500.00
G01 X84.8117 Y34.1839 F500.00
G01 X84.8149 Y34.1631 F500.00
G01 X84.8185 Y34.1486 F500.00
G01 X84.8235 Y34.1345 F500.00
G01 X84.8318 Y34.1165 F500.00
G01 X84.8414 Y34.1006 F500.00
G01 X84.8511 Y34.0877 F500.00
G01 X84.8619 Y34.0757 F500.00
G01 X84.9994 Y33.9381 F500.00
G01 X85.1261 Y33.7485 F500.00
G01 X85.2134 Y33.5378 F500.00
G01 X85.2579 Y33.3140 F500.00
G01 X85.2579 Y33.0860 F500.00
G01 X85.2134 Y32.8622 F500.00
G01 X85.1261 Y32.6515 F500.00
G01 X84.9994 Y32.4619 F500.00
G01 X84.8619 Y32.3243 F500.00
G01 X84.8511 Y32.3123 F500.00
G01 X84.8408 Y32.2984 F500.00
G01 X84.8318 Y32.2835 F500.00
G01 X84.8254 Y32.2700 F500.00
G01 X84.8179 Y32.2490 F500.00
G01 X84.8143 Y32.2345 F500.00
G01 X84.8118 Y32.2174 F500.00
G01 X84.8109 Y32.2000 F500.00
G01 X84.8116 Y32.1851 F500.00
G01 X84.8143 Y32.1655 F500.00
G01 X84.8193 Y32.1463 F500.00
G01 X84.8244 Y32.1322 F500.00
G01 X84.8307 Y32.1187 F500.00
G01 X84.8414 Y32.1006 F500.00
G01 X84.8511 Y32.0877 F500.00
G01 X84.8619 Y32.0757 F500.00
G01 X84.9994 Y31.9381 F500.00
G01 X85.1261 Y31.7485 F500.00
G01 X85.2134 Y31.5378 F500.00
G01 X85.2579 Y31.3140 F500.00
G01 X85.2579 Y31.0860 F500.00
G01 X85.2134 Y30.8622 F500.00
G01 X85.1261 Y30.6515 F500.00
G01 X84.9994 Y30.4619 F500.00
G01 X84.8381 Y30.3006 F500.00
G01 X84.6485 Y30.1739 F500.00
G01 X84.4378 Y30.0866 F500.00
G01 X84.2140 Y30.0421 F500.00
G01 X83.9860 Y30.0421 F500.00
G01 X83.7622 Y30.0866 F500.00
G01 X83.5515 Y30.1739 F500.00
G01 X83.3619 Y30.3006 F500.00
G01 X83.2253 Y30.4371 F500.00
G01 X83.2134 Y30.4479 F500.00
G01 X83.2004 Y30.4575 F500.00
G01 X83.1823 Y30.4683 F500.00
G01 X83.1688 Y30.4746 F500.00
G01 X83.1548 Y30.4797 F500.00
G01 X83.1356 Y30.4847 F500.00
G01 X83.1159 Y30.4874 F500.00
G01 X83.1010 Y30.4881 F500.00
G01 X76.5637 Y30.4881 F500.00
G01 X76.5475 Y30.4873 F500.00
G01 X76.5200 Y30.4846 F500.00
G01 X76.3804 Y30.4984 F500.00
G01 X76.2462 Y30.5391 F500.00
G01 X76.1226 Y30.6052 F500.00
G01 X76.0141 Y30.6941 F500.00
G01 X75.9966 Y30.7155 F500.00
G01 X75.9857 Y30.7275 F500.00
G01 X74.8310 Y31.8821 F500.00
G01 X74.8182 Y31.8938 F500.00
G01 X74.8032 Y31.9048 F500.00
G01 X74.7871 Y31.9142 F500.00
G01 X74.7736 Y31.9205 F500.00
G01 X74.7596 Y31.9256 F500.00
G01 X74.7404 Y31.9306 F500.00
G01 X74.7207 Y31.9333 F500.00
G01 X74.7058 Y31.9340 F500.00
G01 X74.2087 Y31.9340 F500.00
G01 X74.0810 Y31.9466 F500.00
G01 X73.9665 Y31.9813 F500.00
G01 X73.8610 Y32.0377 F500.00
G01 X73.7686 Y32.1136 F500.00
G01 X73.6927 Y32.2060 F500.00
G01 X73.6363 Y32.3115 F500.00
G01 X73.6016 Y32.4260 F500.00
G01 X73.5890 Y32.5537 F500.00
G01 X73.5890 Y32.8363 F500.00
G01 X73.6016 Y32.9640 F500.00
G01 X73.6309 Y33.0608 F500.00
G01 X73.6348 Y33.0765 F500.00
G01 X73.6370 Y33.0912 F500.00
G01 X73.6381 Y33.1135 F500.00
G01 X73.6373 Y33.1284 F500.00
G01 X73.6345 Y33.1467 F500.00
G01 X73.6306 Y33.1624 F500.00
G01 X73.6256 Y33.1765 F500.00
G01 X73.6173 Y33.1945 F500.00
G01 X73.6083 Y33.2094 F500.00
G01 X73.5995 Y33.2214 F500.00
G01 X73.5863 Y33.2362 F500.00
G01 X73.5715 Y33.2494 F500.00
G01 X73.5595 Y33.2582 F500.00
G01 X73.5446 Y33.2672 F500.00
G01 X73.5289 Y33.2746 F500.00
G01 X73.5149 Y33.2797 F500.00
G01 X73.4932 Y33.2851 F500.00
G01 X73.4785 Y33.2872 F500.00
G01 X73.4611 Y33.2881 F500.00
G01 X66.7357 Y33.2881 F500.00
G01 X66.7195 Y33.2873 F500.00
G01 X66.6920 Y33.2846 F500.00
G01 X66.5524 Y33.2984 F500.00
G01 X66.4182 Y33.3391 F500.00
G01 X66.2946 Y33.4052 F500.00
G01 X66.1861 Y33.4941 F500.00
G01 X66.1686 Y33.5155 F500.00
G01 X66.1577 Y33.5275 F500.00
G01 X66.1257 Y33.5594 F500.00
G01 X66.1155 Y33.5686 F500.00
G01 X66.0941 Y33.5861 F500.00
G01 X66.0052 Y33.6946 F500.00
G01 X65.9391 Y33.8182 F500.00
G01 X65.8984 Y33.9524 F500.00
G01 X65.8956 Y33.9805 F500.00
G01 X65.8932 Y33.9965 F500.00
G01 X65.8889 Y34.0133 F500.00
G01 X65.8836 Y34.0285 F500.00
G01 X65.8757 Y34.0454 F500.00
G01 X65.8653 Y34.0623 F500.00
G01 X65.8564 Y34.0743 F500.00
G01 X65.8464 Y34.0854 F500.00
G01 X65.8318 Y34.0988 F500.00
G01 X65.8179 Y34.1092 F500.00
G01 X65.8051 Y34.1169 F500.00
G01 X65.7873 Y34.1255 F500.00
G01 X65.7685 Y34.1320 F500.00
G01 X65.7541 Y34.1356 F500.00
G01 X65.7381 Y34.1380 F500.00
G01 X65.7195 Y34.1390 F500.00
G01 X65.5192 Y34.1390 F500.00
G01 X65.5030 Y34.1382 F500.00
G01 X65.4822 Y34.1351 F500.00
G01 X65.4678 Y34.1314 F500.00
G01 X65.4514 Y34.1255 F500.00
G01 X65.4357 Y34.1181 F500.00
G01 X65.4229 Y34.1105 F500.00
G01 X65.4059 Y34.0980 F500.00
G01 X65.3940 Y34.0871 F500.00
G01 X65.2089 Y33.9021 F500.00
G01 X65.1966 Y33.8882 F500.00
G01 X65.1878 Y33.8761 F500.00
G01 X65.1794 Y33.8623 F500.00
G01 X65.1714 Y33.8455 F500.00
G01 X65.1656 Y33.8292 F500.00
G01 X65.1613 Y33.8123 F500.00
G01 X65.1587 Y33.7939 F500.00
G01 X65.1579 Y33.7778 F500.00
G01 X65.1579 Y33.5860 F500.00
G01 X65.1134 Y33.3622 F500.00
G01 X65.0261 Y33.1515 F500.00
G01 X64.8994 Y32.9619 F500.00
G01 X64.7381 Y32.8006 F500.00
G01 X64.5485 Y32.6739 F500.00
G01 X64.3378 Y32.5866 F500.00
G01 X64.1140 Y32.5421 F500.00
G01 X63.8860 Y32.5421 F500.00
G01 X63.6622 Y32.5866 F500.00
G01 X63.4515 Y32.6739 F500.00
G01 X63.2619 Y32.8006 F500.00
G01 X63.1006 Y32.9619 F500.00
G01 X62.9739 Y33.1515 F500.00
G01 X62.8866 Y33.3622 F500.00
G01 X62.8421 Y33.5860 F500.00
G01 X62.8421 Y33.8140 F500.00
G01 X62.8866 Y34.0378 F500.00
G01 X62.9739 Y34.2485 F500.00
G01 X63.1006 Y34.4381 F500.00
G01 X63.2619 Y34.5994 F500.00
G01 X63.4515 Y34.7261 F500.00
G01 X63.6622 Y34.8134 F500.00
G01 X63.8860 Y34.8579 F500.00
G01 X64.0778 Y34.8579 F500.00
G01 X64.0976 Y34.8591 F500.00
G01 X64.1147 Y34.8619 F500.00
G01 X64.1292 Y34.8656 F500.00
G01 X64.1432 Y34.8705 F500.00
G01 X64.1612 Y34.8788 F500.00
G01 X64.1761 Y34.8878 F500.00
G01 X64.1901 Y34.8981 F500.00
G01 X64.2030 Y34.9098 F500.00
G01 X64.9871 Y35.6940 F500.00
G01 X64.9988 Y35.7068 F500.00
G01 X65.0098 Y35.7218 F500.00
G01 X65.0181 Y35.7357 F500.00
G01 X65.0245 Y35.7492 F500.00
G01 X65.0314 Y35.7678 F500.00
G01 X65.0360 Y35.7870 F500.00
G01 X65.0381 Y35.8018 F500.00
G01 X65.0390 Y35.8179 F500.00
G01 X65.0390 Y36.1913 F500.00
G01 X65.0413 Y36.2151 F500.00
G01 X65.0421 Y36.2312 F500.00
G01 X65.0421 Y37.1913 F500.00
G01 X65.0445 Y37.2168 F500.00
G01 X65.0452 Y37.2301 F500.00
G01 X65.0452 Y37.2457 F500.00
G01 X65.0480 Y37.2596 F500.00
G01 X65.0500 Y37.2734 F500.00
G01 X65.0516 Y37.2888 F500.00
G01 X65.0564 Y37.3049 F500.00
G01 X65.0597 Y37.3178 F500.00
G01 X65.0627 Y37.3332 F500.00
G01 X65.0682 Y37.3463 F500.00
G01 X65.0729 Y37.3594 F500.00
G01 X65.0774 Y37.3742 F500.00
G01 X65.0853 Y37.3891 F500.00
G01 X65.0909 Y37.4011 F500.00
G01 X65.0969 Y37.4156 F500.00
G01 X65.1048 Y37.4274 F500.00
G01 X65.1120 Y37.4394 F500.00
G01 X65.1193 Y37.4529 F500.00
G01 X65.1299 Y37.4660 F500.00
G01 X65.1378 Y37.4767 F500.00
G01 X65.1465 Y37.4898 F500.00
G01 X65.1573 Y37.5007 F500.00
G01 X65.1667 Y37.5111 F500.00
G01 X65.1757 Y37.5221 F500.00
G01 X65.1877 Y37.5321 F500.00
G01 X65.1976 Y37.5410 F500.00
G01 X65.2152 Y37.5586 F500.00
G01 X65.7072 Y37.9522 F500.00
G01 X65.7222 Y37.9621 F500.00
G01 X65.7358 Y37.9722 F500.00
G01 X65.7418 Y37.9771 F500.00
G01 X65.7611 Y37.9878 F500.00
G01 X65.7700 Y37.9931 F500.00
G01 X65.7892 Y38.0056 F500.00
G01 X65.7978 Y38.0091 F500.00
G01 X65.8131 Y38.0164 F500.00
G01 X65.8199 Y38.0201 F500.00
G01 X65.8409 Y38.0268 F500.00
G01 X65.8507 Y38.0303 F500.00
G01 X65.8720 Y38.0388 F500.00
G01 X65.8812 Y38.0406 F500.00
G01 X65.8975 Y38.0448 F500.00
G01 X65.9050 Y38.0471 F500.00
G01 X65.9269 Y38.0496 F500.00
G01 X65.9371 Y38.0511 F500.00
G01 X65.9597 Y38.0553 F500.00
G01 X65.9675 Y38.0553 F500.00
G01 X65.9844 Y38.0561 F500.00
G01 X66.0016 Y38.0579 F500.00
G01 X67.1913 Y38.0579 F500.00
G01 X67.2093 Y38.0563 F500.00
G01 X67.2262 Y38.0557 F500.00
G01 X67.2340 Y38.0558 F500.00
G01 X67.2556 Y38.0521 F500.00
G01 X67.2659 Y38.0507 F500.00
G01 X67.2888 Y38.0484 F500.00
G01 X67.2977 Y38.0458 F500.00
G01 X67.3142 Y38.0419 F500.00
G01 X67.3218 Y38.0405 F500.00
G01 X67.3424 Y38.0326 F500.00
G01 X67.3522 Y38.0293 F500.00
G01 X67.3742 Y38.0226 F500.00
G01 X67.3824 Y38.0183 F500.00
G01 X67.3978 Y38.0113 F500.00
G01 X67.4051 Y38.0085 F500.00
G01 X67.4245 Y37.9963 F500.00
G01 X67.4335 Y37.9911 F500.00
G01 X67.4529 Y37.9807 F500.00
G01 X67.4590 Y37.9758 F500.00
G01 X67.4727 Y37.9659 F500.00
G01 X67.4873 Y37.9566 F500.00
G01 X67.9793 Y37.5630 F500.00
G01 X67.9977 Y37.5452 F500.00
G01 X68.0076 Y37.5364 F500.00
G01 X68.0198 Y37.5266 F500.00
G01 X68.0289 Y37.5157 F500.00
G01 X68.0384 Y37.5055 F500.00
G01 X68.0494 Y37.4947 F500.00
G01 X68.0590 Y37.4808 F500.00
G01 X68.0671 Y37.4702 F500.00
G01 X68.0771 Y37.4582 F500.00
G01 X68.0840 Y37.4458 F500.00
G01 X68.0913 Y37.4339 F500.00
G01 X68.1000 Y37.4212 F500.00
G01 X68.1067 Y37.4057 F500.00
G01 X68.1126 Y37.3938 F500.00
G01 X68.1201 Y37.3801 F500.00
G01 X68.1244 Y37.3666 F500.00
G01 X68.1293 Y37.3535 F500.00
G01 X68.1354 Y37.3393 F500.00
G01 X68.1390 Y37.3228 F500.00
G01 X68.1424 Y37.3100 F500.00
G01 X68.1471 Y37.2950 F500.00
G01 X68.1487 Y37.2810 F500.00
G01 X68.1509 Y37.2672 F500.00
G01 X68.1541 Y37.2521 F500.00
G01 X68.1544 Y37.2364 F500.00
G01 X68.1552 Y37.2231 F500.00
G01 X68.1579 Y37.1984 F500.00
G01 X68.1579 Y36.2312 F500.00
G01 X68.1587 Y36.2151 F500.00
G01 X68.1610 Y36.1913 F500.00
G01 X68.1610 Y34.8890 F500.00
G01 X68.1619 Y34.8716 F500.00
G01 X68.1649 Y34.8521 F500.00
G01 X68.1686 Y34.8376 F500.00
G01 X68.1736 Y34.8235 F500.00
G01 X68.1819 Y34.8055 F500.00
G01 X68.1923 Y34.7886 F500.00
G01 X68.2012 Y34.7767 F500.00
G01 X68.2112 Y34.7656 F500.00
G01 X68.2257 Y34.7521 F500.00
G01 X68.2397 Y34.7418 F500.00
G01 X68.2568 Y34.7317 F500.00
G01 X68.2703 Y34.7254 F500.00
G01 X68.2843 Y34.7203 F500.00
G01 X68.3035 Y34.7153 F500.00
G01 X68.3219 Y34.7127 F500.00
G01 X68.3381 Y34.7119 F500.00
G01 X69.4598 Y34.7119 F500.00
G01 X69.4771 Y34.7128 F500.00
G01 X69.4931 Y34.7151 F500.00
G01 X69.5112 Y34.7196 F500.00
G01 X69.5276 Y34.7254 F500.00
G01 X69.5433 Y34.7328 F500.00
G01 X69.5582 Y34.7418 F500.00
G01 X69.5721 Y34.7521 F500.00
G01 X69.5850 Y34.7638 F500.00
G01 X69.5967 Y34.7767 F500.00
G01 X69.6083 Y34.7927 F500.00
G01 X69.6171 Y34.8077 F500.00
G01 X69.6234 Y34.8212 F500.00
G01 X69.6285 Y34.8353 F500.00
G01 X69.6332 Y34.8533 F500.00
G01 X69.6357 Y34.8692 F500.00
G01 X69.6369 Y34.8890 F500.00
G01 X69.6360 Y34.9064 F500.00
G01 X69.6335 Y34.9235 F500.00
G01 X69.6289 Y34.9416 F500.00
G01 X69.6224 Y34.9590 F500.00
G01 X69.6159 Y34.9725 F500.00
G01 X69.6083 Y34.9853 F500.00
G01 X69.5967 Y35.0013 F500.00
G01 X69.5841 Y35.0151 F500.00
G01 X69.5721 Y35.0259 F500.00
G01 X69.5592 Y35.0355 F500.00
G01 X69.4619 Y35.1006 F500.00
G01 X69.3006 Y35.2619 F500.00
G01 X69.1739 Y35.4515 F500.00
G01 X69.0866 Y35.6622 F500.00
G01 X69.0421 Y35.8860 F500.00
G01 X69.0421 Y36.1140 F500.00
G01 X69.0866 Y36.3378 F500.00
G01 X69.1739 Y36.5485 F500.00
G01 X69.3006 Y36.7381 F500.00
G01 X69.4619 Y36.8994 F500.00
G01 X69.6515 Y37.0261 F500.00
G01 X69.8622 Y37.1134 F500.00
G01 X70.0860 Y37.1579 F500.00
G01 X70.3140 Y37.1579 F500.00
G01 X70.5378 Y37.1134 F500.00
G01 X70.7485 Y37.0261 F500.00
G01 X70.9381 Y36.8994 F500.00
G01 X71.0994 Y36.7381 F500.00
G01 X71.2261 Y36.5485 F500.00
G01 X71.3134 Y36.3378 F500.00
G01 X71.3585 Y36.1112 F500.00
G01 X71.3589 Y36.1054 F500.00
G01 X71.3613 Y36.0895 F500.00
G01 X71.3656 Y36.0726 F500.00
G01 X71.3719 Y36.0551 F500.00
G01 X71.3788 Y36.0405 F500.00
G01 X71.3892 Y36.0236 F500.00
G01 X71.3981 Y36.0117 F500.00
G01 X71.4081 Y36.0006 F500.00
G01 X71.4208 Y35.9887 F500.00
G01 X71.4366 Y35.9768 F500.00
G01 X71.4515 Y35.9678 F500.00
G01 X71.4672 Y35.9604 F500.00
G01 X71.4836 Y35.9546 F500.00
G01 X71.5005 Y35.9503 F500.00
G01 X71.5152 Y35.9481 F500.00
G01 X71.5350 Y35.9469 F500.00
G01 X73.4517 Y35.9470 F500.00
G01 X73.4679 Y35.9478 F500.00
G01 X73.4850 Y35.9503 F500.00
G01 X73.5019 Y35.9546 F500.00
G01 X73.5160 Y35.9595 F500.00
G01 X73.5361 Y35.9691 F500.00
G01 X73.5489 Y35.9768 F500.00
G01 X73.5638 Y35.9879 F500.00
G01 X73.5757 Y35.9988 F500.00
G01 X73.5874 Y36.0117 F500.00
G01 X73.5977 Y36.0256 F500.00
G01 X73.6067 Y36.0405 F500.00
G01 X73.6141 Y36.0562 F500.00
G01 X73.6199 Y36.0726 F500.00
G01 X73.6242 Y36.0895 F500.00
G01 X73.6268 Y36.1079 F500.00
G01 X73.6276 Y36.1240 F500.00
G01 X73.6269 Y36.1389 F500.00
G01 X73.6242 Y36.1585 F500.00
G01 X73.6199 Y36.1754 F500.00
G01 X73.6016 Y36.2360 F500.00
G01 X73.5890 Y36.3637 F500.00
G01 X73.5890 Y36.6463 F500.00
G01 X73.6016 Y36.7740 F500.00
G01 X73.6363 Y36.8885 F500.00
G01 X73.6927 Y36.9940 F500.00
G01 X73.7686 Y37.0864 F500.00
G01 X73.8610 Y37.1623 F500.00
G01 X73.9665 Y37.2187 F500.00
G01 X74.0810 Y37.2534 F500.00
G01 X74.0993 Y37.2552 F500.00
G01 X74.1140 Y37.2574 F500.00
G01 X74.1321 Y37.2619 F500.00
G01 X74.1485 Y37.2677 F500.00
G01 X74.1620 Y37.2741 F500.00
G01 X74.1791 Y37.2841 F500.00
G01 X74.1930 Y37.2945 F500.00
G01 X74.2059 Y37.3061 F500.00
G01 X74.2176 Y37.3190 F500.00
G01 X74.2292 Y37.3350 F500.00
G01 X74.2374 Y37.3489 F500.00
G01 X74.2452 Y37.3659 F500.00
G01 X74.2508 Y37.3823 F500.00
G01 X74.2544 Y37.3968 F500.00
G01 X74.2566 Y37.4115 F500.00
G01 X74.2577 Y37.4338 F500.00
G01 X74.2568 Y37.4499 F500.00
G01 X74.2538 Y37.4683 F500.00
G01 X74.2501 Y37.4827 F500.00
G01 X74.2443 Y37.4991 F500.00
G01 X74.2369 Y37.5148 F500.00
G01 X74.2286 Y37.5287 F500.00
G01 X74.2176 Y37.5436 F500.00
G01 X74.2068 Y37.5556 F500.00
G01 X74.1006 Y37.6619 F500.00
G01 X73.9739 Y37.8515 F500.00
G01 X73.8866 Y38.0622 F500.00
G01 X73.8421 Y38.2860 F500.00
G01 X73.8421 Y38.5140 F500.00
G01 X73.8866 Y38.7378 F500.00
G01 X73.9739 Y38.9485 F500.00
G01 X74.1006 Y39.1381 F500.00
G01 X74.2619 Y39.2994 F500.00
G01 X74.4515 Y39.4261 F500.00
G01 X74.6622 Y39.5134 F500.00
G01 X74.8860 Y39.5579 F500.00
G01 X75.1140 Y39.5579 F500.00
G01 X75.3378 Y39.5134 F500.00
G01 X75.5485 Y39.4261 F500.00
G01 X75.7381 Y39.2994 F500.00
G01 X75.8994 Y39.1381 F500.00
G01 X76.0261 Y38.9485 F500.00
G01 X76.1134 Y38.7378 F500.00
G01 X76.1579 Y38.5140 F500.00
G01 X76.1579 Y38.2860 F500.00
G01 X76.1134 Y38.0622 F500.00
G01 X76.0261 Y37.8515 F500.00
G01 X75.8994 Y37.6619 F500.00
G01 X75.7977 Y37.5601 F500.00
G01 X75.7869 Y37.5481 F500.00
G01 X75.7766 Y37.5342 F500.00
G01 X75.7676 Y37.5193 F500.00
G01 X75.7612 Y37.5058 F500.00
G01 X75.7543 Y37.4872 F500.00
G01 X75.7501 Y37.4703 F500.00
G01 X75.7479 Y37.4556 F500.00
G01 X75.7468 Y37.4334 F500.00
G01 X75.7479 Y37.4160 F500.00
G01 X75.7501 Y37.4013 F500.00
G01 X75.7537 Y37.3868 F500.00
G01 X75.7602 Y37.3680 F500.00
G01 X75.7676 Y37.3523 F500.00
G01 X75.7780 Y37.3354 F500.00
G01 X75.7869 Y37.3235 F500.00
G01 X75.7969 Y37.3124 F500.00
G01 X75.8115 Y37.2989 F500.00
G01 X75.8264 Y37.2879 F500.00
G01 X75.8403 Y37.2796 F500.00
G01 X75.8538 Y37.2732 F500.00
G01 X75.8736 Y37.2660 F500.00
G01 X75.8892 Y37.2621 F500.00
G01 X75.9052 Y37.2597 F500.00
G01 X75.9690 Y37.2534 F500.00
G01 X76.0835 Y37.2187 F500.00
G01 X76.1890 Y37.1623 F500.00
G01 X76.2814 Y37.0864 F500.00
G01 X76.3573 Y36.9940 F500.00
G01 X76.4137 Y36.8885 F500.00
G01 X76.4484 Y36.7740 F500.00
G01 X76.4610 Y36.6463 F500.00
G01 X76.4610 Y36.3637 F500.00
G01 X76.4484 Y36.2360 F500.00
G01 X76.4137 Y36.1215 F500.00
G01 X76.3573 Y36.0160 F500.00
G01 X76.3289 Y35.9814 F500.00
G01 X76.3200 Y35.9694 F500.00
G01 X76.3104 Y35.9535 F500.00
G01 X76.3034 Y35.9389 F500.00
G01 X76.2971 Y35.9214 F500.00
G01 X76.2929 Y35.9045 F500.00
G01 X76.2903 Y35.8874 F500.00
G01 X76.2895 Y35.8700 F500.00
G01 X76.2903 Y35.8526 F500.00
G01 X76.2929 Y35.8355 F500.00
G01 X76.2971 Y35.8186 F500.00
G01 X76.3034 Y35.8011 F500.00
G01 X76.3104 Y35.7865 F500.00
G01 X76.3200 Y35.7706 F500.00
G01 X76.3289 Y35.7586 F500.00
G01 X76.3573 Y35.7240 F500.00
G01 X76.4137 Y35.6185 F500.00
G01 X76.4484 Y35.5040 F500.00
G01 X76.4610 Y35.3763 F500.00
G01 X76.4610 Y35.0937 F500.00
G01 X76.4484 Y34.9660 F500.00
G01 X76.4137 Y34.8515 F500.00
G01 X76.3573 Y34.7460 F500.00
G01 X76.3282 Y34.7104 F500.00
G01 X76.3193 Y34.6984 F500.00
G01 X76.3098 Y34.6824 F500.00
G01 X76.3021 Y34.6655 F500.00
G01 X76.2971 Y34.6514 F500.00
G01 X76.2934 Y34.6369 F500.00
G01 X76.2903 Y34.6174 F500.00
G01 X76.2895 Y34.6000 F500.00
G01 X76.2903 Y34.5826 F500.00
G01 X76.2929 Y34.5655 F500.00
G01 X76.2971 Y34.5486 F500.00
G01 X76.3034 Y34.5311 F500.00
G01 X76.3104 Y34.5165 F500.00
G01 X76.3200 Y34.5006 F500.00
G01 X76.3289 Y34.4886 F500.00
G01 X76.3573 Y34.4540 F500.00
G01 X76.4137 Y34.3485 F500.00
G01 X76.4484 Y34.2340 F500.00
G01 X76.4610 Y34.1063 F500.00
G01 X76.4610 Y33.8237 F500.00
G01 X76.4484 Y33.6960 F500.00
G01 X76.4137 Y33.5815 F500.00
G01 X76.3573 Y33.4760 F500.00
G01 X76.3282 Y33.4404 F500.00
G01 X76.3193 Y33.4284 F500.00
G01 X76.3098 Y33.4124 F500.00
G01 X76.3021 Y33.3955 F500.00
G01 X76.2971 Y33.3814 F500.00
G01 X76.2934 Y33.3669 F500.00
G01 X76.2903 Y33.3474 F500.00
G01 X76.2895 Y33.3300 F500.00
G01 X76.2903 Y33.3126 F500.00
G01 X76.2929 Y33.2955 F500.00
G01 X76.2971 Y33.2786 F500.00
G01 X76.3034 Y33.2611 F500.00
G01 X76.3104 Y33.2465 F500.00
G01 X76.3200 Y33.2306 F500.00
G01 X76.3289 Y33.2186 F500.00
G01 X76.3573 Y33.1840 F500.00
G01 X76.4137 Y33.0785 F500.00
G01 X76.4484 Y32.9640 F500.00
G01 X76.4610 Y32.8363 F500.00
G01 X76.4610 Y32.5537 F500.00
G01 X76.4484 Y32.4260 F500.00
G01 X76.4445 Y32.4131 F500.00
G01 X76.4404 Y32.3962 F500.00
G01 X76.4381 Y32.3803 F500.00
G01 X76.4373 Y32.3629 F500.00
G01 X76.4381 Y32.3456 F500.00
G01 X76.4407 Y32.3284 F500.00
G01 X76.4449 Y32.3115 F500.00
G01 X76.4517 Y32.2929 F500.00
G01 X76.4582 Y32.2794 F500.00
G01 X76.4671 Y32.2645 F500.00
G01 X76.4775 Y32.2506 F500.00
G01 X76.4883 Y32.2386 F500.00
G01 X76.7639 Y31.9629 F500.00
G01 X76.7759 Y31.9521 F500.00
G01 X76.7879 Y31.9432 F500.00
G01 X76.8048 Y31.9328 F500.00
G01 X76.8205 Y31.9254 F500.00
G01 X76.8345 Y31.9203 F500.00
G01 X76.8549 Y31.9151 F500.00
G01 X76.8709 Y31.9128 F500.00
G01 X76.8882 Y31.9119 F500.00
G01 X78.5109 Y31.9120 F500.00
G01 X78.5270 Y31.9128 F500.00
G01 X78.5418 Y31.9149 F500.00
G01 X78.5611 Y31.9196 F500.00
G01 X78.5797 Y31.9264 F500.00
G01 X78.5931 Y31.9328 F500.00
G01 X78.6080 Y31.9418 F500.00
G01 X78.6238 Y31.9537 F500.00
G01 X78.6349 Y31.9638 F500.00
G01 X78.6449 Y31.9748 F500.00
G01 X78.6569 Y31.9906 F500.00
G01 X78.6669 Y32.0077 F500.00
G01 X78.6732 Y32.0212 F500.00
G01 X78.6783 Y32.0353 F500.00
G01 X78.6833 Y32.0545 F500.00
G01 X78.6860 Y32.0741 F500.00
G01 X78.6867 Y32.0890 F500.00
G01 X78.6860 Y32.1051 F500.00
G01 X78.6833 Y32.1235 F500.00
G01 X78.6791 Y32.1404 F500.00
G01 X78.6732 Y32.1568 F500.00
G01 X78.6669 Y32.1703 F500.00
G01 X78.6569 Y32.1874 F500.00
G01 X78.6473 Y32.2004 F500.00
G01 X78.6427 Y32.2060 F500.00
G01 X78.5863 Y32.3115 F500.00
G01 X78.5516 Y32.4260 F500.00
G01 X78.5390 Y32.5537 F500.00
G01 X78.5390 Y32.8363 F500.00
G01 X78.5516 Y32.9640 F500.00
G01 X78.5863 Y33.0785 F500.00
G01 X78.6427 Y33.1840 F500.00
G01 X78.6718 Y33.2196 F500.00
G01 X78.6807 Y33.2316 F500.00
G01 X78.6902 Y33.2476 F500.00
G01 X78.6979 Y33.2645 F500.00
G01 X78.7029 Y33.2786 F500.00
G01 X78.7066 Y33.2931 F500.00
G01 X78.7097 Y33.3126 F500.00
G01 X78.7105 Y33.3312 F500.00
G01 X78.7097 Y33.3474 F500.00
G01 X78.7071 Y33.3645 F500.00
G01 X78.7029 Y33.3814 F500.00
G01 X78.6966 Y33.3989 F500.00
G01 X78.6896 Y33.4135 F500.00
G01 X78.6800 Y33.4294 F500.00
G01 X78.6711 Y33.4414 F500.00
G01 X78.6427 Y33.4760 F500.00
G01 X78.5863 Y33.5815 F500.00
G01 X78.5516 Y33.6960 F500.00
G01 X78.5390 Y33.8237 F500.00
G01 X78.5390 Y34.1063 F500.00
G01 X78.5516 Y34.2340 F500.00
G01 X78.5863 Y34.3485 F500.00
G01 X78.6427 Y34.4540 F500.00
G01 X78.6718 Y34.4896 F500.00
G01 X78.6807 Y34.5016 F500.00
G01 X78.6902 Y34.5176 F500.00
G01 X78.6979 Y34.5345 F500.00
G01 X78.7029 Y34.5486 F500.00
G01 X78.7066 Y34.5631 F500.00
G01 X78.7097 Y34.5826 F500.00
G01 X78.7105 Y34.6012 F500.00
G01 X78.7097 Y34.6174 F500.00
G01 X78.7071 Y34.6345 F500.00
G01 X78.7029 Y34.6514 F500.00
G01 X78.6966 Y34.6689 F500.00
G01 X78.6896 Y34.6835 F500.00
G01 X78.6800 Y34.6994 F500.00
G01 X78.6711 Y34.7114 F500.00
G01 X78.6427 Y34.7460 F500.00
G01 X78.5863 Y34.8515 F500.00
G01 X78.5516 Y34.9660 F500.00
G01 X78.5390 Y35.0937 F500.00
G01 X78.5390 Y35.3763 F500.00
G01 X78.5516 Y35.5040 F500.00
G01 X78.5863 Y35.6185 F500.00
G01 X78.6499 Y35.7375 F500.00
G01 X78.6578 Y35.7543 F500.00
G01 X78.6632 Y35.7695 F500.00
G01 X78.6674 Y35.7864 F500.00
G01 X78.6699 Y35.8036 F500.00
G01 X78.6708 Y35.8209 F500.00
G01 X78.6699 Y35.8383 F500.00
G01 X78.6674 Y35.8555 F500.00
G01 X78.6632 Y35.8723 F500.00
G01 X78.6563 Y35.8909 F500.00
G01 X78.6499 Y35.9044 F500.00
G01 X78.6410 Y35.9193 F500.00
G01 X78.6314 Y35.9323 F500.00
G01 X78.6174 Y35.9494 F500.00
G01 X78.5749 Y36.0289 F500.00
G01 X78.5487 Y36.1152 F500.00
G01 X78.5453 Y36.1492 F500.00
G01 X78.5971 Y36.2009 F500.00
G01 X79.0225 Y36.2009 F500.00
G01 X79.0389 Y36.1887 F500.00
G01 X79.0536 Y36.1798 F500.00
G01 X79.0758 Y36.1693 F500.00
G01 X79.0919 Y36.1636 F500.00
G01 X79.1110 Y36.1588 F500.00
G01 X79.1304 Y36.1560 F500.00
G01 X79.1488 Y36.1550 F500.00
G01 X80.8000 Y36.1550 F500.00
G01 X80.8196 Y36.1560 F500.00
G01 X80.8390 Y36.1588 F500.00
G01 X80.8581 Y36.1636 F500.00
G01 X80.8742 Y36.1693 F500.00
G01 X80.8964 Y36.1798 F500.00
G01 X80.9111 Y36.1887 F500.00
G01 X80.9275 Y36.2009 F500.00
G01 X81.3529 Y36.2009 F500.00
G01 X81.4047 Y36.1492 F500.00
G01 X81.4037 Y36.1389 F500.00
G01 X81.4030 Y36.1228 F500.00
G01 X81.4039 Y36.1066 F500.00
G01 X81.4067 Y36.0883 F500.00
G01 X81.4107 Y36.0726 F500.00
G01 X81.4165 Y36.0562 F500.00
G01 X81.4239 Y36.0405 F500.00
G01 X81.4329 Y36.0256 F500.00
G01 X81.4432 Y36.0117 F500.00
G01 X81.4532 Y36.0006 F500.00
G01 X81.4678 Y35.9871 F500.00
G01 X81.4838 Y35.9755 F500.00
G01 X81.4966 Y35.9678 F500.00
G01 X81.5112 Y35.9609 F500.00
G01 X81.5287 Y35.9546 F500.00
G01 X81.5432 Y35.9509 F500.00
G01 X81.5652 Y35.9476 F500.00
G01 X81.5801 Y35.9469 F500.00
G01 X81.7692 Y35.9470 F500.00
G01 X81.7841 Y35.9478 F500.00
G01 X81.7989 Y35.9499 F500.00
G01 X81.8182 Y35.9546 F500.00
G01 X81.8368 Y35.9614 F500.00
G01 X81.8502 Y35.9678 F500.00
G01 X81.8651 Y35.9768 F500.00
G01 X81.8791 Y35.9871 F500.00
G01 X81.8920 Y35.9988 F500.00
G01 X82.8902 Y36.9970 F500.00
G01 X82.9034 Y37.0118 F500.00
G01 X82.9122 Y37.0239 F500.00
G01 X82.9212 Y37.0388 F500.00
G01 X82.9286 Y37.0545 F500.00
G01 X82.9344 Y37.0708 F500.00
G01 X82.9387 Y37.0877 F500.00
G01 X82.9413 Y37.1061 F500.00
G01 X82.9421 Y37.1222 F500.00
G01 X82.9421 Y37.3140 F500.00
G01 X82.9866 Y37.5378 F500.00
G01 X83.0738 Y37.7485 F500.00
G01 X83.2006 Y37.9381 F500.00
G01 X83.3362 Y38.0738 F500.00
G01 X83.3494 Y38.0886 F500.00
G01 X83.3589 Y38.1016 F500.00
G01 X83.3683 Y38.1177 F500.00
G01 X83.3755 Y38.1335 F500.00
G01 X83.3804 Y38.1476 F500.00
G01 X83.3841 Y38.1620 F500.00
G01 X83.3872 Y38.1816 F500.00
G01 X83.3881 Y38.1990 F500.00
G01 X83.3881 Y38.8563 F500.00
G01 X83.3873 Y38.8725 F500.00
G01 X83.3846 Y38.9000 F500.00
G01 X83.3984 Y39.0396 F500.00
G01 X83.4391 Y39.1738 F500.00
G01 X83.5052 Y39.2974 F500.00
G01 X83.5941 Y39.4058 F500.00
G01 X83.6155 Y39.4234 F500.00
G01 X83.6275 Y39.4343 F500.00
G01 X83.8871 Y39.6940 F500.00
G01 X83.8996 Y39.7078 F500.00
G01 X83.9092 Y39.7208 F500.00
G01 X83.9169 Y39.7336 F500.00
G01 X83.9255 Y39.7514 F500.00
G01 X83.9314 Y39.7678 F500.00
G01 X83.9351 Y39.7822 F500.00
G01 X83.9381 Y39.8018 F500.00
G01 X83.9390 Y39.8192 F500.00
G01 X83.9389 Y40.1321 F500.00
G01 X83.9378 Y40.1495 F500.00
G01 X83.9356 Y40.1642 F500.00
G01 X83.9320 Y40.1787 F500.00
G01 X83.9255 Y40.1975 F500.00
G01 X83.9181 Y40.2132 F500.00
G01 X83.9092 Y40.2281 F500.00
G01 X83.8988 Y40.2420 F500.00
G01 X83.8871 Y40.2549 F500.00
G01 X83.8743 Y40.2666 F500.00
G01 X83.8603 Y40.2769 F500.00
G01 X83.8454 Y40.2858 F500.00
G01 X83.8297 Y40.2933 F500.00
G01 X83.8133 Y40.2991 F500.00
G01 X83.7965 Y40.3034 F500.00
G01 X83.7793 Y40.3059 F500.00
G01 X83.7619 Y40.3068 F500.00
G01 X83.7446 Y40.3059 F500.00
G01 X83.7274 Y40.3034 F500.00
G01 X83.7105 Y40.2991 F500.00
G01 X83.6942 Y40.2933 F500.00
G01 X83.6785 Y40.2858 F500.00
G01 X83.6636 Y40.2769 F500.00
G01 X83.6515 Y40.2681 F500.00
G01 X83.6367 Y40.2549 F500.00
G01 X82.4093 Y39.0275 F500.00
G01 X82.3984 Y39.0155 F500.00
G01 X82.3808 Y38.9941 F500.00
G01 X82.3455 Y38.9651 F500.00
G01 X82.3327 Y38.9534 F500.00
G01 X82.3219 Y38.9414 F500.00
G01 X82.3130 Y38.9294 F500.00
G01 X82.3026 Y38.9125 F500.00
G01 X82.2943 Y38.8945 F500.00
G01 X82.2897 Y38.8816 F500.00
G01 X82.2811 Y38.8532 F500.00
G01 X82.2155 Y38.7305 F500.00
G01 X82.1272 Y38.6228 F500.00
G01 X82.0195 Y38.5345 F500.00
G01 X81.8968 Y38.4689 F500.00
G01 X81.7635 Y38.4285 F500.00
G01 X81.6163 Y38.4140 F500.00
G01 X80.3837 Y38.4140 F500.00
G01 X80.2365 Y38.4285 F500.00
G01 X80.1032 Y38.4689 F500.00
G01 X79.9805 Y38.5345 F500.00
G01 X79.8728 Y38.6228 F500.00
G01 X79.7845 Y38.7305 F500.00
G01 X79.7189 Y38.8532 F500.00
G01 X79.6785 Y38.9865 F500.00
G01 X79.6640 Y39.1337 F500.00
G01 X79.6640 Y39.8663 F500.00
G01 X79.6785 Y40.0135 F500.00
G01 X79.7189 Y40.1468 F500.00
G01 X79.7845 Y40.2695 F500.00
G01 X79.8728 Y40.3772 F500.00
G01 X79.9805 Y40.4655 F500.00
G01 X80.1032 Y40.5311 F500.00
G01 X80.2365 Y40.5715 F500.00
G01 X80.3837 Y40.5860 F500.00
G01 X81.6163 Y40.5860 F500.00
G01 X81.7635 Y40.5715 F500.00
G01 X81.7983 Y40.5610 F500.00
G01 X81.8116 Y40.5576 F500.00
G01 X81.8324 Y40.5544 F500.00
G01 X81.8510 Y40.5538 F500.00
G01 X81.8659 Y40.5545 F500.00
G01 X81.8806 Y40.5567 F500.00
G01 X81.8999 Y40.5613 F500.00
G01 X81.9151 Y40.5667 F500.00
G01 X81.9320 Y40.5746 F500.00
G01 X81.9469 Y40.5835 F500.00
G01 X81.9609 Y40.5939 F500.00
G01 X81.9728 Y40.6047 F500.00
G01 X82.4362 Y41.0680 F500.00
G01 X82.4479 Y41.0809 F500.00
G01 X82.4575 Y41.0939 F500.00
G01 X82.4672 Y41.1098 F500.00
G01 X82.4755 Y41.1278 F500.00
G01 X82.4804 Y41.1418 F500.00
G01 X82.4841 Y41.1563 F500.00
G01 X82.4871 Y41.1747 F500.00
G01 X82.4881 Y41.1932 F500.00
G01 X82.4881 Y41.3678 F500.00
G01 X82.4872 Y41.3851 F500.00
G01 X82.4847 Y41.4023 F500.00
G01 X82.4804 Y41.4192 F500.00
G01 X82.4746 Y41.4355 F500.00
G01 X82.4672 Y41.4512 F500.00
G01 X82.4582 Y41.4661 F500.00
G01 X82.4479 Y41.4801 F500.00
G01 X82.4344 Y41.4947 F500.00
G01 X82.4214 Y41.5061 F500.00
G01 X82.4094 Y41.5150 F500.00
G01 X82.3966 Y41.5227 F500.00
G01 X82.3799 Y41.5309 F500.00
G01 X82.3647 Y41.5364 F500.00
G01 X82.3455 Y41.5414 F500.00
G01 X82.3284 Y41.5440 F500.00
G01 X82.3110 Y41.5448 F500.00
G01 X82.2949 Y41.5441 F500.00
G01 X82.2741 Y41.5409 F500.00
G01 X82.2596 Y41.5372 F500.00
G01 X82.2432 Y41.5313 F500.00
G01 X82.2254 Y41.5227 F500.00
G01 X82.2126 Y41.5150 F500.00
G01 X82.1996 Y41.5054 F500.00
G01 X82.1858 Y41.4930 F500.00
G01 X82.1749 Y41.4810 F500.00
G01 X82.1272 Y41.4228 F500.00
G01 X82.0195 Y41.3345 F500.00
G01 X81.8968 Y41.2689 F500.00
G01 X81.7635 Y41.2285 F500.00
G01 X81.6163 Y41.2140 F500.00
G01 X80.3837 Y41.2140 F500.00
G01 X80.2365 Y41.2285 F500.00
G01 X80.1032 Y41.2689 F500.00
G01 X79.9805 Y41.3345 F500.00
G01 X79.8728 Y41.4228 F500.00
G01 X79.7845 Y41.5305 F500.00
G01 X79.7189 Y41.6532 F500.00
G01 X79.6785 Y41.7865 F500.00
G01 X79.6640 Y41.9337 F500.00
G01 X79.6640 Y42.6663 F500.00
G01 X79.6785 Y42.8135 F500.00
G01 X79.7189 Y42.9468 F500.00
G01 X79.7845 Y43.0695 F500.00
G01 X79.8728 Y43.1772 F500.00
G01 X79.9334 Y43.2268 F500.00
G01 X79.9453 Y43.2377 F500.00
G01 X79.9577 Y43.2515 F500.00
G01 X79.9673 Y43.2645 F500.00
G01 X79.9750 Y43.2773 F500.00
G01 X79.9837 Y43.2952 F500.00
G01 X79.9895 Y43.3115 F500.00
G01 X79.9932 Y43.3260 F500.00
G01 X79.9964 Y43.3468 F500.00
G01 X79.9972 Y43.3629 F500.00
G01 X79.9963 Y43.3803 F500.00
G01 X79.9938 Y43.3975 F500.00
G01 X79.9888 Y43.4167 F500.00
G01 X79.9837 Y43.4307 F500.00
G01 X79.9752 Y43.4482 F500.00
G01 X79.8866 Y43.6622 F500.00
G01 X79.8421 Y43.8860 F500.00
G01 X79.8421 Y44.1140 F500.00
G01 X79.8866 Y44.3378 F500.00
G01 X79.8926 Y44.3524 F500.00
G01 X79.8976 Y44.3664 F500.00
G01 X79.9022 Y44.3845 F500.00
G01 X79.9048 Y44.4016 F500.00
G01 X79.9056 Y44.4202 F500.00
G01 X79.9045 Y44.4388 F500.00
G01 X79.9022 Y44.4535 F500.00
G01 X79.8987 Y44.4680 F500.00
G01 X79.8921 Y44.4868 F500.00
G01 X79.8847 Y44.5025 F500.00
G01 X79.8744 Y44.5194 F500.00
G01 X79.8654 Y44.5313 F500.00
G01 X79.8555 Y44.5424 F500.00
G01 X79.8409 Y44.5559 F500.00
G01 X79.8269 Y44.5662 F500.00
G01 X79.8098 Y44.5763 F500.00
G01 X79.7963 Y44.5826 F500.00
G01 X79.7800 Y44.5884 F500.00
G01 X79.7607 Y44.5931 F500.00
G01 X79.7459 Y44.5952 F500.00
G01 X79.7310 Y44.5960 F500.00
G01 X79.1381 Y44.5961 F500.00
G01 X79.1232 Y44.5954 F500.00
G01 X79.1035 Y44.5927 F500.00
G01 X79.0867 Y44.5884 F500.00
G01 X79.0703 Y44.5826 F500.00
G01 X79.0525 Y44.5739 F500.00
G01 X79.0377 Y44.5648 F500.00
G01 X79.0257 Y44.5559 F500.00
G01 X79.0146 Y44.5459 F500.00
G01 X79.0012 Y44.5313 F500.00
G01 X78.9908 Y44.5174 F500.00
G01 X78.9808 Y44.5003 F500.00
G01 X78.9745 Y44.4868 F500.00
G01 X78.9686 Y44.4704 F500.00
G01 X78.9640 Y44.4511 F500.00
G01 X78.9619 Y44.4364 F500.00
G01 X78.9610 Y44.4202 F500.00
G01 X78.9610 Y43.9087 F500.00
G01 X78.9587 Y43.8849 F500.00
G01 X78.9579 Y43.8688 F500.00
G01 X78.9579 Y42.9087 F500.00
G01 X78.9555 Y42.8832 F500.00
G01 X78.9548 Y42.8699 F500.00
G01 X78.9548 Y42.8543 F500.00
G01 X78.9520 Y42.8404 F500.00
G01 X78.9500 Y42.8266 F500.00
G01 X78.9484 Y42.8112 F500.00
G01 X78.9436 Y42.7951 F500.00
G01 X78.9403 Y42.7822 F500.00
G01 X78.9373 Y42.7668 F500.00
G01 X78.9318 Y42.7537 F500.00
G01 X78.9271 Y42.7406 F500.00
G01 X78.9226 Y42.7258 F500.00
G01 X78.9153 Y42.7120 F500.00
G01 X78.9096 Y42.7000 F500.00
G01 X78.9031 Y42.6844 F500.00
G01 X78.8945 Y42.6716 F500.00
G01 X78.8874 Y42.6596 F500.00
G01 X78.8807 Y42.6471 F500.00
G01 X78.8708 Y42.6349 F500.00
G01 X78.8629 Y42.6242 F500.00
G01 X78.8535 Y42.6102 F500.00
G01 X78.8427 Y42.5993 F500.00
G01 X78.8333 Y42.5889 F500.00
G01 X78.8243 Y42.5779 F500.00
G01 X78.8123 Y42.5679 F500.00
G01 X78.8024 Y42.5590 F500.00
G01 X78.7848 Y42.5414 F500.00
G01 X78.2928 Y42.1478 F500.00
G01 X78.2778 Y42.1379 F500.00
G01 X78.2642 Y42.1278 F500.00
G01 X78.2582 Y42.1229 F500.00
G01 X78.2389 Y42.1122 F500.00
G01 X78.2300 Y42.1069 F500.00
G01 X78.2108 Y42.0944 F500.00
G01 X78.2022 Y42.0909 F500.00
G01 X78.1869 Y42.0836 F500.00
G01 X78.1801 Y42.0799 F500.00
G01 X78.1591 Y42.0732 F500.00
G01 X78.1493 Y42.0697 F500.00
G01 X78.1280 Y42.0612 F500.00
G01 X78.1203 Y42.0597 F500.00
G01 X78.1039 Y42.0556 F500.00
G01 X78.0950 Y42.0529 F500.00
G01 X78.0722 Y42.0503 F500.00
G01 X78.0620 Y42.0488 F500.00
G01 X78.0403 Y42.0447 F500.00
G01 X78.0325 Y42.0447 F500.00
G01 X78.0156 Y42.0439 F500.00
G01 X77.9984 Y42.0421 F500.00
G01 X76.8087 Y42.0421 F500.00
G01 X76.7907 Y42.0437 F500.00
G01 X76.7738 Y42.0443 F500.00
G01 X76.7660 Y42.0442 F500.00
G01 X76.7443 Y42.0479 F500.00
G01 X76.7341 Y42.0493 F500.00
G01 X76.7112 Y42.0516 F500.00
G01 X76.7023 Y42.0542 F500.00
G01 X76.6858 Y42.0581 F500.00
G01 X76.6782 Y42.0595 F500.00
G01 X76.6576 Y42.0674 F500.00
G01 X76.6478 Y42.0707 F500.00
G01 X76.6258 Y42.0774 F500.00
G01 X76.6176 Y42.0817 F500.00
G01 X76.6022 Y42.0887 F500.00
G01 X76.5949 Y42.0915 F500.00
G01 X76.5763 Y42.1033 F500.00
G01 X76.5673 Y42.1085 F500.00
G01 X76.5470 Y42.1193 F500.00
G01 X76.5410 Y42.1242 F500.00
G01 X76.5273 Y42.1341 F500.00
G01 X76.5127 Y42.1434 F500.00
G01 X76.0207 Y42.5370 F500.00
G01 X76.0023 Y42.5548 F500.00
G01 X75.9924 Y42.5636 F500.00
G01 X75.9802 Y42.5734 F500.00
G01 X75.9711 Y42.5843 F500.00
G01 X75.9616 Y42.5945 F500.00
G01 X75.9506 Y42.6053 F500.00
G01 X75.9410 Y42.6192 F500.00
G01 X75.9329 Y42.6298 F500.00
G01 X75.9229 Y42.6418 F500.00
G01 X75.9160 Y42.6542 F500.00
G01 X75.9087 Y42.6661 F500.00
G01 X75.9000 Y42.6788 F500.00
G01 X75.8933 Y42.6943 F500.00
G01 X75.8874 Y42.7062 F500.00
G01 X75.8799 Y42.7199 F500.00
G01 X75.8751 Y42.7346 F500.00
G01 X75.8702 Y42.7477 F500.00
G01 X75.8646 Y42.7607 F500.00
G01 X75.8613 Y42.7760 F500.00
G01 X75.8579 Y42.7889 F500.00
G01 X75.8529 Y42.8050 F500.00
G01 X75.8511 Y42.8203 F500.00
G01 X75.8489 Y42.8341 F500.00
G01 X75.8459 Y42.8479 F500.00
G01 X75.8456 Y42.8636 F500.00
G01 X75.8448 Y42.8769 F500.00
G01 X75.8421 Y42.9016 F500.00
G01 X75.8420 Y43.8122 F500.00
G01 X75.8412 Y43.8284 F500.00
G01 X75.8391 Y43.8431 F500.00
G01 X75.8344 Y43.8624 F500.00
G01 X75.8276 Y43.8810 F500.00
G01 X75.8212 Y43.8945 F500.00
G01 X75.8129 Y43.9083 F500.00
G01 X75.8019 Y43.9233 F500.00
G01 X75.7902 Y43.9362 F500.00
G01 X75.7773 Y43.9479 F500.00
G01 X75.7634 Y43.9582 F500.00
G01 X75.7485 Y43.9672 F500.00
G01 X75.7328 Y43.9746 F500.00
G01 X75.7164 Y43.9804 F500.00
G01 X75.6983 Y43.9849 F500.00
G01 X75.6824 Y43.9872 F500.00
G01 X75.6650 Y43.9881 F500.00
G01 X75.3350 Y43.9881 F500.00
G01 X75.3176 Y43.9872 F500.00
G01 X75.3029 Y43.9851 F500.00
G01 X75.2813 Y43.9797 F500.00
G01 X75.2672 Y43.9746 F500.00
G01 X75.2515 Y43.9672 F500.00
G01 X75.2366 Y43.9582 F500.00
G01 X75.2227 Y43.9479 F500.00
G01 X75.2098 Y43.9362 F500.00
G01 X75.1997 Y43.9252 F500.00
G01 X75.1865 Y43.9073 F500.00
G01 X75.1788 Y43.8945 F500.00
G01 X75.1714 Y43.8788 F500.00
G01 X75.1656 Y43.8624 F500.00
G01 X75.1619 Y43.8479 F500.00
G01 X75.1588 Y43.8284 F500.00
G01 X75.1579 Y43.8110 F500.00
G01 X75.1579 Y42.9087 F500.00
G01 X75.1555 Y42.8832 F500.00
G01 X75.1548 Y42.8699 F500.00
G01 X75.1548 Y42.8543 F500.00
G01 X75.1520 Y42.8404 F500.00
G01 X75.1500 Y42.8266 F500.00
G01 X75.1484 Y42.8112 F500.00
G01 X75.1436 Y42.7951 F500.00
G01 X75.1403 Y42.7822 F500.00
G01 X75.1373 Y42.7668 F500.00
G01 X75.1318 Y42.7537 F500.00
G01 X75.1271 Y42.7406 F500.00
G01 X75.1226 Y42.7258 F500.00
G01 X75.1153 Y42.7120 F500.00
G01 X75.1096 Y42.7000 F500.00
G01 X75.1031 Y42.6844 F500.00
G01 X75.0945 Y42.6716 F500.00
G01 X75.0874 Y42.6596 F500.00
G01 X75.0807 Y42.6471 F500.00
G01 X75.0708 Y42.6349 F500.00
G01 X75.0629 Y42.6242 F500.00
G01 X75.0535 Y42.6102 F500.00
G01 X75.0427 Y42.5993 F500.00
G01 X75.0333 Y42.5889 F500.00
G01 X75.0243 Y42.5779 F500.00
G01 X75.0123 Y42.5679 F500.00
G01 X75.0024 Y42.5590 F500.00
G01 X74.9848 Y42.5414 F500.00
G01 X74.4928 Y42.1478 F500.00
G01 X74.4778 Y42.1379 F500.00
G01 X74.4642 Y42.1278 F500.00
G01 X74.4582 Y42.1229 F500.00
G01 X74.4389 Y42.1122 F500.00
G01 X74.4300 Y42.1069 F500.00
G01 X74.4108 Y42.0944 F500.00
G01 X74.4022 Y42.0909 F500.00
G01 X74.3869 Y42.0836 F500.00
G01 X74.3801 Y42.0799 F500.00
G01 X74.3591 Y42.0732 F500.00
G01 X74.3493 Y42.0697 F500.00
G01 X74.3280 Y42.0612 F500.00
G01 X74.3203 Y42.0597 F500.00
G01 X74.3039 Y42.0556 F500.00
G01 X74.2950 Y42.0529 F500.00
G01 X74.2722 Y42.0503 F500.00
G01 X74.2620 Y42.0488 F500.00
G01 X74.2403 Y42.0447 F500.00
G01 X74.2325 Y42.0447 F500.00
G01 X74.2156 Y42.0439 F500.00
G01 X74.1984 Y42.0421 F500.00
G01 X73.0087 Y42.0421 F500.00
G01 X72.9907 Y42.0437 F500.00
G01 X72.9738 Y42.0443 F500.00
G01 X72.9660 Y42.0442 F500.00
G01 X72.9443 Y42.0479 F500.00
G01 X72.9341 Y42.0493 F500.00
G01 X72.9112 Y42.0516 F500.00
G01 X72.9023 Y42.0542 F500.00
G01 X72.8858 Y42.0581 F500.00
G01 X72.8782 Y42.0595 F500.00
G01 X72.8576 Y42.0674 F500.00
G01 X72.8478 Y42.0707 F500.00
G01 X72.8258 Y42.0774 F500.00
G01 X72.8176 Y42.0817 F500.00
G01 X72.8022 Y42.0887 F500.00
G01 X72.7949 Y42.0915 F500.00
G01 X72.7763 Y42.1033 F500.00
G01 X72.7673 Y42.1085 F500.00
G01 X72.7470 Y42.1193 F500.00
G01 X72.7410 Y42.1242 F500.00
G01 X72.7273 Y42.1341 F500.00
G01 X72.7127 Y42.1434 F500.00
G01 X72.2207 Y42.5370 F500.00
G01 X72.2023 Y42.5548 F500.00
G01 X72.1924 Y42.5636 F500.00
G01 X72.1802 Y42.5734 F500.00
G01 X72.1711 Y42.5843 F500.00
G01 X72.1616 Y42.5945 F500.00
G01 X72.1506 Y42.6053 F500.00
G01 X72.1410 Y42.6192 F500.00
G01 X72.1329 Y42.6298 F500.00
G01 X72.1229 Y42.6418 F500.00
G01 X72.1160 Y42.6542 F500.00
G01 X72.1087 Y42.6661 F500.00
G01 X72.1000 Y42.6788 F500.00
G01 X72.0933 Y42.6943 F500.00
G01 X72.0874 Y42.7062 F500.00
G01 X72.0799 Y42.7199 F500.00
G01 X72.0751 Y42.7346 F500.00
G01 X72.0702 Y42.7477 F500.00
G01 X72.0646 Y42.7607 F500.00
G01 X72.0613 Y42.7760 F500.00
G01 X72.0579 Y42.7889 F500.00
G01 X72.0529 Y42.8050 F500.00
G01 X72.0511 Y42.8203 F500.00
G01 X72.0489 Y42.8341 F500.00
G01 X72.0459 Y42.8479 F500.00
G01 X72.0456 Y42.8636 F500.00
G01 X72.0448 Y42.8769 F500.00
G01 X72.0421 Y42.9016 F500.00
G01 X72.0421 Y43.8110 F500.00
G01 X72.0411 Y43.8296 F500.00
G01 X72.0387 Y43.8455 F500.00
G01 X72.0351 Y43.8600 F500.00
G01 X72.0286 Y43.8788 F500.00
G01 X72.0199 Y43.8966 F500.00
G01 X72.0122 Y43.9094 F500.00
G01 X72.0034 Y43.9214 F500.00
G01 X71.9902 Y43.9362 F500.00
G01 X71.9754 Y43.9494 F500.00
G01 X71.9634 Y43.9582 F500.00
G01 X71.9506 Y43.9659 F500.00
G01 X71.9316 Y43.9750 F500.00
G01 X71.9164 Y43.9804 F500.00
G01 X71.8995 Y43.9847 F500.00
G01 X71.8824 Y43.9872 F500.00
G01 X71.8650 Y43.9881 F500.00
G01 X71.0155 Y43.9881 F500.00
G01 X70.9982 Y43.9872 F500.00
G01 X70.9798 Y43.9844 F500.00
G01 X70.9641 Y43.9804 F500.00
G01 X70.9501 Y43.9755 F500.00
G01 X70.9321 Y43.9672 F500.00
G01 X70.9152 Y43.9568 F500.00
G01 X70.9032 Y43.9479 F500.00
G01 X70.8912 Y43.9371 F500.00
G01 X70.8787 Y43.9233 F500.00
G01 X70.8677 Y43.9083 F500.00
G01 X70.8594 Y43.8945 F500.00
G01 X70.8326 Y43.8444 F500.00
G01 X70.7754 Y43.7746 F500.00
G01 X70.7056 Y43.7174 F500.00
G01 X70.6261 Y43.6749 F500.00
G01 X70.5398 Y43.6487 F500.00
G01 X70.4413 Y43.6390 F500.00
G01 X68.9087 Y43.6390 F500.00
G01 X68.8102 Y43.6487 F500.00
G01 X68.7239 Y43.6749 F500.00
G01 X68.6444 Y43.7174 F500.00
G01 X68.5746 Y43.7746 F500.00
G01 X68.5174 Y43.8444 F500.00
G01 X68.4749 Y43.9239 F500.00
G01 X68.4487 Y44.0102 F500.00
G01 X68.4390 Y44.1087 F500.00
G01 X68.4390 Y45.3913 F500.00
G01 X68.4487 Y45.4899 F500.00
G01 X68.4526 Y45.5055 F500.00
G01 X68.4551 Y45.5226 F500.00
G01 X68.4560 Y45.5400 F500.00
G01 X68.4552 Y45.5561 F500.00
G01 X68.4520 Y45.5769 F500.00
G01 X68.4483 Y45.5914 F500.00
G01 X68.4425 Y45.6078 F500.00
G01 X68.4351 Y45.6235 F500.00
G01 X68.4274 Y45.6363 F500.00
G01 X68.4158 Y45.6523 F500.00
G01 X68.4023 Y45.6669 F500.00
G01 X68.3912 Y45.6769 F500.00
G01 X68.3773 Y45.6872 F500.00
G01 X68.3624 Y45.6962 F500.00
G01 X68.3489 Y45.7026 F500.00
G01 X68.3291 Y45.7098 F500.00
G01 X68.3134 Y45.7137 F500.00
G01 X68.2987 Y45.7159 F500.00
G01 X68.2789 Y45.7171 F500.00
G01 X63.1211 Y45.7171 F500.00
G01 X63.1037 Y45.7162 F500.00
G01 X63.0890 Y45.7141 F500.00
G01 X63.0674 Y45.7087 F500.00
G01 X63.0533 Y45.7036 F500.00
G01 X63.0398 Y45.6973 F500.00
G01 X63.0227 Y45.6872 F500.00
G01 X63.0088 Y45.6769 F500.00
G01 X62.9977 Y45.6669 F500.00
G01 X62.9842 Y45.6523 F500.00
G01 X62.9739 Y45.6384 F500.00
G01 X62.9662 Y45.6256 F500.00
G01 X62.9575 Y45.6078 F500.00
G01 X62.9517 Y45.5914 F500.00
G01 X62.9480 Y45.5769 F500.00
G01 X62.9448 Y45.5561 F500.00
G01 X62.9440 Y45.5400 F500.00
G01 X62.9449 Y45.5226 F500.00
G01 X62.9474 Y45.5055 F500.00
G01 X62.9513 Y45.4899 F500.00
G01 X62.9610 Y45.3913 F500.00
G01 X62.9610 Y44.1087 F500.00
G01 X62.9513 Y44.0102 F500.00
G01 X62.9251 Y43.9239 F500.00
G01 X62.8826 Y43.8444 F500.00
G01 X62.8254 Y43.7746 F500.00
G01 X62.7556 Y43.7174 F500.00
G01 X62.6761 Y43.6749 F500.00
G01 X62.5898 Y43.6487 F500.00
G01 X62.4913 Y43.6390 F500.00
G01 X60.9587 Y43.6390 F500.00
G01 X60.8602 Y43.6487 F500.00
G01 X60.7739 Y43.6749 F500.00
G01 X60.6944 Y43.7174 F500.00
G01 X60.6246 Y43.7746 F500.00
G01 X60.5674 Y43.8444 F500.00
G01 X60.5249 Y43.9239 F500.00
G01 X60.4987 Y44.0102 F500.00
G01 X60.4890 Y44.1087 F500.00
G01 X60.4890 Y45.3913 F500.00
G01 X60.4987 Y45.4899 F500.00
G00 Z2.0000
G00 X64.2692 Y54.7993
G01 F500.00
G01 Z-0.8000
G01 F500.00
G01 X64.2177 Y54.8177 F500.00
G01 X64.1463 Y54.8356 F500.00
G01 X64.0735 Y54.8464 F500.00
G01 X63.9988 Y54.8500 F500.00
G01 X63.9265 Y54.8464 F500.00
G01 X63.8537 Y54.8356 F500.00
G01 X63.7823 Y54.8177 F500.00
G01 X63.7119 Y54.7924 F500.00
G01 X63.6465 Y54.7614 F500.00
G01 X63.5833 Y54.7236 F500.00
G01 X63.5242 Y54.6798 F500.00
G01 X63.4697 Y54.6303 F500.00
G01 X63.4202 Y54.5758 F500.00
G01 X63.3764 Y54.5167 F500.00
G01 X63.3386 Y54.4535 F500.00
G01 X63.3066 Y54.3859 F500.00
G01 X63.2823 Y54.3177 F500.00
G01 X63.2644 Y54.2463 F500.00
G01 X63.2536 Y54.1735 F500.00
G01 X63.2500 Y54.1000 F500.00
G01 X63.2536 Y54.0265 F500.00
G01 X63.2644 Y53.9537 F500.00
G01 X63.2823 Y53.8823 F500.00
G01 X63.3071 Y53.8130 F500.00
G01 X63.3386 Y53.7465 F500.00
G01 X63.3764 Y53.6833 F500.00
G01 X63.4202 Y53.6242 F500.00
G01 X63.4697 Y53.5697 F500.00
G01 X63.5242 Y53.5202 F500.00
G01 X63.5833 Y53.4764 F500.00
G01 X63.6465 Y53.4386 F500.00
G01 X63.7141 Y53.4066 F500.00
G01 X63.7823 Y53.3823 F500.00
G01 X63.8513 Y53.3649 F500.00
G01 X63.9265 Y53.3536 F500.00
G01 X64.0000 Y53.3500 F500.00
G01 X64.0711 Y53.3534 F500.00
G01 X64.1463 Y53.3644 F500.00
G01 X64.2177 Y53.3823 F500.00
G01 X64.2847 Y53.4062 F500.00
G01 X64.3535 Y53.4386 F500.00
G01 X64.4167 Y53.4764 F500.00
G01 X64.4739 Y53.5187 F500.00
G01 X64.5303 Y53.5697 F500.00
G01 X64.5813 Y53.6261 F500.00
G01 X64.6236 Y53.6833 F500.00
G01 X64.6614 Y53.7465 F500.00
G01 X64.6938 Y53.8153 F500.00
G01 X64.7177 Y53.8823 F500.00
G01 X64.7356 Y53.9537 F500.00
G01 X64.7466 Y54.0289 F500.00
G01 X64.7500 Y54.1000 F500.00
G01 X64.7464 Y54.1735 F500.00
G01 X64.7351 Y54.2487 F500.00
G01 X64.7177 Y54.3177 F500.00
G01 X64.6993 Y54.3692 F500.00
G01 X65.4500 Y55.1199 F500.00
G01 X65.4500 Y55.0000 F500.00
G01 X65.4504 Y54.9939 F500.00
G01 X65.4515 Y54.9879 F500.00
G01 X65.4538 Y54.9809 F500.00
G01 X65.4565 Y54.9754 F500.00
G01 X65.4606 Y54.9692 F500.00
G01 X65.4655 Y54.9638 F500.00
G01 X65.4712 Y54.9591 F500.00
G01 X65.4775 Y54.9553 F500.00
G01 X65.4843 Y54.9525 F500.00
G01 X65.4902 Y54.9510 F500.00
G01 X65.5000 Y54.9500 F500.00
G01 X66.2959 Y54.9500 F500.00
G01 X66.2959 Y54.4895 F500.00
G01 X66.2973 Y54.4622 F500.00
G01 X66.3017 Y54.4327 F500.00
G01 X66.3090 Y54.4037 F500.00
G01 X66.3195 Y54.3745 F500.00
G01 X66.3318 Y54.3486 F500.00
G01 X66.3458 Y54.3251 F500.00
G01 X66.3657 Y54.2981 F500.00
G01 X66.3849 Y54.2769 F500.00
G01 X66.4769 Y54.1849 F500.00
G01 X66.4991 Y54.1649 F500.00
G01 X66.5230 Y54.1471 F500.00
G01 X66.5465 Y54.1330 F500.00
G01 X66.5756 Y54.1190 F500.00
G01 X66.6037 Y54.1090 F500.00
G01 X66.6303 Y54.1023 F500.00
G01 X66.6622 Y54.0973 F500.00
G01 X66.6920 Y54.0959 F500.00
G01 X74.0396 Y54.0959 F500.00
G01 X74.0462 Y54.0872 F500.00
G01 X74.0577 Y54.0745 F500.00
G01 X74.0722 Y54.0612 F500.00
G01 X74.0889 Y54.0487 F500.00
G01 X74.1068 Y54.0381 F500.00
G01 X74.1235 Y54.0302 F500.00
G01 X74.1443 Y54.0230 F500.00
G01 X74.1610 Y54.0188 F500.00
G01 X74.1780 Y54.0163 F500.00
G01 X74.1975 Y54.0151 F500.00
G01 X75.8500 Y54.0150 F500.00
G01 X75.8696 Y54.0160 F500.00
G01 X75.8890 Y54.0188 F500.00
G01 X75.9081 Y54.0236 F500.00
G01 X75.9265 Y54.0302 F500.00
G01 X75.9443 Y54.0386 F500.00
G01 X75.9611 Y54.0487 F500.00
G01 X75.9769 Y54.0604 F500.00
G01 X75.9896 Y54.0719 F500.00
G01 X76.0046 Y54.0881 F500.00
G01 X76.0156 Y54.1029 F500.00
G01 X76.0264 Y54.1207 F500.00
G01 X76.0338 Y54.1362 F500.00
G01 X76.0410 Y54.1558 F500.00
G01 X76.0456 Y54.1736 F500.00
G01 X76.0492 Y54.1978 F500.00
G01 X76.0500 Y54.2150 F500.00
G01 X76.0500 Y54.5162 F500.00
G01 X76.0490 Y54.5346 F500.00
G01 X76.0466 Y54.5516 F500.00
G01 X76.0406 Y54.5754 F500.00
G01 X76.0348 Y54.5915 F500.00
G01 X76.0275 Y54.6071 F500.00
G01 X76.0163 Y54.6261 F500.00
G01 X76.0030 Y54.6437 F500.00
G01 X75.9914 Y54.6564 F500.00
G01 X75.9769 Y54.6696 F500.00
G01 X75.9611 Y54.6813 F500.00
G01 X75.9464 Y54.6902 F500.00
G01 X75.9265 Y54.6998 F500.00
G01 X75.9081 Y54.7064 F500.00
G01 X75.8914 Y54.7106 F500.00
G01 X75.8672 Y54.7142 F500.00
G01 X75.8500 Y54.7150 F500.00
G01 X74.2000 Y54.7150 F500.00
G01 X74.1804 Y54.7140 F500.00
G01 X74.1622 Y54.7114 F500.00
G01 X74.1431 Y54.7067 F500.00
G01 X74.1354 Y54.7041 F500.00
G01 X66.9041 Y54.7041 F500.00
G01 X66.9041 Y54.9500 F500.00
G01 X67.7025 Y54.9501 F500.00
G01 X67.7110 Y54.9512 F500.00
G01 X67.7203 Y54.9543 F500.00
G01 X67.7278 Y54.9584 F500.00
G01 X67.7345 Y54.9638 F500.00
G01 X67.7402 Y54.9702 F500.00
G01 X67.7447 Y54.9775 F500.00
G01 X67.7482 Y54.9867 F500.00
G01 X67.7498 Y54.9951 F500.00
G01 X67.7500 Y57.6000 F500.00
G01 X67.7493 Y57.6084 F500.00
G01 X67.7472 Y57.6166 F500.00
G01 X67.7431 Y57.6254 F500.00
G01 X67.7374 Y57.6332 F500.00
G01 X67.7312 Y57.6390 F500.00
G01 X67.2302 Y58.0398 F500.00
G01 X67.2240 Y58.0439 F500.00
G01 X67.2171 Y58.0470 F500.00
G01 X67.2099 Y58.0490 F500.00
G01 X67.2025 Y58.0499 F500.00
G01 X66.0000 Y58.0500 F500.00
G01 X65.9938 Y58.0496 F500.00
G01 X65.9888 Y58.0487 F500.00
G01 X65.9829 Y58.0470 F500.00
G01 X65.9783 Y58.0450 F500.00
G01 X65.9739 Y58.0426 F500.00
G01 X65.9688 Y58.0390 F500.00
G01 X65.4688 Y57.6390 F500.00
G01 X65.4626 Y57.6332 F500.00
G01 X65.4569 Y57.6254 F500.00
G01 X65.4533 Y57.6178 F500.00
G01 X65.4507 Y57.6084 F500.00
G01 X65.4500 Y57.6000 F500.00
G01 X65.4500 Y55.9801 F500.00
G01 X64.2692 Y54.7993 F500.00
G00 Z2.0000
G00 X60.4421 Y56.5766
G01 F500.00
G01 Z-0.8000
G01 F500.00
G01 X60.4458 Y56.5428 F500.00
G01 X60.4477 Y56.5088 F500.00
G01 X60.4491 Y56.5026 F500.00
G01 X60.4529 Y56.4800 F500.00
G01 X60.4629 Y56.4474 F500.00
G01 X60.4692 Y56.4222 F500.00
G01 X60.4718 Y56.4164 F500.00
G01 X60.4799 Y56.3949 F500.00
G01 X60.4960 Y56.3649 F500.00
G01 X60.5071 Y56.3414 F500.00
G01 X60.5107 Y56.3363 F500.00
G01 X60.5229 Y56.3168 F500.00
G01 X60.5445 Y56.2905 F500.00
G01 X60.5599 Y56.2696 F500.00
G01 X60.5645 Y56.2652 F500.00
G01 X60.5802 Y56.2484 F500.00
G01 X60.6066 Y56.2268 F500.00
G01 X60.6322 Y56.2035 F500.00
G01 X61.0240 Y55.9096 F500.00
G01 X61.0386 Y55.9005 F500.00
G01 X61.0465 Y55.8946 F500.00
G01 X61.0801 Y55.8765 F500.00
G01 X61.1083 Y55.8600 F500.00
G01 X61.1163 Y55.8568 F500.00
G01 X61.1252 Y55.8526 F500.00
G01 X61.1617 Y55.8414 F500.00
G01 X61.1926 Y55.8306 F500.00
G01 X61.2023 Y55.8288 F500.00
G01 X61.2106 Y55.8267 F500.00
G01 X61.2431 Y55.8235 F500.00
G01 X61.2809 Y55.8182 F500.00
G01 X61.2908 Y55.8183 F500.00
G01 X61.3087 Y55.8171 F500.00
G01 X62.6984 Y55.8171 F500.00
G01 X62.7156 Y55.8185 F500.00
G01 X62.7254 Y55.8186 F500.00
G01 X62.7578 Y55.8236 F500.00
G01 X62.7957 Y55.8280 F500.00
G01 X62.8052 Y55.8305 F500.00
G01 X62.8136 Y55.8322 F500.00
G01 X62.8443 Y55.8434 F500.00
G01 X62.8807 Y55.8551 F500.00
G01 X62.8895 Y55.8594 F500.00
G01 X62.8974 Y55.8627 F500.00
G01 X62.9254 Y55.8797 F500.00
G01 X62.9588 Y55.8982 F500.00
G01 X62.9666 Y55.9041 F500.00
G01 X62.9817 Y55.9138 F500.00
G01 X63.3735 Y56.2077 F500.00
G01 X63.3983 Y56.2310 F500.00
G01 X63.4243 Y56.2529 F500.00
G01 X63.4398 Y56.2699 F500.00
G01 X63.4443 Y56.2743 F500.00
G01 X63.4594 Y56.2955 F500.00
G01 X63.4807 Y56.3221 F500.00
G01 X63.4838 Y56.3276 F500.00
G01 X63.4961 Y56.3469 F500.00
G01 X63.5104 Y56.3779 F500.00
G01 X63.5226 Y56.4008 F500.00
G01 X63.5245 Y56.4068 F500.00
G01 X63.5329 Y56.4282 F500.00
G01 X63.5409 Y56.4613 F500.00
G01 X63.5484 Y56.4862 F500.00
G01 X63.5491 Y56.4925 F500.00
G01 X63.5531 Y56.5151 F500.00
G01 X63.5546 Y56.5492 F500.00
G01 X63.5579 Y56.5837 F500.00
G01 X63.5579 Y56.8438 F500.00
G01 X63.5587 Y56.8599 F500.00
G01 X63.5610 Y56.8837 F500.00
G01 X63.5610 Y58.8663 F500.00
G01 X63.5513 Y58.9648 F500.00
G01 X63.5251 Y59.0511 F500.00
G01 X63.4826 Y59.1306 F500.00
G01 X63.4254 Y59.2004 F500.00
G01 X63.3556 Y59.2576 F500.00
G01 X63.2761 Y59.3001 F500.00
G01 X63.1898 Y59.3263 F500.00
G01 X63.0913 Y59.3360 F500.00
G01 X62.9076 Y59.3360 F500.00
G01 X62.8927 Y59.3367 F500.00
G01 X62.8731 Y59.3394 F500.00
G01 X62.8562 Y59.3436 F500.00
G01 X62.8399 Y59.3495 F500.00
G01 X62.8242 Y59.3569 F500.00
G01 X62.8093 Y59.3658 F500.00
G01 X62.7934 Y59.3778 F500.00
G01 X62.7824 Y59.3879 F500.00
G01 X62.7724 Y59.3989 F500.00
G01 X62.7618 Y59.4127 F500.00
G01 X62.7521 Y59.4285 F500.00
G01 X62.7450 Y59.4431 F500.00
G01 X62.7382 Y59.4617 F500.00
G01 X62.7340 Y59.4785 F500.00
G01 X62.7314 Y59.4957 F500.00
G01 X62.7306 Y59.5131 F500.00
G01 X62.7314 Y59.5304 F500.00
G01 X62.7340 Y59.5476 F500.00
G01 X62.7382 Y59.5645 F500.00
G01 X62.7445 Y59.5820 F500.00
G01 X62.7515 Y59.5965 F500.00
G01 X62.7591 Y59.6094 F500.00
G01 X62.7716 Y59.6263 F500.00
G01 X62.7824 Y59.6383 F500.00
G01 X62.7934 Y59.6483 F500.00
G01 X62.8254 Y59.6746 F500.00
G01 X62.8826 Y59.7444 F500.00
G01 X62.9251 Y59.8239 F500.00
G01 X62.9513 Y59.9102 F500.00
G01 X62.9609 Y60.0080 F500.00
G01 X62.9586 Y60.2903 F500.00
G01 X62.9029 Y60.3459 F500.00
G01 X62.5500 Y60.3459 F500.00
G01 X62.5499 Y59.9963 F500.00
G01 X62.5490 Y59.9902 F500.00
G01 X62.5471 Y59.9832 F500.00
G01 X62.5447 Y59.9775 F500.00
G01 X62.5409 Y59.9712 F500.00
G01 X62.5362 Y59.9655 F500.00
G01 X62.5317 Y59.9613 F500.00
G01 X62.5267 Y59.9578 F500.00
G01 X62.5203 Y59.9543 F500.00
G01 X62.5110 Y59.9512 F500.00
G01 X62.5049 Y59.9502 F500.00
G01 X62.5000 Y59.9500 F500.00
G01 X62.0291 Y59.9500 F500.00
G01 X62.0291 Y58.9250 F500.00
G01 X63.1012 Y58.9250 F500.00
G01 X63.1085 Y58.9243 F500.00
G01 X63.1145 Y58.9228 F500.00
G01 X63.1214 Y58.9202 F500.00
G01 X63.1278 Y58.9166 F500.00
G01 X63.1336 Y58.9120 F500.00
G01 X63.1379 Y58.9077 F500.00
G01 X63.1422 Y58.9017 F500.00
G01 X63.1452 Y58.8964 F500.00
G01 X63.1475 Y58.8907 F500.00
G01 X63.1488 Y58.8860 F500.00
G01 X63.1496 Y58.8811 F500.00
G01 X63.1500 Y58.8750 F500.00
G01 X63.1500 Y56.5750 F500.00
G01 X63.1495 Y56.5677 F500.00
G01 X63.1479 Y56.5606 F500.00
G01 X63.1453 Y56.5537 F500.00
G01 X63.1417 Y56.5474 F500.00
G01 X63.1364 Y56.5407 F500.00
G01 X63.1300 Y56.5350 F500.00
G01 X62.7300 Y56.2350 F500.00
G01 X62.7248 Y56.2316 F500.00
G01 X62.7204 Y56.2294 F500.00
G01 X62.7146 Y56.2272 F500.00
G01 X62.7086 Y56.2257 F500.00
G01 X62.7000 Y56.2250 F500.00
G01 X61.3000 Y56.2250 F500.00
G01 X61.2914 Y56.2257 F500.00
G01 X61.2842 Y56.2276 F500.00
G01 X61.2762 Y56.2310 F500.00
G01 X61.2700 Y56.2350 F500.00
G01 X60.8700 Y56.5350 F500.00
G01 X60.8628 Y56.5416 F500.00
G01 X60.8570 Y56.5494 F500.00
G01 X60.8542 Y56.5548 F500.00
G01 X60.8518 Y56.5617 F500.00
G01 X60.8504 Y56.5689 F500.00
G01 X60.8500 Y56.5750 F500.00
G01 X60.8500 Y58.8750 F500.00
G01 X60.8502 Y58.8799 F500.00
G01 X60.8512 Y58.8860 F500.00
G01 X60.8534 Y58.8930 F500.00
G01 X60.8571 Y58.9007 F500.00
G01 X60.8621 Y58.9077 F500.00
G01 X60.8673 Y58.9129 F500.00
G01 X60.8733 Y58.9172 F500.00
G01 X60.8809 Y58.9212 F500.00
G01 X60.8890 Y58.9238 F500.00
G01 X60.8963 Y58.9249 F500.00
G01 X61.4209 Y58.9250 F500.00
G01 X61.4209 Y59.9500 F500.00
G01 X60.9488 Y59.9500 F500.00
G01 X60.9415 Y59.9507 F500.00
G01 X60.9343 Y59.9525 F500.00
G01 X60.9275 Y59.9553 F500.00
G01 X60.9202 Y59.9598 F500.00
G01 X60.9164 Y59.9630 F500.00
G01 X60.9121 Y59.9673 F500.00
G01 X60.9091 Y59.9712 F500.00
G01 X60.9059 Y59.9764 F500.00
G01 X60.9038 Y59.9809 F500.00
G01 X60.9018 Y59.9867 F500.00
G01 X60.9005 Y59.9927 F500.00
G01 X60.9001 Y59.9975 F500.00
G01 X60.9000 Y60.3459 F500.00
G01 X60.5471 Y60.3459 F500.00
G01 X60.4914 Y60.2903 F500.00
G01 X60.4891 Y60.0080 F500.00
G01 X60.4987 Y59.9102 F500.00
G01 X60.5249 Y59.8239 F500.00
G01 X60.5674 Y59.7444 F500.00
G01 X60.6246 Y59.6746 F500.00
G01 X60.6944 Y59.6174 F500.00
G01 X60.7148 Y59.6064 F500.00
G01 X60.7266 Y59.5994 F500.00
G01 X60.7417 Y59.5885 F500.00
G01 X60.7555 Y59.5761 F500.00
G01 X60.7687 Y59.5613 F500.00
G01 X60.7775 Y59.5492 F500.00
G01 X60.7865 Y59.5343 F500.00
G01 X60.7939 Y59.5186 F500.00
G01 X60.7990 Y59.5046 F500.00
G01 X60.8044 Y59.4830 F500.00
G01 X60.8065 Y59.4682 F500.00
G01 X60.8074 Y59.4496 F500.00
G01 X60.8065 Y59.4335 F500.00
G01 X60.8040 Y59.4163 F500.00
G01 X60.7997 Y59.3995 F500.00
G01 X60.7939 Y59.3831 F500.00
G01 X60.7865 Y59.3674 F500.00
G01 X60.7775 Y59.3525 F500.00
G01 X60.7672 Y59.3385 F500.00
G01 X60.7572 Y59.3274 F500.00
G01 X60.7426 Y59.3140 F500.00
G01 X60.7276 Y59.3030 F500.00
G01 X60.7138 Y59.2947 F500.00
G01 X60.6444 Y59.2576 F500.00
G01 X60.5746 Y59.2004 F500.00
G01 X60.5174 Y59.1306 F500.00
G01 X60.4749 Y59.0511 F500.00
G01 X60.4487 Y58.9648 F500.00
G01 X60.4390 Y58.8663 F500.00
G01 X60.4390 Y56.8837 F500.00
G01 X60.4413 Y56.8599 F500.00
G01 X60.4421 Y56.8438 F500.00
G01 X60.4421 Y56.5766 F500.00
G00 Z2.0000
G00 X60.9500 Y61.3500
G01 F500.00
G01 Z-0.8000
G01 F500.00
G01 X61.4209 Y61.3500 F500.00
G01 X61.4209 Y61.7029 F500.00
G01 X61.3654 Y61.7584 F500.00
G01 X60.9581 Y61.7610 F500.00
G01 X60.8602 Y61.7513 F500.00
G01 X60.7739 Y61.7251 F500.00
G01 X60.6944 Y61.6826 F500.00
G01 X60.6246 Y61.6254 F500.00
G01 X60.5674 Y61.5556 F500.00
G01 X60.5249 Y61.4761 F500.00
G01 X60.4987 Y61.3898 F500.00
G01 X60.4891 Y61.2920 F500.00
G01 X60.4914 Y61.0097 F500.00
G01 X60.5471 Y60.9541 F500.00
G01 X60.9000 Y60.9541 F500.00
G01 X60.9000 Y61.3000 F500.00
G01 X60.9004 Y61.3061 F500.00
G01 X60.9025 Y61.3157 F500.00
G01 X60.9059 Y61.3236 F500.00
G01 X60.9113 Y61.3317 F500.00
G01 X60.9173 Y61.3379 F500.00
G01 X60.9254 Y61.3435 F500.00
G01 X60.9332 Y61.3471 F500.00
G01 X60.9415 Y61.3493 F500.00
G01 X60.9500 Y61.3500 F500.00
G00 Z2.0000
G00 X62.5500 Y61.3000
G01 F500.00
G01 Z-0.8000
G01 F500.00
G01 X62.5500 Y60.9541 F500.00
G01 X62.9029 Y60.9541 F500.00
G01 X62.9586 Y61.0097 F500.00
G01 X62.9609 Y61.2920 F500.00
G01 X62.9513 Y61.3898 F500.00
G01 X62.9251 Y61.4761 F500.00
G01 X62.8826 Y61.5556 F500.00
G01 X62.8254 Y61.6254 F500.00
G01 X62.7556 Y61.6826 F500.00
G01 X62.6761 Y61.7251 F500.00
G01 X62.5898 Y61.7513 F500.00
G01 X62.4919 Y61.7610 F500.00
G01 X62.0846 Y61.7584 F500.00
G01 X62.0291 Y61.7029 F500.00
G01 X62.0291 Y61.3500 F500.00
G01 X62.5049 Y61.3498 F500.00
G01 X62.5133 Y61.3482 F500.00
G01 X62.5225 Y61.3447 F500.00
G01 X62.5308 Y61.3394 F500.00
G01 X62.5370 Y61.3336 F500.00
G01 X62.5429 Y61.3257 F500.00
G01 X62.5466 Y61.3180 F500.00
G01 X62.5490 Y61.3098 F500.00
G01 X62.5500 Y61.3000 F500.00
G00 Z2.0000
G00 X62.5500 Y65.8000
G01 F500.00
G01 Z-0.8000
G01 F500.00
G01 X62.5490 Y65.8098 F500.00
G01 X62.5466 Y65.8180 F500.00
G01 X62.5422 Y65.8267 F500.00
G01 X62.5362 Y65.8345 F500.00
G01 X62.5288 Y65.8409 F500.00
G01 X62.5203 Y65.8457 F500.00
G01 X62.5110 Y65.8488 F500.00
G01 X62.5012 Y65.8500 F500.00
G01 X60.9500 Y65.8500 F500.00
G01 X60.9415 Y65.8493 F500.00
G01 X60.9332 Y65.8471 F500.00
G01 X60.9254 Y65.8435 F500.00
G01 X60.9183 Y65.8387 F500.00
G01 X60.9146 Y65.8354 F500.00
G01 X60.9106 Y65.8308 F500.00
G01 X60.9078 Y65.8267 F500.00
G01 X60.9048 Y65.8214 F500.00
G01 X60.9025 Y65.8157 F500.00
G01 X60.9012 Y65.8110 F500.00
G01 X60.9002 Y65.8049 F500.00
G01 X60.9000 Y65.8000 F500.00
G01 X60.9000 Y64.5000 F500.00
G01 X60.9007 Y64.4915 F500.00
G01 X60.9029 Y64.4832 F500.00
G01 X60.9065 Y64.4754 F500.00
G01 X60.9113 Y64.4683 F500.00
G01 X60.9146 Y64.4646 F500.00
G01 X60.9192 Y64.4606 F500.00
G01 X60.9243 Y64.4571 F500.00
G01 X60.9286 Y64.4548 F500.00
G01 X60.9332 Y64.4529 F500.00
G01 X60.9390 Y64.4512 F500.00
G01 X60.9439 Y64.4504 F500.00
G01 X60.9500 Y64.4500 F500.00
G01 X62.5000 Y64.4500 F500.00
G01 X62.5085 Y64.4507 F500.00
G01 X62.5168 Y64.4529 F500.00
G01 X62.5246 Y64.4565 F500.00
G01 X62.5317 Y64.4613 F500.00
G01 X62.5387 Y64.4683 F500.00
G01 X62.5416 Y64.4722 F500.00
G01 X62.5447 Y64.4775 F500.00
G01 X62.5471 Y64.4832 F500.00
G01 X62.5485 Y64.4879 F500.00
G01 X62.5495 Y64.4927 F500.00
G01 X62.5500 Y64.4988 F500.00
G01 X62.5500 Y65.8000 F500.00
G00 Z2.0000
G00 X60.4987 Y65.8899
G01 F500.00
G01 Z-0.8000
G01 F500.00
G01 X60.5026 Y65.9055 F500.00
G01 X60.5053 Y65.9251 F500.00
G01 X60.5060 Y65.9400 F500.00
G01 X60.5053 Y65.9549 F500.00
G01 X60.5030 Y65.9721 F500.00
G01 X60.4983 Y65.9914 F500.00
G01 X60.4925 Y66.0078 F500.00
G01 X60.4851 Y66.0235 F500.00
G01 X60.4761 Y66.0384 F500.00
G01 X60.4658 Y66.0523 F500.00
G01 X60.4541 Y66.0652 F500.00
G01 X60.4412 Y66.0769 F500.00
G01 X60.4252 Y66.0885 F500.00
G01 X60.4124 Y66.0962 F500.00
G01 X60.3989 Y66.1026 F500.00
G01 X60.3826 Y66.1087 F500.00
G01 X60.3634 Y66.1137 F500.00
G01 X60.3463 Y66.1162 F500.00
G01 X60.3289 Y66.1171 F500.00
G01 X60.0588 Y66.1170 F500.00
G01 X60.0426 Y66.1162 F500.00
G01 X60.0279 Y66.1141 F500.00
G01 X60.0074 Y66.1091 F500.00
G01 X59.9922 Y66.1036 F500.00
G01 X59.9787 Y66.0973 F500.00
G01 X59.9616 Y66.0872 F500.00
G01 X59.9477 Y66.0769 F500.00
G01 X59.9366 Y66.0669 F500.00
G01 X59.9231 Y66.0523 F500.00
G01 X59.9128 Y66.0384 F500.00
G01 X59.9051 Y66.0256 F500.00
G01 X59.8964 Y66.0078 F500.00
G01 X59.8899 Y65.9890 F500.00
G01 X59.8863 Y65.9745 F500.00
G01 X59.8838 Y65.9574 F500.00
G01 X59.8829 Y65.9400 F500.00
G01 X59.8829 Y50.2600 F500.00
G01 X59.8841 Y50.2402 F500.00
G01 X59.8863 Y50.2255 F500.00
G01 X59.8906 Y50.2086 F500.00
G01 X59.8974 Y50.1900 F500.00
G01 X59.9038 Y50.1765 F500.00
G01 X59.9115 Y50.1637 F500.00
G01 X59.9231 Y50.1477 F500.00
G01 X59.9366 Y50.1331 F500.00
G01 X59.9477 Y50.1231 F500.00
G01 X59.9596 Y50.1142 F500.00
G01 X59.9776 Y50.1033 F500.00
G01 X59.9945 Y50.0955 F500.00
G01 X60.0086 Y50.0906 F500.00
G01 X60.0231 Y50.0869 F500.00
G01 X60.0426 Y50.0838 F500.00
G01 X60.0600 Y50.0829 F500.00
G01 X90.7400 Y50.0829 F500.00
G01 X90.7598 Y50.0841 F500.00
G01 X90.7745 Y50.0863 F500.00
G01 X90.7914 Y50.0906 F500.00
G01 X90.8100 Y50.0974 F500.00
G01 X90.8235 Y50.1038 F500.00
G01 X90.8363 Y50.1115 F500.00
G01 X90.8523 Y50.1231 F500.00
G01 X90.8669 Y50.1366 F500.00
G01 X90.8769 Y50.1477 F500.00
G01 X90.8858 Y50.1596 F500.00
G01 X90.8967 Y50.1776 F500.00
G01 X90.9045 Y50.1945 F500.00
G01 X90.9094 Y50.2086 F500.00
G01 X90.9131 Y50.2231 F500.00
G01 X90.9162 Y50.2426 F500.00
G01 X90.9171 Y50.2600 F500.00
G01 X90.9171 Y65.9400 F500.00
G01 X90.9159 Y65.9598 F500.00
G01 X90.9137 Y65.9745 F500.00
G01 X90.9094 Y65.9914 F500.00
G01 X90.9026 Y66.0100 F500.00
G01 X90.8962 Y66.0235 F500.00
G01 X90.8885 Y66.0363 F500.00
G01 X90.8769 Y66.0523 F500.00
G01 X90.8634 Y66.0669 F500.00
G01 X90.8523 Y66.0769 F500.00
G01 X90.8404 Y66.0858 F500.00
G01 X90.8224 Y66.0967 F500.00
G01 X90.8055 Y66.1045 F500.00
G01 X90.7914 Y66.1094 F500.00
G01 X90.7769 Y66.1131 F500.00
G01 X90.7574 Y66.1162 F500.00
G01 X90.7400 Y66.1171 F500.00
G01 X88.0627 Y66.1171 F500.00
G01 X88.0454 Y66.1162 F500.00
G01 X88.0282 Y66.1137 F500.00
G01 X88.0113 Y66.1094 F500.00
G01 X87.9938 Y66.1031 F500.00
G01 X87.9771 Y66.0949 F500.00
G01 X87.9644 Y66.0872 F500.00
G01 X87.9523 Y66.0784 F500.00
G01 X87.9375 Y66.0652 F500.00
G01 X87.9244 Y66.0504 F500.00
G01 X87.9155 Y66.0384 F500.00
G01 X87.9078 Y66.0256 F500.00
G01 X87.8992 Y66.0078 F500.00
G01 X87.8926 Y65.9890 F500.00
G01 X87.8891 Y65.9745 F500.00
G01 X87.8868 Y65.9598 F500.00
G01 X87.8857 Y65.9375 F500.00
G01 X87.8865 Y65.9226 F500.00
G01 X87.8891 Y65.9055 F500.00
G01 X87.8933 Y65.8886 F500.00
G01 X87.8983 Y65.8745 F500.00
G01 X87.9134 Y65.8378 F500.00
G01 X87.9579 Y65.6140 F500.00
G01 X87.9579 Y65.3860 F500.00
G01 X87.9134 Y65.1622 F500.00
G01 X87.8261 Y64.9515 F500.00
G01 X87.6994 Y64.7619 F500.00
G01 X87.5381 Y64.6006 F500.00
G01 X87.3485 Y64.4739 F500.00
G01 X87.1378 Y64.3866 F500.00
G01 X86.9140 Y64.3421 F500.00
G01 X86.6860 Y64.3421 F500.00
G01 X86.4622 Y64.3866 F500.00
G01 X86.2515 Y64.4739 F500.00
G01 X86.0619 Y64.6006 F500.00
G01 X85.9006 Y64.7619 F500.00
G01 X85.7960 Y64.9184 F500.00
G01 X85.7863 Y64.9313 F500.00
G01 X85.7755 Y64.9433 F500.00
G01 X85.7598 Y64.9574 F500.00
G01 X85.7478 Y64.9662 F500.00
G01 X85.7329 Y64.9752 F500.00
G01 X85.7149 Y64.9835 F500.00
G01 X85.7008 Y64.9884 F500.00
G01 X85.6840 Y64.9927 F500.00
G01 X85.6668 Y64.9952 F500.00
G01 X85.6494 Y64.9961 F500.00
