(G-CODE GENERATED BY FLATCAM v8.992 - www.flatcam.org - Version Date: 2020/05/03)

(Name: multiBoard_small-B_Cu.gbr_iso_cnc)
(Type: G-code from Geometry)
(Units: MM)

(Created on Wednesday, 27 May 2020 at 16:35)

(This preprocessor is used with a motion controller loaded with GRBL firmware.)
(It is configured to be compatible with almost any version of GRBL firmware.)

(TOOL DIAMETER: 0.1 mm)
(Feedrate_XY: 2500.0 mm/min)
(Feedrate_Z: 400.0 mm/min)
(Feedrate rapids 1500.0 mm/min)

(Z_Cut: -0.04 mm)
(Z_Move: 1.0 mm)
(Z Start: None mm)
(Z End: 15.0 mm)
(Steps per circle: 64)
(Preprocessor Geometry: grbl_11)

(X range:   59.8829 ...   90.9171  mm)
(Y range:   29.6829 ...   86.6500  mm)

(Spindle Speed: None RPM)
G21
G90
G17
G94




G01 F2500.00
G00 Z1.0000

M03
G00 X61.5025 Y30.4751
G01 F400.00
G01 Z-0.0400
G01 F2500.00
G01 X61.5711 Y30.4785 F2500.00
G01 X61.6390 Y30.4885 F2500.00
G01 X61.7105 Y30.5062 F2500.00
G01 X61.7797 Y30.5312 F2500.00
G01 X61.8418 Y30.5606 F2500.00
G01 X61.9018 Y30.5965 F2500.00
G01 X61.9618 Y30.6412 F2500.00
G01 X62.0127 Y30.6873 F2500.00
G01 X62.0596 Y30.7391 F2500.00
G01 X62.1035 Y30.7982 F2500.00
G01 X62.1388 Y30.8572 F2500.00
G01 X62.1573 Y30.8959 F2500.00
G01 X66.0151 Y30.8959 F2500.00
G01 X66.0386 Y30.8465 F2500.00
G01 X66.0764 Y30.7833 F2500.00
G01 X66.1202 Y30.7242 F2500.00
G01 X66.1680 Y30.6714 F2500.00
G01 X66.2261 Y30.6187 F2500.00
G01 X66.2833 Y30.5764 F2500.00
G01 X66.3454 Y30.5392 F2500.00
G01 X66.4153 Y30.5062 F2500.00
G01 X66.4823 Y30.4823 F2500.00
G01 X66.5537 Y30.4644 F2500.00
G01 X66.6265 Y30.4536 F2500.00
G01 X66.6975 Y30.4501 F2500.00
G01 X66.7747 Y30.4537 F2500.00
G01 X66.8463 Y30.4644 F2500.00
G01 X66.9177 Y30.4823 F2500.00
G01 X66.9870 Y30.5071 F2500.00
G01 X67.0535 Y30.5386 F2500.00
G01 X67.1167 Y30.5764 F2500.00
G01 X67.1758 Y30.6202 F2500.00
G01 X67.2303 Y30.6697 F2500.00
G01 X67.2798 Y30.7242 F2500.00
G01 X67.3236 Y30.7833 F2500.00
G01 X67.3614 Y30.8465 F2500.00
G01 X67.3929 Y30.9130 F2500.00
G01 X67.4177 Y30.9823 F2500.00
G01 X67.4356 Y31.0537 F2500.00
G01 X67.4464 Y31.1265 F2500.00
G01 X67.4500 Y31.2000 F2500.00
G01 X67.4463 Y31.2747 F2500.00
G01 X67.4356 Y31.3463 F2500.00
G01 X67.4177 Y31.4177 F2500.00
G01 X67.3929 Y31.4870 F2500.00
G01 X67.3625 Y31.5514 F2500.00
G01 X67.3222 Y31.6187 F2500.00
G01 X67.2798 Y31.6758 F2500.00
G01 X67.2303 Y31.7303 F2500.00
G01 X67.1758 Y31.7798 F2500.00
G01 X67.1187 Y31.8222 F2500.00
G01 X67.0514 Y31.8625 F2500.00
G01 X66.9870 Y31.8929 F2500.00
G01 X66.9177 Y31.9177 F2500.00
G01 X66.8463 Y31.9356 F2500.00
G01 X66.7735 Y31.9464 F2500.00
G01 X66.7000 Y31.9500 F2500.00
G01 X66.6289 Y31.9466 F2500.00
G01 X66.5537 Y31.9356 F2500.00
G01 X66.4823 Y31.9177 F2500.00
G01 X66.4153 Y31.8938 F2500.00
G01 X66.3443 Y31.8602 F2500.00
G01 X66.2833 Y31.8236 F2500.00
G01 X66.2261 Y31.7813 F2500.00
G01 X66.1680 Y31.7286 F2500.00
G01 X66.1202 Y31.6758 F2500.00
G01 X66.0764 Y31.6167 F2500.00
G01 X66.0386 Y31.5535 F2500.00
G01 X66.0151 Y31.5041 F2500.00
G01 X62.1573 Y31.5041 F2500.00
G01 X62.1388 Y31.5428 F2500.00
G01 X62.1021 Y31.6038 F2500.00
G01 X62.0604 Y31.6599 F2500.00
G01 X62.0135 Y31.7118 F2500.00
G01 X61.9580 Y31.7619 F2500.00
G01 X61.9028 Y31.8028 F2500.00
G01 X61.8428 Y31.8388 F2500.00
G01 X61.7752 Y31.8707 F2500.00
G01 X61.7105 Y31.8938 F2500.00
G01 X61.6414 Y31.9111 F2500.00
G01 X61.5711 Y31.9215 F2500.00
G01 X61.5025 Y31.9249 F2500.00
G01 X61.4277 Y31.9214 F2500.00
G01 X61.3586 Y31.9111 F2500.00
G01 X61.2895 Y31.8938 F2500.00
G01 X61.2226 Y31.8698 F2500.00
G01 X61.1582 Y31.8394 F2500.00
G01 X61.0972 Y31.8028 F2500.00
G01 X61.0401 Y31.7604 F2500.00
G01 X60.9873 Y31.7127 F2500.00
G01 X60.9396 Y31.6599 F2500.00
G01 X60.8972 Y31.6028 F2500.00
G01 X60.8606 Y31.5418 F2500.00
G01 X60.8302 Y31.4774 F2500.00
G01 X60.8062 Y31.4105 F2500.00
G01 X60.7889 Y31.3414 F2500.00
G01 X60.7785 Y31.2711 F2500.00
G01 X60.7750 Y31.2000 F2500.00
G01 X60.7783 Y31.1314 F2500.00
G01 X60.7895 Y31.0562 F2500.00
G01 X60.8062 Y30.9895 F2500.00
G01 X60.8312 Y30.9203 F2500.00
G01 X60.8606 Y30.8582 F2500.00
G01 X60.8972 Y30.7972 F2500.00
G01 X60.9396 Y30.7401 F2500.00
G01 X60.9891 Y30.6857 F2500.00
G01 X61.0401 Y30.6396 F2500.00
G01 X61.0972 Y30.5972 F2500.00
G01 X61.1582 Y30.5606 F2500.00
G01 X61.2226 Y30.5302 F2500.00
G01 X61.2895 Y30.5062 F2500.00
G01 X61.3586 Y30.4889 F2500.00
G01 X61.4289 Y30.4785 F2500.00
G01 X61.5025 Y30.4751 F2500.00
G00 Z1.0000
G00 X62.1573 Y33.5041
G01 F400.00
G01 Z-0.0400
G01 F2500.00
G01 X62.1388 Y33.5428 F2500.00
G01 X62.1021 Y33.6038 F2500.00
G01 X62.0604 Y33.6599 F2500.00
G01 X62.0118 Y33.7135 F2500.00
G01 X61.9599 Y33.7604 F2500.00
G01 X61.9028 Y33.8028 F2500.00
G01 X61.8418 Y33.8394 F2500.00
G01 X61.7763 Y33.8703 F2500.00
G01 X61.7105 Y33.8938 F2500.00
G01 X61.6414 Y33.9111 F2500.00
G01 X61.5711 Y33.9215 F2500.00
G01 X61.5000 Y33.9250 F2500.00
G01 X61.4289 Y33.9215 F2500.00
G01 X61.3586 Y33.9111 F2500.00
G01 X61.2895 Y33.8938 F2500.00
G01 X61.2214 Y33.8693 F2500.00
G01 X61.1582 Y33.8394 F2500.00
G01 X61.0972 Y33.8028 F2500.00
G01 X61.0401 Y33.7604 F2500.00
G01 X60.9873 Y33.7127 F2500.00
G01 X60.9396 Y33.6599 F2500.00
G01 X60.8972 Y33.6028 F2500.00
G01 X60.8606 Y33.5418 F2500.00
G01 X60.8302 Y33.4774 F2500.00
G01 X60.8062 Y33.4105 F2500.00
G01 X60.7889 Y33.3414 F2500.00
G01 X60.7785 Y33.2711 F2500.00
G01 X60.7750 Y33.2000 F2500.00
G01 X60.7785 Y33.1289 F2500.00
G01 X60.7889 Y33.0586 F2500.00
G01 X60.8062 Y32.9895 F2500.00
G01 X60.8307 Y32.9214 F2500.00
G01 X60.8606 Y32.8582 F2500.00
G01 X60.8959 Y32.7993 F2500.00
G01 X60.9396 Y32.7401 F2500.00
G01 X60.9891 Y32.6857 F2500.00
G01 X61.0401 Y32.6396 F2500.00
G01 X61.0952 Y32.5986 F2500.00
G01 X61.1582 Y32.5606 F2500.00
G01 X61.2248 Y32.5293 F2500.00
G01 X61.2895 Y32.5062 F2500.00
G01 X61.3562 Y32.4895 F2500.00
G01 X61.4302 Y32.4784 F2500.00
G01 X61.5000 Y32.4750 F2500.00
G01 X61.5686 Y32.4783 F2500.00
G01 X61.6414 Y32.4889 F2500.00
G01 X61.7105 Y32.5062 F2500.00
G01 X61.7752 Y32.5293 F2500.00
G01 X61.8428 Y32.5612 F2500.00
G01 X61.9028 Y32.5972 F2500.00
G01 X61.9580 Y32.6381 F2500.00
G01 X62.0135 Y32.6882 F2500.00
G01 X62.0604 Y32.7401 F2500.00
G01 X62.1021 Y32.7962 F2500.00
G01 X62.1388 Y32.8572 F2500.00
G01 X62.1573 Y32.8959 F2500.00
G01 X66.0151 Y32.8959 F2500.00
G01 X66.0386 Y32.8465 F2500.00
G01 X66.0751 Y32.7854 F2500.00
G01 X66.1202 Y32.7242 F2500.00
G01 X66.1697 Y32.6697 F2500.00
G01 X66.2223 Y32.6218 F2500.00
G01 X66.2844 Y32.5757 F2500.00
G01 X66.3465 Y32.5386 F2500.00
G01 X66.4107 Y32.5081 F2500.00
G01 X66.4823 Y32.4823 F2500.00
G01 X66.5537 Y32.4644 F2500.00
G01 X66.6241 Y32.4539 F2500.00
G01 X66.7012 Y32.4500 F2500.00
G01 X66.7735 Y32.4536 F2500.00
G01 X66.8463 Y32.4644 F2500.00
G01 X66.9177 Y32.4823 F2500.00
G01 X66.9870 Y32.5071 F2500.00
G01 X67.0535 Y32.5386 F2500.00
G01 X67.1167 Y32.5764 F2500.00
G01 X67.1758 Y32.6202 F2500.00
G01 X67.2286 Y32.6680 F2500.00
G01 X67.2813 Y32.7261 F2500.00
G01 X67.3236 Y32.7833 F2500.00
G01 X67.3625 Y32.8486 F2500.00
G01 X67.3929 Y32.9130 F2500.00
G01 X67.4177 Y32.9823 F2500.00
G01 X67.4356 Y33.0537 F2500.00
G01 X67.4465 Y33.1277 F2500.00
G01 X67.4500 Y33.2000 F2500.00
G01 X67.4464 Y33.2735 F2500.00
G01 X67.4356 Y33.3463 F2500.00
G01 X67.4177 Y33.4177 F2500.00
G01 X67.3929 Y33.4870 F2500.00
G01 X67.3614 Y33.5535 F2500.00
G01 X67.3236 Y33.6167 F2500.00
G01 X67.2798 Y33.6758 F2500.00
G01 X67.2303 Y33.7303 F2500.00
G01 X67.1758 Y33.7798 F2500.00
G01 X67.1167 Y33.8236 F2500.00
G01 X67.0535 Y33.8614 F2500.00
G01 X66.9870 Y33.8929 F2500.00
G01 X66.9177 Y33.9177 F2500.00
G01 X66.8463 Y33.9356 F2500.00
G01 X66.7723 Y33.9465 F2500.00
G01 X66.7000 Y33.9500 F2500.00
G01 X66.6289 Y33.9466 F2500.00
G01 X66.5537 Y33.9356 F2500.00
G01 X66.4823 Y33.9177 F2500.00
G01 X66.4153 Y33.8938 F2500.00
G01 X66.3443 Y33.8602 F2500.00
G01 X66.2833 Y33.8236 F2500.00
G01 X66.2261 Y33.7813 F2500.00
G01 X66.1680 Y33.7286 F2500.00
G01 X66.1202 Y33.6758 F2500.00
G01 X66.0764 Y33.6167 F2500.00
G01 X66.0386 Y33.5535 F2500.00
G01 X66.0151 Y33.5041 F2500.00
G01 X62.1573 Y33.5041 F2500.00
G00 Z1.0000
G00 X62.1573 Y35.5041
G01 F400.00
G01 Z-0.0400
G01 F2500.00
G01 X62.1388 Y35.5428 F2500.00
G01 X62.1021 Y35.6038 F2500.00
G01 X62.0604 Y35.6599 F2500.00
G01 X62.0118 Y35.7135 F2500.00
G01 X61.9599 Y35.7604 F2500.00
G01 X61.9028 Y35.8028 F2500.00
G01 X61.8418 Y35.8394 F2500.00
G01 X61.7763 Y35.8703 F2500.00
G01 X61.7105 Y35.8938 F2500.00
G01 X61.6414 Y35.9111 F2500.00
G01 X61.5711 Y35.9215 F2500.00
G01 X61.5000 Y35.9250 F2500.00
G01 X61.4289 Y35.9215 F2500.00
G01 X61.3586 Y35.9111 F2500.00
G01 X61.2895 Y35.8938 F2500.00
G01 X61.2214 Y35.8693 F2500.00
G01 X61.1582 Y35.8394 F2500.00
G01 X61.0972 Y35.8028 F2500.00
G01 X61.0401 Y35.7604 F2500.00
G01 X60.9873 Y35.7127 F2500.00
G01 X60.9396 Y35.6599 F2500.00
G01 X60.8972 Y35.6028 F2500.00
G01 X60.8606 Y35.5418 F2500.00
G01 X60.8302 Y35.4774 F2500.00
G01 X60.8062 Y35.4105 F2500.00
G01 X60.7889 Y35.3414 F2500.00
G01 X60.7785 Y35.2711 F2500.00
G01 X60.7750 Y35.2000 F2500.00
G01 X60.7785 Y35.1289 F2500.00
G01 X60.7889 Y35.0586 F2500.00
G01 X60.8062 Y34.9895 F2500.00
G01 X60.8307 Y34.9214 F2500.00
G01 X60.8606 Y34.8582 F2500.00
G01 X60.8959 Y34.7993 F2500.00
G01 X60.9396 Y34.7401 F2500.00
G01 X60.9891 Y34.6857 F2500.00
G01 X61.0401 Y34.6396 F2500.00
G01 X61.0952 Y34.5986 F2500.00
G01 X61.1582 Y34.5606 F2500.00
G01 X61.2248 Y34.5293 F2500.00
G01 X61.2895 Y34.5062 F2500.00
G01 X61.3562 Y34.4895 F2500.00
G01 X61.4302 Y34.4784 F2500.00
G01 X61.5000 Y34.4750 F2500.00
G01 X61.5686 Y34.4783 F2500.00
G01 X61.6414 Y34.4889 F2500.00
G01 X61.7105 Y34.5062 F2500.00
G01 X61.7752 Y34.5293 F2500.00
G01 X61.8428 Y34.5612 F2500.00
G01 X61.9028 Y34.5972 F2500.00
G01 X61.9580 Y34.6381 F2500.00
G01 X62.0135 Y34.6882 F2500.00
G01 X62.0604 Y34.7401 F2500.00
G01 X62.1021 Y34.7962 F2500.00
G01 X62.1388 Y34.8572 F2500.00
G01 X62.1573 Y34.8959 F2500.00
G01 X66.0151 Y34.8959 F2500.00
G01 X66.0386 Y34.8465 F2500.00
G01 X66.0751 Y34.7854 F2500.00
G01 X66.1202 Y34.7242 F2500.00
G01 X66.1697 Y34.6697 F2500.00
G01 X66.2223 Y34.6218 F2500.00
G01 X66.2844 Y34.5757 F2500.00
G01 X66.3465 Y34.5386 F2500.00
G01 X66.4107 Y34.5081 F2500.00
G01 X66.4823 Y34.4823 F2500.00
G01 X66.5537 Y34.4644 F2500.00
G01 X66.6241 Y34.4539 F2500.00
G01 X66.7012 Y34.4500 F2500.00
G01 X66.7735 Y34.4536 F2500.00
G01 X66.8463 Y34.4644 F2500.00
G01 X66.9177 Y34.4823 F2500.00
G01 X66.9870 Y34.5071 F2500.00
G01 X67.0535 Y34.5386 F2500.00
G01 X67.1167 Y34.5764 F2500.00
G01 X67.1758 Y34.6202 F2500.00
G01 X67.2286 Y34.6680 F2500.00
G01 X67.2813 Y34.7261 F2500.00
G01 X67.3236 Y34.7833 F2500.00
G01 X67.3625 Y34.8486 F2500.00
G01 X67.3929 Y34.9130 F2500.00
G01 X67.4177 Y34.9823 F2500.00
G01 X67.4356 Y35.0537 F2500.00
G01 X67.4465 Y35.1277 F2500.00
G01 X67.4500 Y35.2000 F2500.00
G01 X67.4464 Y35.2735 F2500.00
G01 X67.4356 Y35.3463 F2500.00
G01 X67.4177 Y35.4177 F2500.00
G01 X67.3929 Y35.4870 F2500.00
G01 X67.3614 Y35.5535 F2500.00
G01 X67.3236 Y35.6167 F2500.00
G01 X67.2798 Y35.6758 F2500.00
G01 X67.2303 Y35.7303 F2500.00
G01 X67.1758 Y35.7798 F2500.00
G01 X67.1167 Y35.8236 F2500.00
G01 X67.0535 Y35.8614 F2500.00
G01 X66.9870 Y35.8929 F2500.00
G01 X66.9177 Y35.9177 F2500.00
G01 X66.8463 Y35.9356 F2500.00
G01 X66.7723 Y35.9465 F2500.00
G01 X66.7000 Y35.9500 F2500.00
G01 X66.6289 Y35.9466 F2500.00
G01 X66.5537 Y35.9356 F2500.00
G01 X66.4823 Y35.9177 F2500.00
G01 X66.4153 Y35.8938 F2500.00
G01 X66.3443 Y35.8602 F2500.00
G01 X66.2833 Y35.8236 F2500.00
G01 X66.2261 Y35.7813 F2500.00
G01 X66.1680 Y35.7286 F2500.00
G01 X66.1202 Y35.6758 F2500.00
G01 X66.0764 Y35.6167 F2500.00
G01 X66.0386 Y35.5535 F2500.00
G01 X66.0151 Y35.5041 F2500.00
G01 X62.1573 Y35.5041 F2500.00
G00 Z1.0000
G00 X60.8250 Y36.4750
G01 F400.00
G01 Z-0.0400
G01 F2500.00
G01 X62.1750 Y36.4750 F2500.00
G01 X62.1823 Y36.4755 F2500.00
G01 X62.1895 Y36.4772 F2500.00
G01 X62.1964 Y36.4798 F2500.00
G01 X62.2028 Y36.4834 F2500.00
G01 X62.2095 Y36.4888 F2500.00
G01 X62.2144 Y36.4942 F2500.00
G01 X62.2185 Y36.5004 F2500.00
G01 X62.2216 Y36.5070 F2500.00
G01 X62.2238 Y36.5140 F2500.00
G01 X62.2249 Y36.5213 F2500.00
G01 X62.2250 Y36.8959 F2500.00
G01 X66.0151 Y36.8959 F2500.00
G01 X66.0386 Y36.8465 F2500.00
G01 X66.0764 Y36.7833 F2500.00
G01 X66.1202 Y36.7242 F2500.00
G01 X66.1680 Y36.6714 F2500.00
G01 X66.2261 Y36.6187 F2500.00
G01 X66.2833 Y36.5764 F2500.00
G01 X66.3454 Y36.5392 F2500.00
G01 X66.4153 Y36.5062 F2500.00
G01 X66.4823 Y36.4823 F2500.00
G01 X66.5537 Y36.4644 F2500.00
G01 X66.6265 Y36.4536 F2500.00
G01 X66.6975 Y36.4501 F2500.00
G01 X66.7747 Y36.4537 F2500.00
G01 X66.8463 Y36.4644 F2500.00
G01 X66.9177 Y36.4823 F2500.00
G01 X66.9870 Y36.5071 F2500.00
G01 X67.0535 Y36.5386 F2500.00
G01 X67.1167 Y36.5764 F2500.00
G01 X67.1758 Y36.6202 F2500.00
G01 X67.2303 Y36.6697 F2500.00
G01 X67.2798 Y36.7242 F2500.00
G01 X67.3236 Y36.7833 F2500.00
G01 X67.3614 Y36.8465 F2500.00
G01 X67.3929 Y36.9130 F2500.00
G01 X67.4177 Y36.9823 F2500.00
G01 X67.4356 Y37.0537 F2500.00
G01 X67.4464 Y37.1265 F2500.00
G01 X67.4500 Y37.2000 F2500.00
G01 X67.4463 Y37.2747 F2500.00
G01 X67.4356 Y37.3463 F2500.00
G01 X67.4177 Y37.4177 F2500.00
G01 X67.3929 Y37.4870 F2500.00
G01 X67.3625 Y37.5514 F2500.00
G01 X67.3222 Y37.6187 F2500.00
G01 X67.2798 Y37.6758 F2500.00
G01 X67.2303 Y37.7303 F2500.00
G01 X67.1758 Y37.7798 F2500.00
G01 X67.1167 Y37.8236 F2500.00
G01 X67.0535 Y37.8614 F2500.00
G01 X66.9893 Y37.8919 F2500.00
G01 X66.9153 Y37.9184 F2500.00
G01 X66.8463 Y37.9356 F2500.00
G01 X66.7735 Y37.9464 F2500.00
G01 X66.7000 Y37.9500 F2500.00
G01 X66.6289 Y37.9466 F2500.00
G01 X66.5537 Y37.9356 F2500.00
G01 X66.4823 Y37.9177 F2500.00
G01 X66.4153 Y37.8938 F2500.00
G01 X66.3443 Y37.8602 F2500.00
G01 X66.2833 Y37.8236 F2500.00
G01 X66.2261 Y37.7813 F2500.00
G01 X66.1680 Y37.7286 F2500.00
G01 X66.1202 Y37.6758 F2500.00
G01 X66.0764 Y37.6167 F2500.00
G01 X66.0386 Y37.5535 F2500.00
G01 X66.0151 Y37.5041 F2500.00
G01 X62.2250 Y37.5041 F2500.00
G01 X62.2249 Y37.8787 F2500.00
G01 X62.2238 Y37.8860 F2500.00
G01 X62.2216 Y37.8930 F2500.00
G01 X62.2185 Y37.8996 F2500.00
G01 X62.2144 Y37.9058 F2500.00
G01 X62.2095 Y37.9112 F2500.00
G01 X62.2038 Y37.9159 F2500.00
G01 X62.1964 Y37.9202 F2500.00
G01 X62.1895 Y37.9228 F2500.00
G01 X62.1823 Y37.9245 F2500.00
G01 X62.1750 Y37.9250 F2500.00
G01 X60.8250 Y37.9250 F2500.00
G01 X60.8189 Y37.9246 F2500.00
G01 X60.8105 Y37.9228 F2500.00
G01 X60.8014 Y37.9191 F2500.00
G01 X60.7942 Y37.9144 F2500.00
G01 X60.7880 Y37.9086 F2500.00
G01 X60.7828 Y37.9017 F2500.00
G01 X60.7788 Y37.8941 F2500.00
G01 X60.7760 Y37.8848 F2500.00
G01 X60.7750 Y37.8762 F2500.00
G01 X60.7750 Y36.5250 F2500.00
G01 X60.7760 Y36.5152 F2500.00
G01 X60.7788 Y36.5059 F2500.00
G01 X60.7834 Y36.4972 F2500.00
G01 X60.7896 Y36.4896 F2500.00
G01 X60.7972 Y36.4834 F2500.00
G01 X60.8059 Y36.4788 F2500.00
G01 X60.8152 Y36.4760 F2500.00
G01 X60.8250 Y36.4750 F2500.00
G00 Z1.0000
G00 X60.3640 Y37.8663
G01 F400.00
G01 Z-0.0400
G01 F2500.00
G01 X60.3640 Y36.5337 F2500.00
G01 X60.3737 Y36.4352 F2500.00
G01 X60.3999 Y36.3489 F2500.00
G01 X60.4424 Y36.2694 F2500.00
G01 X60.4996 Y36.1996 F2500.00
G01 X60.5749 Y36.1378 F2500.00
G01 X60.5876 Y36.1259 F2500.00
G01 X60.5976 Y36.1148 F2500.00
G01 X60.6065 Y36.1029 F2500.00
G01 X60.6180 Y36.0838 F2500.00
G01 X60.6243 Y36.0703 F2500.00
G01 X60.6301 Y36.0539 F2500.00
G01 X60.6344 Y36.0371 F2500.00
G01 X60.6366 Y36.0223 F2500.00
G01 X60.6378 Y36.0025 F2500.00
G01 X60.6369 Y35.9852 F2500.00
G01 X60.6338 Y35.9656 F2500.00
G01 X60.6301 Y35.9511 F2500.00
G01 X60.6252 Y35.9370 F2500.00
G01 X60.6180 Y35.9212 F2500.00
G01 X60.6079 Y35.9041 F2500.00
G01 X60.4960 Y35.7366 F2500.00
G01 X60.4106 Y35.5305 F2500.00
G01 X60.3671 Y35.3116 F2500.00
G01 X60.3671 Y35.0884 F2500.00
G01 X60.4106 Y34.8695 F2500.00
G01 X60.4960 Y34.6634 F2500.00
G01 X60.6200 Y34.4778 F2500.00
G01 X60.7734 Y34.3243 F2500.00
G01 X60.7843 Y34.3123 F2500.00
G01 X60.7939 Y34.2994 F2500.00
G01 X60.8046 Y34.2813 F2500.00
G01 X60.8110 Y34.2678 F2500.00
G01 X60.8168 Y34.2514 F2500.00
G01 X60.8215 Y34.2321 F2500.00
G01 X60.8236 Y34.2174 F2500.00
G01 X60.8244 Y34.2012 F2500.00
G01 X60.8233 Y34.1802 F2500.00
G01 X60.8210 Y34.1655 F2500.00
G01 X60.8168 Y34.1486 F2500.00
G01 X60.8110 Y34.1322 F2500.00
G01 X60.8046 Y34.1187 F2500.00
G01 X60.7939 Y34.1006 F2500.00
G01 X60.7843 Y34.0877 F2500.00
G01 X60.7734 Y34.0757 F2500.00
G01 X60.6200 Y33.9222 F2500.00
G01 X60.4960 Y33.7366 F2500.00
G01 X60.4106 Y33.5305 F2500.00
G01 X60.3671 Y33.3116 F2500.00
G01 X60.3671 Y33.0884 F2500.00
G01 X60.4106 Y32.8695 F2500.00
G01 X60.4960 Y32.6634 F2500.00
G01 X60.6200 Y32.4778 F2500.00
G01 X60.7726 Y32.3252 F2500.00
G01 X60.7843 Y32.3123 F2500.00
G01 X60.7932 Y32.3004 F2500.00
G01 X60.8035 Y32.2835 F2500.00
G01 X60.8118 Y32.2655 F2500.00
G01 X60.8168 Y32.2514 F2500.00
G01 X60.8205 Y32.2369 F2500.00
G01 X60.8236 Y32.2174 F2500.00
G01 X60.8244 Y32.2000 F2500.00
G01 X60.8238 Y32.1851 F2500.00
G01 X60.8205 Y32.1631 F2500.00
G01 X60.8168 Y32.1486 F2500.00
G01 X60.8110 Y32.1322 F2500.00
G01 X60.8035 Y32.1165 F2500.00
G01 X60.7946 Y32.1016 F2500.00
G01 X60.7843 Y32.0877 F2500.00
G01 X60.7734 Y32.0757 F2500.00
G01 X60.6200 Y31.9222 F2500.00
G01 X60.4960 Y31.7366 F2500.00
G01 X60.4106 Y31.5305 F2500.00
G01 X60.3671 Y31.3116 F2500.00
G01 X60.3671 Y31.0884 F2500.00
G01 X60.4106 Y30.8695 F2500.00
G01 X60.4960 Y30.6634 F2500.00
G01 X60.6200 Y30.4778 F2500.00
G01 X60.7778 Y30.3200 F2500.00
G01 X60.9634 Y30.1960 F2500.00
G01 X61.1695 Y30.1106 F2500.00
G01 X61.3884 Y30.0671 F2500.00
G01 X61.6116 Y30.0671 F2500.00
G01 X61.8305 Y30.1106 F2500.00
G01 X62.0366 Y30.1960 F2500.00
G01 X62.2222 Y30.3200 F2500.00
G01 X62.3393 Y30.4371 F2500.00
G01 X62.3513 Y30.4479 F2500.00
G01 X62.3642 Y30.4575 F2500.00
G01 X62.3823 Y30.4683 F2500.00
G01 X62.3959 Y30.4746 F2500.00
G01 X62.4122 Y30.4804 F2500.00
G01 X62.4315 Y30.4851 F2500.00
G01 X62.4463 Y30.4872 F2500.00
G01 X62.4612 Y30.4880 F2500.00
G01 X65.7010 Y30.4881 F2500.00
G01 X65.7184 Y30.4872 F2500.00
G01 X65.7380 Y30.4841 F2500.00
G01 X65.7524 Y30.4804 F2500.00
G01 X65.7665 Y30.4755 F2500.00
G01 X65.7845 Y30.4672 F2500.00
G01 X65.8014 Y30.4568 F2500.00
G01 X65.8134 Y30.4479 F2500.00
G01 X65.8253 Y30.4371 F2500.00
G01 X65.9619 Y30.3006 F2500.00
G01 X66.1515 Y30.1739 F2500.00
G01 X66.3622 Y30.0866 F2500.00
G01 X66.5860 Y30.0421 F2500.00
G01 X66.8140 Y30.0421 F2500.00
G01 X67.0378 Y30.0866 F2500.00
G01 X67.2485 Y30.1739 F2500.00
G01 X67.4381 Y30.3006 F2500.00
G01 X67.5994 Y30.4619 F2500.00
G01 X67.7261 Y30.6515 F2500.00
G01 X67.8134 Y30.8622 F2500.00
G01 X67.8579 Y31.0860 F2500.00
G01 X67.8579 Y31.3140 F2500.00
G01 X67.8134 Y31.5378 F2500.00
G01 X67.7261 Y31.7485 F2500.00
G01 X67.5994 Y31.9381 F2500.00
G01 X67.4619 Y32.0757 F2500.00
G01 X67.4511 Y32.0877 F2500.00
G01 X67.4414 Y32.1006 F2500.00
G01 X67.4307 Y32.1187 F2500.00
G01 X67.4244 Y32.1322 F2500.00
G01 X67.4185 Y32.1486 F2500.00
G01 X67.4139 Y32.1679 F2500.00
G01 X67.4118 Y32.1826 F2500.00
G01 X67.4110 Y32.1975 F2500.00
G01 X67.4121 Y32.2198 F2500.00
G01 X67.4143 Y32.2345 F2500.00
G01 X67.4185 Y32.2514 F2500.00
G01 X67.4244 Y32.2678 F2500.00
G01 X67.4307 Y32.2813 F2500.00
G01 X67.4414 Y32.2994 F2500.00
G01 X67.4511 Y32.3123 F2500.00
G01 X67.4619 Y32.3243 F2500.00
G01 X67.5994 Y32.4619 F2500.00
G01 X67.7261 Y32.6515 F2500.00
G01 X67.8134 Y32.8622 F2500.00
G01 X67.8579 Y33.0860 F2500.00
G01 X67.8579 Y33.3140 F2500.00
G01 X67.8134 Y33.5378 F2500.00
G01 X67.7261 Y33.7485 F2500.00
G01 X67.5994 Y33.9381 F2500.00
G01 X67.4619 Y34.0757 F2500.00
G01 X67.4511 Y34.0877 F2500.00
G01 X67.4414 Y34.1006 F2500.00
G01 X67.4307 Y34.1187 F2500.00
G01 X67.4244 Y34.1322 F2500.00
G01 X67.4193 Y34.1463 F2500.00
G01 X67.4143 Y34.1655 F2500.00
G01 X67.4116 Y34.1851 F2500.00
G01 X67.4109 Y34.2000 F2500.00
G01 X67.4118 Y34.2174 F2500.00
G01 X67.4143 Y34.2345 F2500.00
G01 X67.4179 Y34.2490 F2500.00
G01 X67.4254 Y34.2700 F2500.00
G01 X67.4318 Y34.2835 F2500.00
G01 X67.4408 Y34.2984 F2500.00
G01 X67.4511 Y34.3123 F2500.00
G01 X67.4619 Y34.3243 F2500.00
G01 X67.5994 Y34.4619 F2500.00
G01 X67.7261 Y34.6515 F2500.00
G01 X67.8134 Y34.8622 F2500.00
G01 X67.8579 Y35.0860 F2500.00
G01 X67.8579 Y35.3140 F2500.00
G01 X67.8134 Y35.5378 F2500.00
G01 X67.7261 Y35.7485 F2500.00
G01 X67.5994 Y35.9381 F2500.00
G01 X67.4619 Y36.0757 F2500.00
G01 X67.4511 Y36.0877 F2500.00
G01 X67.4422 Y36.0996 F2500.00
G01 X67.4318 Y36.1165 F2500.00
G01 X67.4235 Y36.1345 F2500.00
G01 X67.4185 Y36.1486 F2500.00
G01 X67.4149 Y36.1631 F2500.00
G01 X67.4118 Y36.1826 F2500.00
G01 X67.4109 Y36.2000 F2500.00
G01 X67.4118 Y36.2174 F2500.00
G01 X67.4143 Y36.2345 F2500.00
G01 X67.4179 Y36.2490 F2500.00
G01 X67.4254 Y36.2700 F2500.00
G01 X67.4318 Y36.2835 F2500.00
G01 X67.4408 Y36.2984 F2500.00
G01 X67.4511 Y36.3123 F2500.00
G01 X67.4619 Y36.3243 F2500.00
G01 X67.5994 Y36.4619 F2500.00
G01 X67.7262 Y36.6515 F2500.00
G01 X67.8134 Y36.8622 F2500.00
G01 X67.8579 Y37.0860 F2500.00
G01 X67.8579 Y37.3140 F2500.00
G01 X67.8134 Y37.5378 F2500.00
G01 X67.7262 Y37.7485 F2500.00
G01 X67.5994 Y37.9381 F2500.00
G01 X67.4381 Y38.0994 F2500.00
G01 X67.2485 Y38.2261 F2500.00
G01 X67.0378 Y38.3134 F2500.00
G01 X66.8140 Y38.3579 F2500.00
G01 X66.5860 Y38.3579 F2500.00
G01 X66.3622 Y38.3134 F2500.00
G01 X66.1515 Y38.2261 F2500.00
G01 X65.9619 Y38.0994 F2500.00
G01 X65.8254 Y37.9629 F2500.00
G01 X65.8134 Y37.9521 F2500.00
G01 X65.8004 Y37.9425 F2500.00
G01 X65.7823 Y37.9317 F2500.00
G01 X65.7688 Y37.9254 F2500.00
G01 X65.7524 Y37.9196 F2500.00
G01 X65.7356 Y37.9153 F2500.00
G01 X65.7208 Y37.9131 F2500.00
G01 X65.7010 Y37.9119 F2500.00
G01 X62.7737 Y37.9119 F2500.00
G01 X62.7563 Y37.9128 F2500.00
G01 X62.7391 Y37.9153 F2500.00
G01 X62.7223 Y37.9196 F2500.00
G01 X62.7059 Y37.9254 F2500.00
G01 X62.6902 Y37.9328 F2500.00
G01 X62.6753 Y37.9418 F2500.00
G01 X62.6613 Y37.9521 F2500.00
G01 X62.6485 Y37.9638 F2500.00
G01 X62.6384 Y37.9748 F2500.00
G01 X62.6264 Y37.9906 F2500.00
G01 X62.6169 Y38.0066 F2500.00
G01 X62.6096 Y38.0224 F2500.00
G01 X62.6046 Y38.0364 F2500.00
G01 X62.6001 Y38.0511 F2500.00
G01 X62.5576 Y38.1306 F2500.00
G01 X62.5004 Y38.2004 F2500.00
G01 X62.4306 Y38.2576 F2500.00
G01 X62.3511 Y38.3001 F2500.00
G01 X62.2648 Y38.3263 F2500.00
G01 X62.1663 Y38.3360 F2500.00
G01 X60.8337 Y38.3360 F2500.00
G01 X60.7352 Y38.3263 F2500.00
G01 X60.6489 Y38.3001 F2500.00
G01 X60.5694 Y38.2576 F2500.00
G01 X60.4996 Y38.2004 F2500.00
G01 X60.4424 Y38.1306 F2500.00
G01 X60.3999 Y38.0511 F2500.00
G01 X60.3737 Y37.9648 F2500.00
G01 X60.3640 Y37.8663 F2500.00
G00 Z1.0000
G00 X61.8041 Y41.5427
G01 F400.00
G01 Z-0.0400
G01 F2500.00
G01 X61.8041 Y41.1546 F2500.00
G01 X61.8483 Y41.1277 F2500.00
G01 X61.9930 Y41.1809 F2500.00
G01 X62.1823 Y41.2966 F2500.00
G01 X62.3454 Y41.4471 F2500.00
G01 X62.4761 Y41.6265 F2500.00
G01 X62.5714 Y41.8326 F2500.00
G01 X62.5754 Y41.8460 F2500.00
G01 X62.5449 Y41.8959 F2500.00
G01 X62.1573 Y41.8959 F2500.00
G01 X62.1388 Y41.8572 F2500.00
G01 X62.1021 Y41.7962 F2500.00
G01 X62.0604 Y41.7401 F2500.00
G01 X62.0127 Y41.6873 F2500.00
G01 X61.9599 Y41.6396 F2500.00
G01 X61.9038 Y41.5979 F2500.00
G01 X61.8428 Y41.5612 F2500.00
G01 X61.8041 Y41.5427 F2500.00
G00 Z1.0000
G00 X60.8427 Y41.8959
G01 F400.00
G01 Z-0.0400
G01 F2500.00
G01 X60.4551 Y41.8959 F2500.00
G01 X60.4246 Y41.8460 F2500.00
G01 X60.4286 Y41.8326 F2500.00
G01 X60.5239 Y41.6265 F2500.00
G01 X60.6546 Y41.4471 F2500.00
G01 X60.8177 Y41.2966 F2500.00
G01 X61.0070 Y41.1809 F2500.00
G01 X61.1517 Y41.1277 F2500.00
G01 X61.1959 Y41.1546 F2500.00
G01 X61.1959 Y41.5427 F2500.00
G01 X61.1572 Y41.5612 F2500.00
G01 X61.0962 Y41.5979 F2500.00
G01 X61.0401 Y41.6396 F2500.00
G01 X60.9873 Y41.6873 F2500.00
G01 X60.9396 Y41.7401 F2500.00
G01 X60.8979 Y41.7962 F2500.00
G01 X60.8612 Y41.8572 F2500.00
G01 X60.8427 Y41.8959 F2500.00
G00 Z1.0000
G00 X60.8250 Y43.4750
G01 F400.00
G01 Z-0.0400
G01 F2500.00
G01 X62.1750 Y43.4750 F2500.00
G01 X62.1823 Y43.4755 F2500.00
G01 X62.1883 Y43.4768 F2500.00
G01 X62.1953 Y43.4793 F2500.00
G01 X62.2017 Y43.4828 F2500.00
G01 X62.2077 Y43.4871 F2500.00
G01 X62.2129 Y43.4923 F2500.00
G01 X62.2172 Y43.4983 F2500.00
G01 X62.2212 Y43.5059 F2500.00
G01 X62.2235 Y43.5129 F2500.00
G01 X62.2248 Y43.5201 F2500.00
G01 X62.2250 Y43.8959 F2500.00
G01 X63.1012 Y43.8959 F2500.00
G01 X63.1322 Y43.8976 F2500.00
G01 X63.1593 Y43.9017 F2500.00
G01 X63.1859 Y43.9083 F2500.00
G01 X63.2164 Y43.9190 F2500.00
G01 X63.2434 Y43.9318 F2500.00
G01 X63.2690 Y43.9471 F2500.00
G01 X63.2948 Y43.9665 F2500.00
G01 X63.3151 Y43.9849 F2500.00
G01 X63.7308 Y44.4007 F2500.00
G01 X63.7823 Y44.3823 F2500.00
G01 X63.8513 Y44.3649 F2500.00
G01 X63.9241 Y44.3539 F2500.00
G01 X64.0000 Y44.3500 F2500.00
G01 X64.0711 Y44.3534 F2500.00
G01 X64.1463 Y44.3644 F2500.00
G01 X64.2177 Y44.3823 F2500.00
G01 X64.2870 Y44.4071 F2500.00
G01 X64.3525 Y44.4380 F2500.00
G01 X64.4167 Y44.4764 F2500.00
G01 X64.4758 Y44.5202 F2500.00
G01 X64.5303 Y44.5697 F2500.00
G01 X64.5798 Y44.6242 F2500.00
G01 X64.6236 Y44.6833 F2500.00
G01 X64.6614 Y44.7465 F2500.00
G01 X64.6929 Y44.8130 F2500.00
G01 X64.7177 Y44.8823 F2500.00
G01 X64.7356 Y44.9537 F2500.00
G01 X64.7464 Y45.0265 F2500.00
G01 X64.7500 Y45.1000 F2500.00
G01 X64.7464 Y45.1735 F2500.00
G01 X64.7356 Y45.2463 F2500.00
G01 X64.7177 Y45.3177 F2500.00
G01 X64.6929 Y45.3870 F2500.00
G01 X64.6620 Y45.4525 F2500.00
G01 X64.6236 Y45.5167 F2500.00
G01 X64.5798 Y45.5758 F2500.00
G01 X64.5303 Y45.6303 F2500.00
G01 X64.4758 Y45.6798 F2500.00
G01 X64.4167 Y45.7236 F2500.00
G01 X64.3535 Y45.7614 F2500.00
G01 X64.2870 Y45.7929 F2500.00
G01 X64.2177 Y45.8177 F2500.00
G01 X64.1463 Y45.8356 F2500.00
G01 X64.0735 Y45.8464 F2500.00
G01 X64.0000 Y45.8500 F2500.00
G01 X63.9265 Y45.8464 F2500.00
G01 X63.8537 Y45.8356 F2500.00
G01 X63.7823 Y45.8177 F2500.00
G01 X63.7130 Y45.7929 F2500.00
G01 X63.6454 Y45.7608 F2500.00
G01 X63.5833 Y45.7236 F2500.00
G01 X63.5242 Y45.6798 F2500.00
G01 X63.4697 Y45.6303 F2500.00
G01 X63.4218 Y45.5777 F2500.00
G01 X63.3764 Y45.5167 F2500.00
G01 X63.3398 Y45.4557 F2500.00
G01 X63.3062 Y45.3847 F2500.00
G01 X63.2823 Y45.3177 F2500.00
G01 X63.2644 Y45.2463 F2500.00
G01 X63.2536 Y45.1735 F2500.00
G01 X63.2500 Y45.1000 F2500.00
G01 X63.2536 Y45.0265 F2500.00
G01 X63.2644 Y44.9537 F2500.00
G01 X63.2823 Y44.8823 F2500.00
G01 X63.3007 Y44.8308 F2500.00
G01 X62.9740 Y44.5041 F2500.00
G01 X62.2250 Y44.5041 F2500.00
G01 X62.2248 Y44.8799 F2500.00
G01 X62.2235 Y44.8871 F2500.00
G01 X62.2207 Y44.8953 F2500.00
G01 X62.2172 Y44.9017 F2500.00
G01 X62.2120 Y44.9086 F2500.00
G01 X62.2058 Y44.9144 F2500.00
G01 X62.1996 Y44.9185 F2500.00
G01 X62.1918 Y44.9221 F2500.00
G01 X62.1848 Y44.9240 F2500.00
G01 X62.1750 Y44.9250 F2500.00
G01 X60.8250 Y44.9250 F2500.00
G01 X60.8189 Y44.9246 F2500.00
G01 X60.8129 Y44.9235 F2500.00
G01 X60.8070 Y44.9216 F2500.00
G01 X60.8025 Y44.9197 F2500.00
G01 X60.7962 Y44.9159 F2500.00
G01 X60.7914 Y44.9120 F2500.00
G01 X60.7863 Y44.9067 F2500.00
G01 X60.7828 Y44.9017 F2500.00
G01 X60.7798 Y44.8964 F2500.00
G01 X60.7772 Y44.8895 F2500.00
G01 X60.7757 Y44.8835 F2500.00
G01 X60.7750 Y44.8762 F2500.00
G01 X60.7750 Y43.5238 F2500.00
G01 X60.7762 Y43.5140 F2500.00
G01 X60.7793 Y43.5047 F2500.00
G01 X60.7841 Y43.4962 F2500.00
G01 X60.7905 Y43.4888 F2500.00
G01 X60.7983 Y43.4828 F2500.00
G01 X60.8059 Y43.4788 F2500.00
G01 X60.8152 Y43.4760 F2500.00
G01 X60.8250 Y43.4750 F2500.00
G00 Z1.0000
G00 X59.8829 Y45.5400
G01 F400.00
G01 Z-0.0400
G01 F2500.00
G01 X59.8829 Y29.8600 F2500.00
G01 X59.8841 Y29.8402 F2500.00
G01 X59.8863 Y29.8255 F2500.00
G01 X59.8906 Y29.8086 F2500.00
G01 X59.8974 Y29.7900 F2500.00
G01 X59.9038 Y29.7765 F2500.00
G01 X59.9115 Y29.7637 F2500.00
G01 X59.9231 Y29.7477 F2500.00
G01 X59.9366 Y29.7331 F2500.00
G01 X59.9477 Y29.7231 F2500.00
G01 X59.9596 Y29.7142 F2500.00
G01 X59.9776 Y29.7033 F2500.00
G01 X59.9945 Y29.6955 F2500.00
G01 X60.0086 Y29.6906 F2500.00
G01 X60.0231 Y29.6869 F2500.00
G01 X60.0426 Y29.6838 F2500.00
G01 X60.0600 Y29.6829 F2500.00
G01 X81.8350 Y29.6829 F2500.00
G01 X81.8548 Y29.6841 F2500.00
G01 X81.8695 Y29.6863 F2500.00
G01 X81.8840 Y29.6899 F2500.00
G01 X81.9027 Y29.6964 F2500.00
G01 X81.9195 Y29.7044 F2500.00
G01 X81.9334 Y29.7128 F2500.00
G01 X81.9473 Y29.7231 F2500.00
G01 X81.9602 Y29.7348 F2500.00
G01 X81.9719 Y29.7477 F2500.00
G01 X81.9822 Y29.7616 F2500.00
G01 X81.9911 Y29.7765 F2500.00
G01 X81.9986 Y29.7922 F2500.00
G01 X82.0037 Y29.8063 F2500.00
G01 X82.0091 Y29.8279 F2500.00
G01 X82.0113 Y29.8439 F2500.00
G01 X82.0120 Y29.8625 F2500.00
G01 X82.0112 Y29.8774 F2500.00
G01 X82.0086 Y29.8945 F2500.00
G01 X82.0044 Y29.9114 F2500.00
G01 X81.9986 Y29.9278 F2500.00
G01 X81.9911 Y29.9435 F2500.00
G01 X81.9808 Y29.9604 F2500.00
G01 X81.9719 Y29.9723 F2500.00
G01 X81.9619 Y29.9834 F2500.00
G01 X81.9482 Y29.9961 F2500.00
G01 X81.9334 Y30.0072 F2500.00
G01 X81.9206 Y30.0149 F2500.00
G01 X81.8694 Y30.0424 F2500.00
G01 X81.7996 Y30.0996 F2500.00
G01 X81.7424 Y30.1694 F2500.00
G01 X81.6999 Y30.2489 F2500.00
G01 X81.6954 Y30.2636 F2500.00
G01 X81.6904 Y30.2776 F2500.00
G01 X81.6825 Y30.2945 F2500.00
G01 X81.6722 Y30.3114 F2500.00
G01 X81.6632 Y30.3233 F2500.00
G01 X81.6524 Y30.3353 F2500.00
G01 X81.6367 Y30.3494 F2500.00
G01 X81.6247 Y30.3582 F2500.00
G01 X81.6098 Y30.3672 F2500.00
G01 X81.5918 Y30.3755 F2500.00
G01 X81.5777 Y30.3804 F2500.00
G01 X81.5621 Y30.3844 F2500.00
G01 X81.5437 Y30.3872 F2500.00
G01 X81.5263 Y30.3881 F2500.00
G01 X81.5026 Y30.3880 F2500.00
G01 X81.4889 Y30.3874 F2500.00
G01 X81.4602 Y30.3846 F2500.00
G01 X81.3206 Y30.3984 F2500.00
G01 X81.1864 Y30.4391 F2500.00
G01 X81.0627 Y30.5052 F2500.00
G01 X80.9543 Y30.5941 F2500.00
G01 X80.9367 Y30.6155 F2500.00
G01 X80.9259 Y30.6275 F2500.00
G01 X78.6507 Y32.9026 F2500.00
G01 X78.6388 Y32.9135 F2500.00
G01 X78.6174 Y32.9311 F2500.00
G01 X78.5284 Y33.0395 F2500.00
G01 X78.4623 Y33.1632 F2500.00
G01 X78.4216 Y33.2974 F2500.00
G01 X78.4079 Y33.4369 F2500.00
G01 X78.4106 Y33.4644 F2500.00
G01 X78.4113 Y33.4806 F2500.00
G01 X78.4113 Y38.0939 F2500.00
G01 X78.4106 Y38.1101 F2500.00
G01 X78.4074 Y38.1309 F2500.00
G01 X78.4037 Y38.1453 F2500.00
G01 X78.3987 Y38.1594 F2500.00
G01 X78.3904 Y38.1774 F2500.00
G01 X78.3808 Y38.1933 F2500.00
G01 X78.3711 Y38.2063 F2500.00
G01 X78.3603 Y38.2183 F2500.00
G01 X78.2238 Y38.3548 F2500.00
G01 X78.0971 Y38.5444 F2500.00
G01 X78.0098 Y38.7551 F2500.00
G01 X77.9653 Y38.9789 F2500.00
G01 X77.9653 Y39.2070 F2500.00
G01 X78.0098 Y39.4307 F2500.00
G01 X78.0971 Y39.6414 F2500.00
G01 X78.2238 Y39.8310 F2500.00
G01 X78.3851 Y39.9923 F2500.00
G01 X78.5748 Y40.1191 F2500.00
G01 X78.7855 Y40.2063 F2500.00
G01 X79.0092 Y40.2508 F2500.00
G01 X79.2373 Y40.2508 F2500.00
G01 X79.4610 Y40.2063 F2500.00
G01 X79.6717 Y40.1191 F2500.00
G01 X79.8614 Y39.9923 F2500.00
G01 X80.0227 Y39.8310 F2500.00
G01 X80.1494 Y39.6414 F2500.00
G01 X80.2367 Y39.4307 F2500.00
G01 X80.2812 Y39.2070 F2500.00
G01 X80.2812 Y38.9789 F2500.00
G01 X80.2367 Y38.7551 F2500.00
G01 X80.1494 Y38.5444 F2500.00
G01 X80.0227 Y38.3548 F2500.00
G01 X79.8870 Y38.2191 F2500.00
G01 X79.8739 Y38.2043 F2500.00
G01 X79.8650 Y38.1923 F2500.00
G01 X79.8573 Y38.1795 F2500.00
G01 X79.8491 Y38.1628 F2500.00
G01 X79.8428 Y38.1453 F2500.00
G01 X79.8382 Y38.1261 F2500.00
G01 X79.8360 Y38.1113 F2500.00
G01 X79.8352 Y38.0939 F2500.00
G01 X79.8352 Y37.2003 F2500.00
G01 X79.8360 Y37.1842 F2500.00
G01 X79.8382 Y37.1694 F2500.00
G01 X79.8436 Y37.1478 F2500.00
G01 X79.8487 Y37.1338 F2500.00
G01 X79.8561 Y37.1181 F2500.00
G01 X79.8650 Y37.1032 F2500.00
G01 X79.8746 Y37.0902 F2500.00
G01 X79.8870 Y37.0763 F2500.00
G01 X79.9018 Y37.0632 F2500.00
G01 X79.9139 Y37.0543 F2500.00
G01 X79.9266 Y37.0466 F2500.00
G01 X79.9445 Y37.0379 F2500.00
G01 X79.9608 Y37.0321 F2500.00
G01 X79.9801 Y37.0275 F2500.00
G01 X79.9949 Y37.0253 F2500.00
G01 X80.0098 Y37.0245 F2500.00
G01 X80.0284 Y37.0252 F2500.00
G01 X80.0492 Y37.0284 F2500.00
G01 X80.0636 Y37.0321 F2500.00
G01 X80.0789 Y37.0375 F2500.00
G01 X80.2622 Y37.1134 F2500.00
G01 X80.4860 Y37.1579 F2500.00
G01 X80.7140 Y37.1579 F2500.00
G01 X80.9378 Y37.1134 F2500.00
G01 X81.1485 Y37.0261 F2500.00
G01 X81.3381 Y36.8994 F2500.00
G01 X81.4994 Y36.7381 F2500.00
G01 X81.6261 Y36.5485 F2500.00
G01 X81.7134 Y36.3378 F2500.00
G01 X81.7501 Y36.1535 F2500.00
G01 X81.7540 Y36.1379 F2500.00
G01 X81.7602 Y36.1203 F2500.00
G01 X81.7676 Y36.1046 F2500.00
G01 X81.7765 Y36.0897 F2500.00
G01 X81.7877 Y36.0748 F2500.00
G01 X81.7985 Y36.0629 F2500.00
G01 X85.2725 Y32.5889 F2500.00
G01 X85.2845 Y32.5780 F2500.00
G01 X85.3059 Y32.5604 F2500.00
G01 X85.3948 Y32.4520 F2500.00
G01 X85.4609 Y32.3284 F2500.00
G01 X85.5016 Y32.1942 F2500.00
G01 X85.5166 Y32.0425 F2500.00
G01 X85.5189 Y32.0265 F2500.00
G01 X85.5233 Y32.0084 F2500.00
G01 X85.5283 Y31.9944 F2500.00
G01 X85.5378 Y31.9742 F2500.00
G01 X85.5456 Y31.9615 F2500.00
G01 X85.5544 Y31.9494 F2500.00
G01 X85.5667 Y31.9355 F2500.00
G01 X85.6748 Y31.8274 F2500.00
G01 X85.6867 Y31.8165 F2500.00
G01 X85.7016 Y31.8054 F2500.00
G01 X85.7187 Y31.7954 F2500.00
G01 X85.7322 Y31.7890 F2500.00
G01 X85.7463 Y31.7840 F2500.00
G01 X85.7643 Y31.7792 F2500.00
G01 X85.7826 Y31.7764 F2500.00
G01 X85.8000 Y31.7756 F2500.00
G01 X85.8174 Y31.7764 F2500.00
G01 X85.8345 Y31.7790 F2500.00
G01 X85.8514 Y31.7832 F2500.00
G01 X85.8678 Y31.7890 F2500.00
G01 X85.8835 Y31.7965 F2500.00
G01 X85.9004 Y31.8068 F2500.00
G01 X85.9123 Y31.8157 F2500.00
G01 X85.9252 Y31.8274 F2500.00
G01 X86.0362 Y31.9384 F2500.00
G01 X86.0471 Y31.9504 F2500.00
G01 X86.0582 Y31.9653 F2500.00
G01 X86.0672 Y31.9802 F2500.00
G01 X86.0746 Y31.9959 F2500.00
G01 X86.0797 Y32.0099 F2500.00
G01 X86.0851 Y32.0315 F2500.00
G01 X86.0872 Y32.0463 F2500.00
G01 X86.0881 Y32.0636 F2500.00
G01 X86.0880 Y32.7023 F2500.00
G01 X86.0872 Y32.7184 F2500.00
G01 X86.0851 Y32.7332 F2500.00
G01 X86.0804 Y32.7524 F2500.00
G01 X86.0746 Y32.7688 F2500.00
G01 X86.0683 Y32.7823 F2500.00
G01 X86.0575 Y32.8004 F2500.00
G01 X86.0479 Y32.8134 F2500.00
G01 X86.0371 Y32.8253 F2500.00
G01 X85.9006 Y32.9619 F2500.00
G01 X85.7739 Y33.1515 F2500.00
G01 X85.6866 Y33.3622 F2500.00
G01 X85.6421 Y33.5860 F2500.00
G01 X85.6421 Y33.8140 F2500.00
G01 X85.6866 Y34.0378 F2500.00
G01 X85.7739 Y34.2485 F2500.00
G01 X85.9006 Y34.4381 F2500.00
G01 X86.0619 Y34.5994 F2500.00
G01 X86.2515 Y34.7261 F2500.00
G01 X86.4622 Y34.8134 F2500.00
G01 X86.6860 Y34.8579 F2500.00
G01 X86.8778 Y34.8579 F2500.00
G01 X86.8927 Y34.8586 F2500.00
G01 X86.9111 Y34.8611 F2500.00
G01 X86.9268 Y34.8649 F2500.00
G01 X86.9478 Y34.8724 F2500.00
G01 X86.9612 Y34.8788 F2500.00
G01 X86.9761 Y34.8878 F2500.00
G01 X86.9901 Y34.8981 F2500.00
G01 X87.0030 Y34.9098 F2500.00
G01 X87.1880 Y35.0948 F2500.00
G01 X87.1988 Y35.1068 F2500.00
G01 X87.2077 Y35.1188 F2500.00
G01 X87.2192 Y35.1379 F2500.00
G01 X87.2255 Y35.1514 F2500.00
G01 X87.2306 Y35.1654 F2500.00
G01 X87.2351 Y35.1822 F2500.00
G01 X87.2381 Y35.2018 F2500.00
G01 X87.2390 Y35.2192 F2500.00
G01 X87.2390 Y36.8663 F2500.00
G01 X87.2413 Y36.8901 F2500.00
G01 X87.2421 Y36.9062 F2500.00
G01 X87.2421 Y37.1734 F2500.00
G01 X87.2522 Y37.2677 F2500.00
G01 X87.2787 Y37.3530 F2500.00
G01 X87.3213 Y37.4314 F2500.00
G01 X87.3823 Y37.5049 F2500.00
G01 X87.6751 Y37.7977 F2500.00
G01 X87.7489 Y37.8572 F2500.00
G01 X87.8279 Y37.8987 F2500.00
G01 X87.9135 Y37.9241 F2500.00
G01 X88.0087 Y37.9329 F2500.00
G01 X89.5984 Y37.9329 F2500.00
G01 X89.6927 Y37.9228 F2500.00
G01 X89.7780 Y37.8963 F2500.00
G01 X89.8564 Y37.8537 F2500.00
G01 X89.9299 Y37.7927 F2500.00
G01 X90.2227 Y37.4999 F2500.00
G01 X90.2822 Y37.4261 F2500.00
G01 X90.3237 Y37.3471 F2500.00
G01 X90.3491 Y37.2615 F2500.00
G01 X90.3579 Y37.1663 F2500.00
G01 X90.3579 Y36.9062 F2500.00
G01 X90.3587 Y36.8901 F2500.00
G01 X90.3610 Y36.8663 F2500.00
G01 X90.3610 Y34.8837 F2500.00
G01 X90.3513 Y34.7852 F2500.00
G01 X90.3251 Y34.6989 F2500.00
G01 X90.2826 Y34.6194 F2500.00
G01 X90.2254 Y34.5496 F2500.00
G01 X90.1556 Y34.4924 F2500.00
G01 X90.0761 Y34.4499 F2500.00
G01 X89.9898 Y34.4237 F2500.00
G01 X89.8913 Y34.4140 F2500.00
G01 X88.5917 Y34.4139 F2500.00
G01 X88.5768 Y34.4131 F2500.00
G01 X88.5596 Y34.4106 F2500.00
G01 X88.5428 Y34.4064 F2500.00
G01 X88.5264 Y34.4005 F2500.00
G01 X88.5107 Y34.3931 F2500.00
G01 X88.4958 Y34.3842 F2500.00
G01 X88.4818 Y34.3738 F2500.00
G01 X88.4698 Y34.3630 F2500.00
G01 X88.0098 Y33.9030 F2500.00
G01 X87.9966 Y33.8882 F2500.00
G01 X87.9878 Y33.8761 F2500.00
G01 X87.9801 Y33.8634 F2500.00
G01 X87.9714 Y33.8455 F2500.00
G01 X87.9656 Y33.8292 F2500.00
G01 X87.9613 Y33.8123 F2500.00
G01 X87.9587 Y33.7939 F2500.00
G01 X87.9579 Y33.7778 F2500.00
G01 X87.9579 Y33.5860 F2500.00
G01 X87.9134 Y33.3622 F2500.00
G01 X87.8261 Y33.1515 F2500.00
G01 X87.6994 Y32.9619 F2500.00
G01 X87.5638 Y32.8262 F2500.00
G01 X87.5537 Y32.8152 F2500.00
G01 X87.5405 Y32.7973 F2500.00
G01 X87.5328 Y32.7845 F2500.00
G01 X87.5254 Y32.7688 F2500.00
G01 X87.5196 Y32.7524 F2500.00
G01 X87.5153 Y32.7356 F2500.00
G01 X87.5128 Y32.7184 F2500.00
G01 X87.5120 Y32.7023 F2500.00
G01 X87.5119 Y32.0636 F2500.00
G01 X87.5129 Y32.0450 F2500.00
G01 X87.5153 Y32.0291 F2500.00
G01 X87.5189 Y32.0146 F2500.00
G01 X87.5254 Y31.9959 F2500.00
G01 X87.5341 Y31.9780 F2500.00
G01 X87.5418 Y31.9652 F2500.00
G01 X87.5514 Y31.9523 F2500.00
G01 X87.5638 Y31.9384 F2500.00
G01 X87.6815 Y31.8207 F2500.00
G01 X87.6937 Y31.8096 F2500.00
G01 X87.7091 Y31.7982 F2500.00
G01 X87.7244 Y31.7892 F2500.00
G01 X87.7406 Y31.7817 F2500.00
G01 X87.7574 Y31.7759 F2500.00
G01 X87.7748 Y31.7718 F2500.00
G01 X87.7924 Y31.7695 F2500.00
G01 X87.8103 Y31.7689 F2500.00
G01 X87.8268 Y31.7700 F2500.00
G01 X87.8456 Y31.7732 F2500.00
G01 X87.8651 Y31.7788 F2500.00
G01 X87.8794 Y31.7845 F2500.00
G01 X87.8930 Y31.7914 F2500.00
G01 X87.9112 Y31.8030 F2500.00
G01 X87.9241 Y31.8134 F2500.00
G01 X87.9360 Y31.8250 F2500.00
G01 X88.0471 Y31.9454 F2500.00
G01 X88.2265 Y32.0761 F2500.00
G01 X88.4326 Y32.1714 F2500.00
G01 X88.4460 Y32.1754 F2500.00
G01 X88.4959 Y32.1449 F2500.00
G01 X88.4959 Y31.7573 F2500.00
G01 X88.4572 Y31.7388 F2500.00
G01 X88.3982 Y31.7035 F2500.00
G01 X88.3391 Y31.6596 F2500.00
G01 X88.2873 Y31.6127 F2500.00
G01 X88.2412 Y31.5618 F2500.00
G01 X88.1965 Y31.5018 F2500.00
G01 X88.1606 Y31.4418 F2500.00
G01 X88.1312 Y31.3797 F2500.00
G01 X88.1062 Y31.3105 F2500.00
G01 X88.0885 Y31.2390 F2500.00
G01 X88.0785 Y31.1711 F2500.00
G01 X88.0750 Y31.1012 F2500.00
G01 X88.0788 Y31.0265 F2500.00
G01 X88.0889 Y30.9586 F2500.00
G01 X88.1056 Y30.8919 F2500.00
G01 X88.1302 Y30.8226 F2500.00
G01 X88.1618 Y30.7561 F2500.00
G01 X88.1972 Y30.6972 F2500.00
G01 X88.2381 Y30.6420 F2500.00
G01 X88.2873 Y30.5873 F2500.00
G01 X88.3420 Y30.5381 F2500.00
G01 X88.3972 Y30.4972 F2500.00
G01 X88.4582 Y30.4606 F2500.00
G01 X88.5226 Y30.4302 F2500.00
G01 X88.5895 Y30.4062 F2500.00
G01 X88.6586 Y30.3889 F2500.00
G01 X88.7265 Y30.3788 F2500.00
G01 X88.8000 Y30.3750 F2500.00
G01 X88.8686 Y30.3783 F2500.00
G01 X88.9438 Y30.3895 F2500.00
G01 X89.0128 Y30.4070 F2500.00
G01 X89.0774 Y30.4302 F2500.00
G01 X89.1396 Y30.4595 F2500.00
G01 X89.2028 Y30.4972 F2500.00
G01 X89.2590 Y30.5388 F2500.00
G01 X89.3127 Y30.5873 F2500.00
G01 X89.3612 Y30.6410 F2500.00
G01 X89.4035 Y30.6982 F2500.00
G01 X89.4388 Y30.7572 F2500.00
G01 X89.4573 Y30.7959 F2500.00
G01 X89.8454 Y30.7959 F2500.00
G01 X89.8723 Y30.7517 F2500.00
G01 X89.8191 Y30.6070 F2500.00
G01 X89.7034 Y30.4177 F2500.00
G01 X89.5529 Y30.2546 F2500.00
G01 X89.3735 Y30.1239 F2500.00
G01 X89.1666 Y30.0283 F2500.00
G01 X89.1537 Y30.0236 F2500.00
G01 X89.1369 Y30.0156 F2500.00
G01 X89.1211 Y30.0058 F2500.00
G01 X89.1091 Y29.9969 F2500.00
G01 X89.0980 Y29.9869 F2500.00
G01 X89.0846 Y29.9723 F2500.00
G01 X89.0742 Y29.9584 F2500.00
G01 X89.0653 Y29.9435 F2500.00
G01 X89.0578 Y29.9278 F2500.00
G01 X89.0520 Y29.9114 F2500.00
G01 X89.0478 Y29.8945 F2500.00
G01 X89.0452 Y29.8774 F2500.00
G01 X89.0444 Y29.8600 F2500.00
G01 X89.0452 Y29.8427 F2500.00
G01 X89.0478 Y29.8255 F2500.00
G01 X89.0520 Y29.8086 F2500.00
G01 X89.0578 Y29.7922 F2500.00
G01 X89.0653 Y29.7765 F2500.00
G01 X89.0742 Y29.7616 F2500.00
G01 X89.0845 Y29.7477 F2500.00
G01 X89.0962 Y29.7348 F2500.00
G01 X89.1091 Y29.7231 F2500.00
G01 X89.1230 Y29.7128 F2500.00
G01 X89.1380 Y29.7038 F2500.00
G01 X89.1514 Y29.6974 F2500.00
G01 X89.1700 Y29.6906 F2500.00
G01 X89.1893 Y29.6859 F2500.00
G01 X89.2041 Y29.6838 F2500.00
G01 X89.2202 Y29.6830 F2500.00
G01 X90.7412 Y29.6830 F2500.00
G01 X90.7574 Y29.6838 F2500.00
G01 X90.7721 Y29.6859 F2500.00
G01 X90.7914 Y29.6906 F2500.00
G01 X90.8100 Y29.6974 F2500.00
G01 X90.8235 Y29.7038 F2500.00
G01 X90.8363 Y29.7115 F2500.00
G01 X90.8523 Y29.7231 F2500.00
G01 X90.8669 Y29.7366 F2500.00
G01 X90.8769 Y29.7477 F2500.00
G01 X90.8858 Y29.7596 F2500.00
G01 X90.8967 Y29.7776 F2500.00
G01 X90.9045 Y29.7945 F2500.00
G01 X90.9094 Y29.8086 F2500.00
G01 X90.9131 Y29.8231 F2500.00
G01 X90.9162 Y29.8426 F2500.00
G01 X90.9171 Y29.8600 F2500.00
G01 X90.9171 Y45.5400 F2500.00
G01 X90.9159 Y45.5598 F2500.00
G01 X90.9137 Y45.5745 F2500.00
G01 X90.9094 Y45.5914 F2500.00
G01 X90.9026 Y45.6100 F2500.00
G01 X90.8962 Y45.6235 F2500.00
G01 X90.8885 Y45.6363 F2500.00
G01 X90.8769 Y45.6523 F2500.00
G01 X90.8634 Y45.6669 F2500.00
G01 X90.8523 Y45.6769 F2500.00
G01 X90.8404 Y45.6858 F2500.00
G01 X90.8224 Y45.6967 F2500.00
G01 X90.8055 Y45.7045 F2500.00
G01 X90.7914 Y45.7094 F2500.00
G01 X90.7769 Y45.7131 F2500.00
G01 X90.7574 Y45.7162 F2500.00
G01 X90.7400 Y45.7171 F2500.00
G01 X65.2627 Y45.7171 F2500.00
G01 X65.2442 Y45.7161 F2500.00
G01 X65.2282 Y45.7137 F2500.00
G01 X65.2137 Y45.7101 F2500.00
G01 X65.1950 Y45.7036 F2500.00
G01 X65.1771 Y45.6949 F2500.00
G01 X65.1644 Y45.6872 F2500.00
G01 X65.1504 Y45.6769 F2500.00
G01 X65.1358 Y45.6634 F2500.00
G01 X65.1259 Y45.6523 F2500.00
G01 X65.1155 Y45.6384 F2500.00
G01 X65.1066 Y45.6235 F2500.00
G01 X65.1002 Y45.6100 F2500.00
G01 X65.0926 Y45.5890 F2500.00
G01 X65.0891 Y45.5745 F2500.00
G01 X65.0868 Y45.5598 F2500.00
G01 X65.0857 Y45.5425 F2500.00
G01 X65.0865 Y45.5226 F2500.00
G01 X65.0889 Y45.5067 F2500.00
G01 X65.0941 Y45.4863 F2500.00
G01 X65.0987 Y45.4734 F2500.00
G01 X65.1134 Y45.4378 F2500.00
G01 X65.1579 Y45.2140 F2500.00
G01 X65.1579 Y44.9860 F2500.00
G01 X65.1134 Y44.7622 F2500.00
G01 X65.0262 Y44.5515 F2500.00
G01 X64.8994 Y44.3619 F2500.00
G01 X64.7381 Y44.2006 F2500.00
G01 X64.5485 Y44.0739 F2500.00
G01 X64.3378 Y43.9866 F2500.00
G01 X64.1140 Y43.9421 F2500.00
G01 X63.9222 Y43.9421 F2500.00
G01 X63.9061 Y43.9413 F2500.00
G01 X63.8877 Y43.9387 F2500.00
G01 X63.8708 Y43.9344 F2500.00
G01 X63.8545 Y43.9286 F2500.00
G01 X63.8388 Y43.9212 F2500.00
G01 X63.8219 Y43.9108 F2500.00
G01 X63.8099 Y43.9019 F2500.00
G01 X63.7979 Y43.8911 F2500.00
G01 X63.6334 Y43.7266 F2500.00
G01 X63.6234 Y43.7155 F2500.00
G01 X63.6059 Y43.6941 F2500.00
G01 X63.4974 Y43.6052 F2500.00
G01 X63.3738 Y43.5391 F2500.00
G01 X63.2396 Y43.4984 F2500.00
G01 X63.1000 Y43.4846 F2500.00
G01 X63.0725 Y43.4873 F2500.00
G01 X63.0563 Y43.4881 F2500.00
G01 X62.7737 Y43.4881 F2500.00
G01 X62.7551 Y43.4871 F2500.00
G01 X62.7391 Y43.4847 F2500.00
G01 X62.7246 Y43.4811 F2500.00
G01 X62.7059 Y43.4746 F2500.00
G01 X62.6881 Y43.4659 F2500.00
G01 X62.6753 Y43.4582 F2500.00
G01 X62.6623 Y43.4486 F2500.00
G01 X62.6485 Y43.4362 F2500.00
G01 X62.6368 Y43.4233 F2500.00
G01 X62.6264 Y43.4094 F2500.00
G01 X62.6187 Y43.3966 F2500.00
G01 X62.6096 Y43.3776 F2500.00
G01 X62.6046 Y43.3636 F2500.00
G01 X62.6001 Y43.3489 F2500.00
G01 X62.5576 Y43.2694 F2500.00
G01 X62.5004 Y43.1996 F2500.00
G01 X62.4182 Y43.1321 F2500.00
G01 X62.4069 Y43.1217 F2500.00
G01 X62.3966 Y43.1104 F2500.00
G01 X62.3851 Y43.0951 F2500.00
G01 X62.3754 Y43.0787 F2500.00
G01 X62.3671 Y43.0601 F2500.00
G01 X62.3616 Y43.0431 F2500.00
G01 X62.3582 Y43.0281 F2500.00
G01 X62.3562 Y43.0129 F2500.00
G01 X62.3554 Y42.9926 F2500.00
G01 X62.3571 Y42.9723 F2500.00
G01 X62.3599 Y42.9572 F2500.00
G01 X62.3640 Y42.9424 F2500.00
G01 X62.3719 Y42.9223 F2500.00
G01 X62.3795 Y42.9076 F2500.00
G01 X62.3886 Y42.8937 F2500.00
G01 X62.4761 Y42.7735 F2500.00
G01 X62.5714 Y42.5674 F2500.00
G01 X62.5754 Y42.5540 F2500.00
G01 X62.5449 Y42.5041 F2500.00
G01 X62.1573 Y42.5041 F2500.00
G01 X62.1388 Y42.5428 F2500.00
G01 X62.1035 Y42.6018 F2500.00
G01 X62.0596 Y42.6609 F2500.00
G01 X62.0127 Y42.7127 F2500.00
G01 X61.9618 Y42.7588 F2500.00
G01 X61.9018 Y42.8035 F2500.00
G01 X61.8418 Y42.8394 F2500.00
G01 X61.7797 Y42.8688 F2500.00
G01 X61.7105 Y42.8938 F2500.00
G01 X61.6414 Y42.9111 F2500.00
G01 X61.5735 Y42.9212 F2500.00
G01 X61.5000 Y42.9250 F2500.00
G01 X61.4265 Y42.9212 F2500.00
G01 X61.3586 Y42.9111 F2500.00
G01 X61.2895 Y42.8938 F2500.00
G01 X61.2203 Y42.8688 F2500.00
G01 X61.1582 Y42.8394 F2500.00
G01 X61.0982 Y42.8035 F2500.00
G01 X61.0382 Y42.7588 F2500.00
G01 X60.9873 Y42.7127 F2500.00
G01 X60.9404 Y42.6609 F2500.00
G01 X60.8965 Y42.6018 F2500.00
G01 X60.8612 Y42.5428 F2500.00
G01 X60.8427 Y42.5041 F2500.00
G01 X60.4551 Y42.5041 F2500.00
G01 X60.4246 Y42.5540 F2500.00
G01 X60.4286 Y42.5674 F2500.00
G01 X60.5239 Y42.7735 F2500.00
G01 X60.6114 Y42.8937 F2500.00
G01 X60.6205 Y42.9076 F2500.00
G01 X60.6281 Y42.9223 F2500.00
G01 X60.6353 Y42.9400 F2500.00
G01 X60.6406 Y42.9597 F2500.00
G01 X60.6432 Y42.9748 F2500.00
G01 X60.6444 Y42.9901 F2500.00
G01 X60.6442 Y43.0079 F2500.00
G01 X60.6438 Y43.0129 F2500.00
G01 X60.6413 Y43.0306 F2500.00
G01 X60.6378 Y43.0455 F2500.00
G01 X60.6320 Y43.0624 F2500.00
G01 X60.6234 Y43.0809 F2500.00
G01 X60.6156 Y43.0941 F2500.00
G01 X60.6058 Y43.1075 F2500.00
G01 X60.5931 Y43.1217 F2500.00
G01 X60.5809 Y43.1329 F2500.00
G01 X60.4996 Y43.1996 F2500.00
G01 X60.4424 Y43.2694 F2500.00
G01 X60.3999 Y43.3489 F2500.00
G01 X60.3737 Y43.4352 F2500.00
G01 X60.3640 Y43.5337 F2500.00
G01 X60.3640 Y44.8663 F2500.00
G01 X60.3737 Y44.9648 F2500.00
G01 X60.3999 Y45.0511 F2500.00
G01 X60.4424 Y45.1306 F2500.00
G01 X60.4996 Y45.2004 F2500.00
G01 X60.5694 Y45.2576 F2500.00
G01 X60.6489 Y45.3001 F2500.00
G01 X60.7352 Y45.3263 F2500.00
G01 X60.8337 Y45.3360 F2500.00
G01 X62.1663 Y45.3360 F2500.00
G01 X62.2648 Y45.3263 F2500.00
G01 X62.3511 Y45.3001 F2500.00
G01 X62.4306 Y45.2576 F2500.00
G01 X62.5004 Y45.2004 F2500.00
G01 X62.5365 Y45.1564 F2500.00
G01 X62.5492 Y45.1427 F2500.00
G01 X62.5603 Y45.1328 F2500.00
G01 X62.5722 Y45.1238 F2500.00
G01 X62.5902 Y45.1129 F2500.00
G01 X62.6048 Y45.1061 F2500.00
G01 X62.6212 Y45.1002 F2500.00
G01 X62.6380 Y45.0960 F2500.00
G01 X62.6552 Y45.0934 F2500.00
G01 X62.6726 Y45.0926 F2500.00
G01 X62.6899 Y45.0934 F2500.00
G01 X62.7071 Y45.0960 F2500.00
G01 X62.7228 Y45.0999 F2500.00
G01 X62.7403 Y45.1061 F2500.00
G01 X62.7582 Y45.1147 F2500.00
G01 X62.7710 Y45.1224 F2500.00
G01 X62.7830 Y45.1313 F2500.00
G01 X62.7978 Y45.1444 F2500.00
G01 X62.8110 Y45.1592 F2500.00
G01 X62.8198 Y45.1713 F2500.00
G01 X62.8275 Y45.1840 F2500.00
G01 X62.8362 Y45.2019 F2500.00
G01 X62.8424 Y45.2194 F2500.00
G01 X62.8463 Y45.2351 F2500.00
G01 X62.8866 Y45.4378 F2500.00
G01 X62.9013 Y45.4734 F2500.00
G01 X62.9067 Y45.4886 F2500.00
G01 X62.9109 Y45.5055 F2500.00
G01 X62.9136 Y45.5239 F2500.00
G01 X62.9143 Y45.5400 F2500.00
G01 X62.9135 Y45.5574 F2500.00
G01 X62.9109 Y45.5745 F2500.00
G01 X62.9067 Y45.5914 F2500.00
G01 X62.9008 Y45.6078 F2500.00
G01 X62.8934 Y45.6235 F2500.00
G01 X62.8845 Y45.6384 F2500.00
G01 X62.8733 Y45.6533 F2500.00
G01 X62.8625 Y45.6652 F2500.00
G01 X62.8477 Y45.6784 F2500.00
G01 X62.8356 Y45.6872 F2500.00
G01 X62.8229 Y45.6949 F2500.00
G01 X62.8073 Y45.7026 F2500.00
G01 X62.7887 Y45.7094 F2500.00
G01 X62.7718 Y45.7137 F2500.00
G01 X62.7546 Y45.7162 F2500.00
G01 X62.7385 Y45.7170 F2500.00
G01 X60.0575 Y45.7170 F2500.00
G01 X60.0426 Y45.7162 F2500.00
G01 X60.0255 Y45.7137 F2500.00
G01 X60.0086 Y45.7094 F2500.00
G01 X59.9922 Y45.7036 F2500.00
G01 X59.9765 Y45.6962 F2500.00
G01 X59.9616 Y45.6872 F2500.00
G01 X59.9477 Y45.6769 F2500.00
G01 X59.9348 Y45.6652 F2500.00
G01 X59.9231 Y45.6523 F2500.00
G01 X59.9128 Y45.6384 F2500.00
G01 X59.9038 Y45.6235 F2500.00
G01 X59.8964 Y45.6078 F2500.00
G01 X59.8906 Y45.5914 F2500.00
G01 X59.8863 Y45.5745 F2500.00
G01 X59.8838 Y45.5574 F2500.00
G01 X59.8829 Y45.5400 F2500.00
G00 Z1.0000
G00 X64.1500 Y42.9000
G01 F400.00
G01 Z-0.0400
G01 F2500.00
G01 X64.1500 Y40.6000 F2500.00
G01 X64.1507 Y40.5915 F2500.00
G01 X64.1525 Y40.5843 F2500.00
G01 X64.1559 Y40.5764 F2500.00
G01 X64.1598 Y40.5702 F2500.00
G01 X64.1646 Y40.5646 F2500.00
G01 X64.4655 Y40.2638 F2500.00
G01 X64.4712 Y40.2591 F2500.00
G01 X64.4775 Y40.2553 F2500.00
G01 X64.4843 Y40.2525 F2500.00
G01 X64.4915 Y40.2507 F2500.00
G01 X64.5000 Y40.2500 F2500.00
G01 X66.1000 Y40.2500 F2500.00
G01 X66.1073 Y40.2505 F2500.00
G01 X66.1145 Y40.2522 F2500.00
G01 X66.1203 Y40.2543 F2500.00
G01 X66.1246 Y40.2565 F2500.00
G01 X66.1298 Y40.2598 F2500.00
G01 X66.1345 Y40.2638 F2500.00
G01 X66.4354 Y40.5646 F2500.00
G01 X66.4409 Y40.5712 F2500.00
G01 X66.4447 Y40.5775 F2500.00
G01 X66.4475 Y40.5843 F2500.00
G01 X66.4495 Y40.5927 F2500.00
G01 X66.4500 Y40.6000 F2500.00
G01 X66.4500 Y42.4199 F2500.00
G01 X67.3308 Y43.3007 F2500.00
G01 X67.3823 Y43.2823 F2500.00
G01 X67.4513 Y43.2649 F2500.00
G01 X67.5265 Y43.2536 F2500.00
G01 X67.6000 Y43.2500 F2500.00
G01 X67.6711 Y43.2534 F2500.00
G01 X67.7463 Y43.2644 F2500.00
G01 X67.8200 Y43.2831 F2500.00
G01 X67.8870 Y43.3071 F2500.00
G01 X67.9535 Y43.3386 F2500.00
G01 X68.0187 Y43.3778 F2500.00
G01 X68.0758 Y43.4202 F2500.00
G01 X68.1295 Y43.4688 F2500.00
G01 X68.1813 Y43.5261 F2500.00
G01 X68.2236 Y43.5833 F2500.00
G01 X68.2602 Y43.6443 F2500.00
G01 X68.2929 Y43.7130 F2500.00
G01 X68.3184 Y43.7846 F2500.00
G01 X68.3356 Y43.8537 F2500.00
G01 X68.3461 Y43.9240 F2500.00
G01 X68.3500 Y44.0000 F2500.00
G01 X68.3461 Y44.0759 F2500.00
G01 X68.3356 Y44.1463 F2500.00
G01 X68.3177 Y44.2177 F2500.00
G01 X68.2929 Y44.2870 F2500.00
G01 X68.2614 Y44.3535 F2500.00
G01 X68.2236 Y44.4167 F2500.00
G01 X68.1798 Y44.4758 F2500.00
G01 X68.1303 Y44.5303 F2500.00
G01 X68.0758 Y44.5798 F2500.00
G01 X68.0167 Y44.6236 F2500.00
G01 X67.9535 Y44.6614 F2500.00
G01 X67.8870 Y44.6929 F2500.00
G01 X67.8177 Y44.7177 F2500.00
G01 X67.7463 Y44.7356 F2500.00
G01 X67.6735 Y44.7464 F2500.00
G01 X67.6000 Y44.7500 F2500.00
G01 X67.5265 Y44.7464 F2500.00
G01 X67.4537 Y44.7356 F2500.00
G01 X67.3823 Y44.7177 F2500.00
G01 X67.3130 Y44.6929 F2500.00
G01 X67.2465 Y44.6614 F2500.00
G01 X67.1833 Y44.6236 F2500.00
G01 X67.1242 Y44.5798 F2500.00
G01 X67.0697 Y44.5303 F2500.00
G01 X67.0202 Y44.4758 F2500.00
G01 X66.9764 Y44.4167 F2500.00
G01 X66.9375 Y44.3514 F2500.00
G01 X66.9071 Y44.2870 F2500.00
G01 X66.8823 Y44.2177 F2500.00
G01 X66.8644 Y44.1463 F2500.00
G01 X66.8534 Y44.0711 F2500.00
G01 X66.8500 Y44.0000 F2500.00
G01 X66.8539 Y43.9240 F2500.00
G01 X66.8649 Y43.8513 F2500.00
G01 X66.8823 Y43.7823 F2500.00
G01 X66.9007 Y43.7308 F2500.00
G01 X66.1199 Y42.9500 F2500.00
G01 X64.1988 Y42.9500 F2500.00
G01 X64.1890 Y42.9488 F2500.00
G01 X64.1809 Y42.9462 F2500.00
G01 X64.1722 Y42.9416 F2500.00
G01 X64.1646 Y42.9354 F2500.00
G01 X64.1584 Y42.9278 F2500.00
G01 X64.1538 Y42.9191 F2500.00
G01 X64.1510 Y42.9098 F2500.00
G01 X64.1500 Y42.9000 F2500.00
G00 Z1.0000
G00 X63.8773 Y40.2751
G01 F400.00
G01 Z-0.0400
G01 F2500.00
G01 X64.1701 Y39.9823 F2500.00
G01 X64.2436 Y39.9213 F2500.00
G01 X64.3220 Y39.8787 F2500.00
G01 X64.4073 Y39.8522 F2500.00
G01 X64.5016 Y39.8421 F2500.00
G01 X66.0913 Y39.8421 F2500.00
G01 X66.1865 Y39.8509 F2500.00
G01 X66.2721 Y39.8763 F2500.00
G01 X66.3511 Y39.9178 F2500.00
G01 X66.4249 Y39.9773 F2500.00
G01 X66.7177 Y40.2701 F2500.00
G01 X66.7787 Y40.3436 F2500.00
G01 X66.8213 Y40.4220 F2500.00
G01 X66.8478 Y40.5073 F2500.00
G01 X66.8579 Y40.6016 F2500.00
G01 X66.8579 Y40.8688 F2500.00
G01 X66.8587 Y40.8849 F2500.00
G01 X66.8610 Y40.9087 F2500.00
G01 X66.8610 Y42.1821 F2500.00
G01 X66.8622 Y42.2006 F2500.00
G01 X66.8644 Y42.2154 F2500.00
G01 X66.8680 Y42.2299 F2500.00
G01 X66.8745 Y42.2486 F2500.00
G01 X66.8831 Y42.2664 F2500.00
G01 X66.8908 Y42.2792 F2500.00
G01 X66.8997 Y42.2912 F2500.00
G01 X66.9129 Y42.3060 F2500.00
G01 X67.3970 Y42.7902 F2500.00
G01 X67.4118 Y42.8034 F2500.00
G01 X67.4239 Y42.8122 F2500.00
G01 X67.4377 Y42.8206 F2500.00
G01 X67.4545 Y42.8286 F2500.00
G01 X67.4708 Y42.8344 F2500.00
G01 X67.4877 Y42.8387 F2500.00
G01 X67.5061 Y42.8413 F2500.00
G01 X67.5222 Y42.8421 F2500.00
G01 X67.7140 Y42.8421 F2500.00
G01 X67.9378 Y42.8866 F2500.00
G01 X68.1485 Y42.9738 F2500.00
G01 X68.3381 Y43.1006 F2500.00
G01 X68.4994 Y43.2619 F2500.00
G01 X68.6261 Y43.4515 F2500.00
G01 X68.7134 Y43.6622 F2500.00
G01 X68.7579 Y43.8860 F2500.00
G01 X68.7579 Y44.1140 F2500.00
G01 X68.7134 Y44.3378 F2500.00
G01 X68.6261 Y44.5485 F2500.00
G01 X68.4994 Y44.7381 F2500.00
G01 X68.3381 Y44.8994 F2500.00
G01 X68.1485 Y45.0261 F2500.00
G01 X67.9378 Y45.1134 F2500.00
G01 X67.7140 Y45.1579 F2500.00
G01 X67.4860 Y45.1579 F2500.00
G01 X67.2622 Y45.1134 F2500.00
G01 X67.0515 Y45.0261 F2500.00
G01 X66.8619 Y44.8994 F2500.00
G01 X66.7006 Y44.7381 F2500.00
G01 X66.5739 Y44.5485 F2500.00
G01 X66.4866 Y44.3378 F2500.00
G01 X66.4421 Y44.1140 F2500.00
G01 X66.4421 Y43.9222 F2500.00
G01 X66.4409 Y43.9024 F2500.00
G01 X66.4381 Y43.8853 F2500.00
G01 X66.4344 Y43.8708 F2500.00
G01 X66.4295 Y43.8568 F2500.00
G01 X66.4212 Y43.8388 F2500.00
G01 X66.4122 Y43.8239 F2500.00
G01 X66.4019 Y43.8099 F2500.00
G01 X66.3902 Y43.7970 F2500.00
G01 X66.0052 Y43.4120 F2500.00
G01 X65.9932 Y43.4012 F2500.00
G01 X65.9792 Y43.3908 F2500.00
G01 X65.9643 Y43.3819 F2500.00
G01 X65.9475 Y43.3740 F2500.00
G01 X65.9322 Y43.3686 F2500.00
G01 X65.9154 Y43.3644 F2500.00
G01 X65.8982 Y43.3619 F2500.00
G01 X65.8808 Y43.3610 F2500.00
G01 X64.2087 Y43.3610 F2500.00
G01 X64.1102 Y43.3513 F2500.00
G01 X64.0239 Y43.3251 F2500.00
G01 X63.9444 Y43.2826 F2500.00
G01 X63.8746 Y43.2254 F2500.00
G01 X63.8174 Y43.1556 F2500.00
G01 X63.7749 Y43.0761 F2500.00
G01 X63.7487 Y42.9898 F2500.00
G01 X63.7390 Y42.8913 F2500.00
G01 X63.7390 Y40.9087 F2500.00
G01 X63.7413 Y40.8849 F2500.00
G01 X63.7421 Y40.8688 F2500.00
G01 X63.7421 Y40.6087 F2500.00
G01 X63.7509 Y40.5135 F2500.00
G01 X63.7763 Y40.4279 F2500.00
G01 X63.8178 Y40.3489 F2500.00
G01 X63.8773 Y40.2751 F2500.00
G00 Z1.0000
G00 X72.2500 Y42.0959
G01 F400.00
G01 Z-0.0400
G01 F2500.00
G01 X71.8971 Y42.0959 F2500.00
G01 X71.8416 Y42.0405 F2500.00
G01 X71.8390 Y41.6082 F2500.00
G01 X71.8487 Y41.5102 F2500.00
G01 X71.8749 Y41.4239 F2500.00
G01 X71.9174 Y41.3444 F2500.00
G01 X71.9746 Y41.2746 F2500.00
G01 X72.0444 Y41.2174 F2500.00
G01 X72.1239 Y41.1749 F2500.00
G01 X72.2102 Y41.1487 F2500.00
G01 X72.3084 Y41.1390 F2500.00
G01 X73.0406 Y41.1418 F2500.00
G01 X73.0959 Y41.1971 F2500.00
G01 X73.0959 Y41.5500 F2500.00
G01 X72.2988 Y41.5500 F2500.00
G01 X72.2927 Y41.5505 F2500.00
G01 X72.2879 Y41.5515 F2500.00
G01 X72.2786 Y41.5548 F2500.00
G01 X72.2733 Y41.5578 F2500.00
G01 X72.2692 Y41.5606 F2500.00
G01 X72.2646 Y41.5646 F2500.00
G01 X72.2613 Y41.5683 F2500.00
G01 X72.2565 Y41.5754 F2500.00
G01 X72.2534 Y41.5820 F2500.00
G01 X72.2510 Y41.5902 F2500.00
G01 X72.2500 Y41.5988 F2500.00
G01 X72.2500 Y42.0959 F2500.00
G00 Z1.0000
G00 X71.8421 Y43.9984
G01 F400.00
G01 Z-0.0400
G01 F2500.00
G01 X71.8421 Y43.2312 F2500.00
G01 X71.8413 Y43.2151 F2500.00
G01 X71.8390 Y43.1918 F2500.00
G01 X71.8416 Y42.7595 F2500.00
G01 X71.8600 Y42.7411 F2500.00
G01 X72.2500 Y42.7411 F2500.00
G01 X72.2500 Y44.0000 F2500.00
G01 X72.2504 Y44.0061 F2500.00
G01 X72.2515 Y44.0121 F2500.00
G01 X72.2538 Y44.0191 F2500.00
G01 X72.2565 Y44.0246 F2500.00
G01 X72.2606 Y44.0308 F2500.00
G01 X72.2646 Y44.0354 F2500.00
G01 X72.6664 Y44.4370 F2500.00
G01 X72.6733 Y44.4422 F2500.00
G01 X72.6820 Y44.4466 F2500.00
G01 X72.6915 Y44.4493 F2500.00
G01 X72.7000 Y44.4500 F2500.00
G01 X74.1000 Y44.4500 F2500.00
G01 X74.1085 Y44.4493 F2500.00
G01 X74.1180 Y44.4466 F2500.00
G01 X74.1236 Y44.4441 F2500.00
G01 X74.1278 Y44.4416 F2500.00
G01 X74.1354 Y44.4354 F2500.00
G01 X74.5354 Y44.0354 F2500.00
G01 X74.5394 Y44.0308 F2500.00
G01 X74.5435 Y44.0246 F2500.00
G01 X74.5462 Y44.0191 F2500.00
G01 X74.5485 Y44.0121 F2500.00
G01 X74.5496 Y44.0061 F2500.00
G01 X74.5500 Y44.0000 F2500.00
G01 X74.5500 Y42.7041 F2500.00
G01 X74.9030 Y42.7041 F2500.00
G01 X74.9584 Y42.7595 F2500.00
G01 X74.9610 Y43.1918 F2500.00
G01 X74.9587 Y43.2151 F2500.00
G01 X74.9579 Y43.2312 F2500.00
G01 X74.9579 Y43.9913 F2500.00
G01 X74.9491 Y44.0865 F2500.00
G01 X74.9237 Y44.1721 F2500.00
G01 X74.8822 Y44.2511 F2500.00
G01 X74.8227 Y44.3249 F2500.00
G01 X74.4299 Y44.7177 F2500.00
G01 X74.3564 Y44.7787 F2500.00
G01 X74.2780 Y44.8213 F2500.00
G01 X74.1927 Y44.8478 F2500.00
G01 X74.0984 Y44.8579 F2500.00
G01 X72.7087 Y44.8579 F2500.00
G01 X72.6135 Y44.8491 F2500.00
G01 X72.5279 Y44.8237 F2500.00
G01 X72.4489 Y44.7822 F2500.00
G01 X72.3751 Y44.7227 F2500.00
G01 X71.9823 Y44.3299 F2500.00
G01 X71.9213 Y44.2564 F2500.00
G01 X71.8787 Y44.1780 F2500.00
G01 X71.8522 Y44.0927 F2500.00
G01 X71.8421 Y43.9984 F2500.00
G00 Z1.0000
G00 X74.5500 Y41.6000
G01 F400.00
G01 Z-0.0400
G01 F2500.00
G01 X74.5490 Y41.5902 F2500.00
G01 X74.5466 Y41.5820 F2500.00
G01 X74.5422 Y41.5733 F2500.00
G01 X74.5362 Y41.5655 F2500.00
G01 X74.5288 Y41.5591 F2500.00
G01 X74.5203 Y41.5543 F2500.00
G01 X74.5110 Y41.5512 F2500.00
G01 X74.5025 Y41.5501 F2500.00
G01 X73.7041 Y41.5500 F2500.00
G01 X73.7041 Y41.1971 F2500.00
G01 X73.7594 Y41.1418 F2500.00
G01 X74.4916 Y41.1390 F2500.00
G01 X74.5898 Y41.1487 F2500.00
G01 X74.6761 Y41.1749 F2500.00
G01 X74.7556 Y41.2174 F2500.00
G01 X74.8254 Y41.2746 F2500.00
G01 X74.8826 Y41.3444 F2500.00
G01 X74.9251 Y41.4239 F2500.00
G01 X74.9513 Y41.5102 F2500.00
G01 X74.9610 Y41.6082 F2500.00
G01 X74.9584 Y42.0405 F2500.00
G01 X74.9030 Y42.0959 F2500.00
G01 X74.5500 Y42.0959 F2500.00
G01 X74.5500 Y41.6000 F2500.00
G00 Z1.0000
G00 X76.0500 Y42.0959
G01 F400.00
G01 Z-0.0400
G01 F2500.00
G01 X75.6970 Y42.0959 F2500.00
G01 X75.6416 Y42.0405 F2500.00
G01 X75.6390 Y41.6082 F2500.00
G01 X75.6487 Y41.5102 F2500.00
G01 X75.6749 Y41.4239 F2500.00
G01 X75.7174 Y41.3444 F2500.00
G01 X75.7746 Y41.2746 F2500.00
G01 X75.8444 Y41.2174 F2500.00
G01 X75.9239 Y41.1749 F2500.00
G01 X76.0102 Y41.1487 F2500.00
G01 X76.1084 Y41.1390 F2500.00
G01 X76.8406 Y41.1418 F2500.00
G01 X76.8959 Y41.1971 F2500.00
G01 X76.8959 Y41.5500 F2500.00
G01 X76.0988 Y41.5500 F2500.00
G01 X76.0927 Y41.5505 F2500.00
G01 X76.0879 Y41.5515 F2500.00
G01 X76.0786 Y41.5548 F2500.00
G01 X76.0733 Y41.5578 F2500.00
G01 X76.0692 Y41.5606 F2500.00
G01 X76.0646 Y41.5646 F2500.00
G01 X76.0613 Y41.5683 F2500.00
G01 X76.0565 Y41.5754 F2500.00
G01 X76.0534 Y41.5820 F2500.00
G01 X76.0510 Y41.5902 F2500.00
G01 X76.0500 Y41.5988 F2500.00
G01 X76.0500 Y42.0959 F2500.00
G00 Z1.0000
G00 X75.6421 Y43.9984
G01 F400.00
G01 Z-0.0400
G01 F2500.00
G01 X75.6421 Y43.2312 F2500.00
G01 X75.6413 Y43.2151 F2500.00
G01 X75.6390 Y43.1918 F2500.00
G01 X75.6416 Y42.7595 F2500.00
G01 X75.6970 Y42.7041 F2500.00
G01 X76.0500 Y42.7041 F2500.00
G01 X76.0500 Y44.0000 F2500.00
G01 X76.0504 Y44.0061 F2500.00
G01 X76.0515 Y44.0121 F2500.00
G01 X76.0534 Y44.0180 F2500.00
G01 X76.0565 Y44.0246 F2500.00
G01 X76.0598 Y44.0298 F2500.00
G01 X76.0646 Y44.0354 F2500.00
G01 X76.4655 Y44.4362 F2500.00
G01 X76.4733 Y44.4422 F2500.00
G01 X76.4809 Y44.4462 F2500.00
G01 X76.4902 Y44.4490 F2500.00
G01 X76.5000 Y44.4500 F2500.00
G01 X77.9000 Y44.4500 F2500.00
G01 X77.9085 Y44.4493 F2500.00
G01 X77.9180 Y44.4466 F2500.00
G01 X77.9236 Y44.4441 F2500.00
G01 X77.9278 Y44.4416 F2500.00
G01 X77.9354 Y44.4354 F2500.00
G01 X78.3354 Y44.0354 F2500.00
G01 X78.3394 Y44.0308 F2500.00
G01 X78.3435 Y44.0246 F2500.00
G01 X78.3462 Y44.0191 F2500.00
G01 X78.3485 Y44.0121 F2500.00
G01 X78.3496 Y44.0061 F2500.00
G01 X78.3500 Y44.0000 F2500.00
G01 X78.3500 Y42.7041 F2500.00
G01 X78.7029 Y42.7041 F2500.00
G01 X78.7584 Y42.7595 F2500.00
G01 X78.7610 Y43.1918 F2500.00
G01 X78.7587 Y43.2151 F2500.00
G01 X78.7579 Y43.2312 F2500.00
G01 X78.7579 Y43.9913 F2500.00
G01 X78.7491 Y44.0865 F2500.00
G01 X78.7237 Y44.1721 F2500.00
G01 X78.6822 Y44.2511 F2500.00
G01 X78.6227 Y44.3249 F2500.00
G01 X78.2299 Y44.7177 F2500.00
G01 X78.1564 Y44.7787 F2500.00
G01 X78.0780 Y44.8213 F2500.00
G01 X77.9927 Y44.8478 F2500.00
G01 X77.8984 Y44.8579 F2500.00
G01 X76.5087 Y44.8579 F2500.00
G01 X76.4135 Y44.8491 F2500.00
G01 X76.3279 Y44.8237 F2500.00
G01 X76.2489 Y44.7822 F2500.00
G01 X76.1751 Y44.7227 F2500.00
G01 X75.7823 Y44.3299 F2500.00
G01 X75.7213 Y44.2564 F2500.00
G01 X75.6787 Y44.1780 F2500.00
G01 X75.6522 Y44.0927 F2500.00
G01 X75.6421 Y43.9984 F2500.00
G00 Z1.0000
G00 X78.3500 Y41.6000
G01 F400.00
G01 Z-0.0400
G01 F2500.00
G01 X78.3493 Y41.5915 F2500.00
G01 X78.3466 Y41.5820 F2500.00
G01 X78.3422 Y41.5733 F2500.00
G01 X78.3362 Y41.5655 F2500.00
G01 X78.3288 Y41.5591 F2500.00
G01 X78.3203 Y41.5543 F2500.00
G01 X78.3110 Y41.5512 F2500.00
G01 X78.3025 Y41.5501 F2500.00
G01 X77.5041 Y41.5500 F2500.00
G01 X77.5041 Y41.1971 F2500.00
G01 X77.5594 Y41.1418 F2500.00
G01 X78.2916 Y41.1390 F2500.00
G01 X78.3898 Y41.1487 F2500.00
G01 X78.4761 Y41.1749 F2500.00
G01 X78.5556 Y41.2174 F2500.00
G01 X78.6254 Y41.2746 F2500.00
G01 X78.6826 Y41.3444 F2500.00
G01 X78.7251 Y41.4239 F2500.00
G01 X78.7513 Y41.5102 F2500.00
G01 X78.7610 Y41.6082 F2500.00
G01 X78.7584 Y42.0405 F2500.00
G01 X78.7029 Y42.0959 F2500.00
G01 X78.3500 Y42.0959 F2500.00
G01 X78.3500 Y41.6000 F2500.00
G00 Z1.0000
G00 X78.8191 Y38.4080
G01 F400.00
G01 Z-0.0400
G01 F2500.00
G01 X78.8191 Y33.4369 F2500.00
G01 X78.8209 Y33.4047 F2500.00
G01 X78.8250 Y33.3776 F2500.00
G01 X78.8316 Y33.3510 F2500.00
G01 X78.8423 Y33.3205 F2500.00
G01 X78.8562 Y33.2914 F2500.00
G01 X78.8704 Y33.2680 F2500.00
G01 X78.8866 Y33.2459 F2500.00
G01 X78.9082 Y33.2219 F2500.00
G01 X81.2451 Y30.8849 F2500.00
G01 X81.2672 Y30.8649 F2500.00
G01 X81.2922 Y30.8465 F2500.00
G01 X81.3190 Y30.8307 F2500.00
G01 X81.3438 Y30.8190 F2500.00
G01 X81.3695 Y30.8097 F2500.00
G01 X81.4008 Y30.8017 F2500.00
G01 X81.4316 Y30.7972 F2500.00
G01 X81.4602 Y30.7959 F2500.00
G01 X82.0750 Y30.7959 F2500.00
G01 X82.0752 Y30.4201 F2500.00
G01 X82.0768 Y30.4117 F2500.00
G01 X82.0793 Y30.4047 F2500.00
G01 X82.0828 Y30.3983 F2500.00
G01 X82.0880 Y30.3914 F2500.00
G01 X82.0933 Y30.3863 F2500.00
G01 X82.1004 Y30.3815 F2500.00
G01 X82.1070 Y30.3784 F2500.00
G01 X82.1152 Y30.3760 F2500.00
G01 X82.1250 Y30.3750 F2500.00
G01 X83.4750 Y30.3750 F2500.00
G01 X83.4823 Y30.3755 F2500.00
G01 X83.4883 Y30.3768 F2500.00
G01 X83.4941 Y30.3788 F2500.00
G01 X83.5007 Y30.3821 F2500.00
G01 X83.5058 Y30.3856 F2500.00
G01 X83.5104 Y30.3896 F2500.00
G01 X83.5152 Y30.3952 F2500.00
G01 X83.5185 Y30.4004 F2500.00
G01 X83.5212 Y30.4059 F2500.00
G01 X83.5235 Y30.4129 F2500.00
G01 X83.5246 Y30.4189 F2500.00
G01 X83.5250 Y30.4250 F2500.00
G01 X83.5250 Y31.7762 F2500.00
G01 X83.5246 Y31.7811 F2500.00
G01 X83.5235 Y31.7871 F2500.00
G01 X83.5221 Y31.7918 F2500.00
G01 X83.5197 Y31.7975 F2500.00
G01 X83.5172 Y31.8017 F2500.00
G01 X83.5137 Y31.8067 F2500.00
G01 X83.5104 Y31.8104 F2500.00
G01 X83.5058 Y31.8144 F2500.00
G01 X83.4996 Y31.8185 F2500.00
G01 X83.4918 Y31.8221 F2500.00
G01 X83.4835 Y31.8243 F2500.00
G01 X83.4750 Y31.8250 F2500.00
G01 X82.1250 Y31.8250 F2500.00
G01 X82.1189 Y31.8246 F2500.00
G01 X82.1140 Y31.8238 F2500.00
G01 X82.1070 Y31.8216 F2500.00
G01 X82.0993 Y31.8179 F2500.00
G01 X82.0933 Y31.8137 F2500.00
G01 X82.0880 Y31.8086 F2500.00
G01 X82.0834 Y31.8028 F2500.00
G01 X82.0793 Y31.7953 F2500.00
G01 X82.0768 Y31.7883 F2500.00
G01 X82.0752 Y31.7799 F2500.00
G01 X82.0750 Y31.4041 F2500.00
G01 X81.5861 Y31.4041 F2500.00
G01 X79.4274 Y33.5629 F2500.00
G01 X79.4274 Y38.4080 F2500.00
G01 X79.4768 Y38.4315 F2500.00
G01 X79.5378 Y38.4680 F2500.00
G01 X79.5990 Y38.5131 F2500.00
G01 X79.6536 Y38.5626 F2500.00
G01 X79.7014 Y38.6153 F2500.00
G01 X79.7468 Y38.6762 F2500.00
G01 X79.7858 Y38.7415 F2500.00
G01 X79.8161 Y38.8059 F2500.00
G01 X79.8409 Y38.8752 F2500.00
G01 X79.8592 Y38.9490 F2500.00
G01 X79.8696 Y39.0194 F2500.00
G01 X79.8732 Y39.0929 F2500.00
G01 X79.8693 Y39.1689 F2500.00
G01 X79.8588 Y39.2392 F2500.00
G01 X79.8409 Y39.3106 F2500.00
G01 X79.8152 Y39.3822 F2500.00
G01 X79.7847 Y39.4465 F2500.00
G01 X79.7468 Y39.5096 F2500.00
G01 X79.7030 Y39.5687 F2500.00
G01 X79.6553 Y39.6215 F2500.00
G01 X79.5990 Y39.6727 F2500.00
G01 X79.5378 Y39.7178 F2500.00
G01 X79.4768 Y39.7543 F2500.00
G01 X79.4114 Y39.7853 F2500.00
G01 X79.3410 Y39.8106 F2500.00
G01 X79.2696 Y39.8285 F2500.00
G01 X79.1968 Y39.8393 F2500.00
G01 X79.1232 Y39.8429 F2500.00
G01 X79.0497 Y39.8393 F2500.00
G01 X78.9769 Y39.8285 F2500.00
G01 X78.9055 Y39.8106 F2500.00
G01 X78.8362 Y39.7858 F2500.00
G01 X78.7697 Y39.7543 F2500.00
G01 X78.7066 Y39.7165 F2500.00
G01 X78.6474 Y39.6727 F2500.00
G01 X78.5929 Y39.6232 F2500.00
G01 X78.5435 Y39.5687 F2500.00
G01 X78.4996 Y39.5096 F2500.00
G01 X78.4618 Y39.4465 F2500.00
G01 X78.4308 Y39.3810 F2500.00
G01 X78.4055 Y39.3106 F2500.00
G01 X78.3877 Y39.2392 F2500.00
G01 X78.3769 Y39.1664 F2500.00
G01 X78.3732 Y39.0929 F2500.00
G01 X78.3769 Y39.0194 F2500.00
G01 X78.3877 Y38.9466 F2500.00
G01 X78.4055 Y38.8752 F2500.00
G01 X78.4299 Y38.8070 F2500.00
G01 X78.4618 Y38.7394 F2500.00
G01 X78.4996 Y38.6762 F2500.00
G01 X78.5435 Y38.6171 F2500.00
G01 X78.5921 Y38.5635 F2500.00
G01 X78.6474 Y38.5131 F2500.00
G01 X78.7066 Y38.4693 F2500.00
G01 X78.7697 Y38.4315 F2500.00
G01 X78.8191 Y38.4080 F2500.00
G00 Z1.0000
G00 X81.3470 Y35.9377
G01 F400.00
G01 Z-0.0400
G01 F2500.00
G01 X81.3500 Y36.0000 F2500.00
G01 X81.3464 Y36.0735 F2500.00
G01 X81.3356 Y36.1463 F2500.00
G01 X81.3177 Y36.2177 F2500.00
G01 X81.2929 Y36.2870 F2500.00
G01 X81.2614 Y36.3535 F2500.00
G01 X81.2236 Y36.4167 F2500.00
G01 X81.1798 Y36.4758 F2500.00
G01 X81.1303 Y36.5303 F2500.00
G01 X81.0758 Y36.5798 F2500.00
G01 X81.0167 Y36.6236 F2500.00
G01 X80.9535 Y36.6614 F2500.00
G01 X80.8870 Y36.6929 F2500.00
G01 X80.8177 Y36.7177 F2500.00
G01 X80.7463 Y36.7356 F2500.00
G01 X80.6735 Y36.7464 F2500.00
G01 X80.6000 Y36.7500 F2500.00
G01 X80.5265 Y36.7464 F2500.00
G01 X80.4537 Y36.7356 F2500.00
G01 X80.3823 Y36.7177 F2500.00
G01 X80.3130 Y36.6929 F2500.00
G01 X80.2465 Y36.6614 F2500.00
G01 X80.1833 Y36.6236 F2500.00
G01 X80.1242 Y36.5798 F2500.00
G01 X80.0697 Y36.5303 F2500.00
G01 X80.0202 Y36.4758 F2500.00
G01 X79.9764 Y36.4167 F2500.00
G01 X79.9386 Y36.3535 F2500.00
G01 X79.9071 Y36.2870 F2500.00
G01 X79.8823 Y36.2177 F2500.00
G01 X79.8644 Y36.1463 F2500.00
G01 X79.8536 Y36.0735 F2500.00
G01 X79.8501 Y35.9975 F2500.00
G01 X79.8536 Y35.9265 F2500.00
G01 X79.8640 Y35.8561 F2500.00
G01 X79.8823 Y35.7823 F2500.00
G01 X79.9071 Y35.7130 F2500.00
G01 X79.9386 Y35.6465 F2500.00
G01 X79.9778 Y35.5813 F2500.00
G01 X80.0202 Y35.5242 F2500.00
G01 X80.0680 Y35.4714 F2500.00
G01 X80.1223 Y35.4218 F2500.00
G01 X80.1854 Y35.3751 F2500.00
G01 X80.2465 Y35.3386 F2500.00
G01 X80.3153 Y35.3062 F2500.00
G01 X80.3823 Y35.2823 F2500.00
G01 X80.4537 Y35.2644 F2500.00
G01 X80.5265 Y35.2536 F2500.00
G01 X80.5988 Y35.2500 F2500.00
G01 X80.6759 Y35.2539 F2500.00
G01 X80.7463 Y35.2644 F2500.00
G01 X80.8189 Y35.2827 F2500.00
G01 X80.8870 Y35.3071 F2500.00
G01 X80.9525 Y35.3380 F2500.00
G01 X81.0156 Y35.3757 F2500.00
G01 X81.0348 Y35.3897 F2500.00
G01 X84.4959 Y31.9286 F2500.00
G01 X84.4959 Y31.7573 F2500.00
G01 X84.4572 Y31.7388 F2500.00
G01 X84.3982 Y31.7035 F2500.00
G01 X84.3410 Y31.6612 F2500.00
G01 X84.2873 Y31.6127 F2500.00
G01 X84.2388 Y31.5590 F2500.00
G01 X84.1959 Y31.5007 F2500.00
G01 X84.1606 Y31.4418 F2500.00
G01 X84.1312 Y31.3797 F2500.00
G01 X84.1062 Y31.3105 F2500.00
G01 X84.0885 Y31.2390 F2500.00
G01 X84.0783 Y31.1686 F2500.00
G01 X84.0750 Y31.1000 F2500.00
G01 X84.0783 Y31.0314 F2500.00
G01 X84.0889 Y30.9586 F2500.00
G01 X84.1062 Y30.8895 F2500.00
G01 X84.1302 Y30.8226 F2500.00
G01 X84.1618 Y30.7561 F2500.00
G01 X84.1972 Y30.6972 F2500.00
G01 X84.2381 Y30.6420 F2500.00
G01 X84.2865 Y30.5882 F2500.00
G01 X84.3401 Y30.5396 F2500.00
G01 X84.3952 Y30.4986 F2500.00
G01 X84.4604 Y30.4595 F2500.00
G01 X84.5226 Y30.4302 F2500.00
G01 X84.5895 Y30.4062 F2500.00
G01 X84.6586 Y30.3889 F2500.00
G01 X84.7289 Y30.3785 F2500.00
G01 X84.8000 Y30.3750 F2500.00
G01 X84.8711 Y30.3785 F2500.00
G01 X84.9414 Y30.3889 F2500.00
G01 X85.0081 Y30.4056 F2500.00
G01 X85.0797 Y30.4312 F2500.00
G01 X85.1418 Y30.4606 F2500.00
G01 X85.2038 Y30.4979 F2500.00
G01 X85.2599 Y30.5396 F2500.00
G01 X85.3109 Y30.5857 F2500.00
G01 X85.3604 Y30.6401 F2500.00
G01 X85.4041 Y30.6993 F2500.00
G01 X85.4394 Y30.7582 F2500.00
G01 X85.4688 Y30.8203 F2500.00
G01 X85.4938 Y30.8895 F2500.00
G01 X85.5115 Y30.9610 F2500.00
G01 X85.5215 Y31.0289 F2500.00
G01 X85.5249 Y31.0975 F2500.00
G01 X85.5215 Y31.1711 F2500.00
G01 X85.5105 Y31.2438 F2500.00
G01 X85.4938 Y31.3105 F2500.00
G01 X85.4707 Y31.3752 F2500.00
G01 X85.4394 Y31.4418 F2500.00
G01 X85.4021 Y31.5038 F2500.00
G01 X85.3588 Y31.5618 F2500.00
G01 X85.3127 Y31.6127 F2500.00
G01 X85.2609 Y31.6596 F2500.00
G01 X85.2018 Y31.7035 F2500.00
G01 X85.1428 Y31.7388 F2500.00
G01 X85.1041 Y31.7573 F2500.00
G01 X85.1041 Y32.0546 F2500.00
G01 X85.1025 Y32.0856 F2500.00
G01 X85.0977 Y32.1163 F2500.00
G01 X85.0910 Y32.1429 F2500.00
G01 X85.0819 Y32.1687 F2500.00
G01 X85.0682 Y32.1980 F2500.00
G01 X85.0522 Y32.2246 F2500.00
G01 X85.0351 Y32.2475 F2500.00
G01 X85.0151 Y32.2696 F2500.00
G01 X81.3470 Y35.9377 F2500.00
G00 Z1.0000
G00 X82.7773 Y35.7751
G01 F400.00
G01 Z-0.0400
G01 F2500.00
G01 X83.1701 Y35.3823 F2500.00
G01 X83.2436 Y35.3213 F2500.00
G01 X83.3220 Y35.2787 F2500.00
G01 X83.4073 Y35.2522 F2500.00
G01 X83.5016 Y35.2421 F2500.00
G01 X84.8913 Y35.2421 F2500.00
G01 X84.9865 Y35.2509 F2500.00
G01 X85.0721 Y35.2763 F2500.00
G01 X85.1511 Y35.3178 F2500.00
G01 X85.2249 Y35.3773 F2500.00
G01 X85.6177 Y35.7701 F2500.00
G01 X85.6787 Y35.8436 F2500.00
G01 X85.7213 Y35.9220 F2500.00
G01 X85.7478 Y36.0073 F2500.00
G01 X85.7579 Y36.1016 F2500.00
G01 X85.7579 Y36.8688 F2500.00
G01 X85.7587 Y36.8849 F2500.00
G01 X85.7610 Y36.9082 F2500.00
G01 X85.7584 Y37.3405 F2500.00
G01 X85.7029 Y37.3959 F2500.00
G01 X85.3500 Y37.3959 F2500.00
G01 X85.3500 Y36.1000 F2500.00
G01 X85.3496 Y36.0939 F2500.00
G01 X85.3485 Y36.0879 F2500.00
G01 X85.3462 Y36.0809 F2500.00
G01 X85.3435 Y36.0754 F2500.00
G01 X85.3394 Y36.0692 F2500.00
G01 X85.3354 Y36.0646 F2500.00
G01 X84.9354 Y35.6646 F2500.00
G01 X84.9298 Y35.6598 F2500.00
G01 X84.9236 Y35.6559 F2500.00
G01 X84.9157 Y35.6525 F2500.00
G01 X84.9085 Y35.6507 F2500.00
G01 X84.9000 Y35.6500 F2500.00
G01 X83.4988 Y35.6500 F2500.00
G01 X83.4890 Y35.6512 F2500.00
G01 X83.4797 Y35.6543 F2500.00
G01 X83.4712 Y35.6591 F2500.00
G01 X83.4646 Y35.6646 F2500.00
G01 X83.0646 Y36.0646 F2500.00
G01 X83.0598 Y36.0702 F2500.00
G01 X83.0565 Y36.0754 F2500.00
G01 X83.0538 Y36.0809 F2500.00
G01 X83.0515 Y36.0879 F2500.00
G01 X83.0504 Y36.0939 F2500.00
G01 X83.0500 Y36.1000 F2500.00
G01 X83.0500 Y37.3959 F2500.00
G01 X82.6971 Y37.3959 F2500.00
G01 X82.6416 Y37.3405 F2500.00
G01 X82.6390 Y36.9082 F2500.00
G01 X82.6413 Y36.8849 F2500.00
G01 X82.6421 Y36.8688 F2500.00
G01 X82.6421 Y36.1087 F2500.00
G01 X82.6509 Y36.0135 F2500.00
G01 X82.6763 Y35.9279 F2500.00
G01 X82.7178 Y35.8489 F2500.00
G01 X82.7773 Y35.7751 F2500.00
G00 Z1.0000
G00 X83.0500 Y38.5000
G01 F400.00
G01 Z-0.0400
G01 F2500.00
G01 X83.0507 Y38.5085 F2500.00
G01 X83.0534 Y38.5180 F2500.00
G01 X83.0578 Y38.5267 F2500.00
G01 X83.0638 Y38.5345 F2500.00
G01 X83.0712 Y38.5409 F2500.00
G01 X83.0797 Y38.5457 F2500.00
G01 X83.0890 Y38.5488 F2500.00
G01 X83.0975 Y38.5499 F2500.00
G01 X83.8959 Y38.5500 F2500.00
G01 X83.8959 Y38.9029 F2500.00
G01 X83.8406 Y38.9582 F2500.00
G01 X83.1084 Y38.9610 F2500.00
G01 X83.0102 Y38.9513 F2500.00
G01 X82.9239 Y38.9251 F2500.00
G01 X82.8444 Y38.8826 F2500.00
G01 X82.7746 Y38.8254 F2500.00
G01 X82.7174 Y38.7556 F2500.00
G01 X82.6749 Y38.6761 F2500.00
G01 X82.6487 Y38.5898 F2500.00
G01 X82.6390 Y38.4918 F2500.00
G01 X82.6416 Y38.0595 F2500.00
G01 X82.6971 Y38.0041 F2500.00
G01 X83.0500 Y38.0041 F2500.00
G01 X83.0500 Y38.5000 F2500.00
G00 Z1.0000
G00 X85.3000 Y38.5500
G01 F400.00
G01 Z-0.0400
G01 F2500.00
G01 X85.3085 Y38.5493 F2500.00
G01 X85.3180 Y38.5466 F2500.00
G01 X85.3257 Y38.5429 F2500.00
G01 X85.3336 Y38.5370 F2500.00
G01 X85.3394 Y38.5308 F2500.00
G01 X85.3447 Y38.5225 F2500.00
G01 X85.3482 Y38.5133 F2500.00
G01 X85.3498 Y38.5049 F2500.00
G01 X85.3500 Y38.0041 F2500.00
G01 X85.7029 Y38.0041 F2500.00
G01 X85.7584 Y38.0595 F2500.00
G01 X85.7610 Y38.4918 F2500.00
G01 X85.7513 Y38.5898 F2500.00
G01 X85.7251 Y38.6761 F2500.00
G01 X85.6826 Y38.7556 F2500.00
G01 X85.6254 Y38.8254 F2500.00
G01 X85.5556 Y38.8826 F2500.00
G01 X85.4761 Y38.9251 F2500.00
G01 X85.3898 Y38.9513 F2500.00
G01 X85.2916 Y38.9610 F2500.00
G01 X84.5594 Y38.9582 F2500.00
G01 X84.5041 Y38.9029 F2500.00
G01 X84.5041 Y38.5500 F2500.00
G01 X85.3000 Y38.5500 F2500.00
G00 Z1.0000
G00 X86.4959 Y31.7573
G01 F400.00
G01 Z-0.0400
G01 F2500.00
G01 X86.4572 Y31.7388 F2500.00
G01 X86.3962 Y31.7021 F2500.00
G01 X86.3401 Y31.6604 F2500.00
G01 X86.2865 Y31.6118 F2500.00
G01 X86.2396 Y31.5599 F2500.00
G01 X86.1972 Y31.5028 F2500.00
G01 X86.1606 Y31.4418 F2500.00
G01 X86.1297 Y31.3763 F2500.00
G01 X86.1062 Y31.3105 F2500.00
G01 X86.0889 Y31.2414 F2500.00
G01 X86.0785 Y31.1711 F2500.00
G01 X86.0750 Y31.1000 F2500.00
G01 X86.0785 Y31.0289 F2500.00
G01 X86.0889 Y30.9586 F2500.00
G01 X86.1062 Y30.8895 F2500.00
G01 X86.1307 Y30.8214 F2500.00
G01 X86.1606 Y30.7582 F2500.00
G01 X86.1972 Y30.6972 F2500.00
G01 X86.2396 Y30.6401 F2500.00
G01 X86.2873 Y30.5873 F2500.00
G01 X86.3401 Y30.5396 F2500.00
G01 X86.3972 Y30.4972 F2500.00
G01 X86.4582 Y30.4606 F2500.00
G01 X86.5226 Y30.4302 F2500.00
G01 X86.5895 Y30.4062 F2500.00
G01 X86.6586 Y30.3889 F2500.00
G01 X86.7289 Y30.3785 F2500.00
G01 X86.8000 Y30.3750 F2500.00
G01 X86.8711 Y30.3785 F2500.00
G01 X86.9414 Y30.3889 F2500.00
G01 X87.0105 Y30.4062 F2500.00
G01 X87.0786 Y30.4307 F2500.00
G01 X87.1439 Y30.4618 F2500.00
G01 X87.2028 Y30.4972 F2500.00
G01 X87.2580 Y30.5381 F2500.00
G01 X87.3127 Y30.5873 F2500.00
G01 X87.3619 Y30.6420 F2500.00
G01 X87.4028 Y30.6972 F2500.00
G01 X87.4382 Y30.7561 F2500.00
G01 X87.4698 Y30.8226 F2500.00
G01 X87.4944 Y30.8919 F2500.00
G01 X87.5111 Y30.9586 F2500.00
G01 X87.5214 Y31.0277 F2500.00
G01 X87.5249 Y31.1025 F2500.00
G01 X87.5215 Y31.1711 F2500.00
G01 X87.5111 Y31.2414 F2500.00
G01 X87.4938 Y31.3105 F2500.00
G01 X87.4707 Y31.3752 F2500.00
G01 X87.4388 Y31.4428 F2500.00
G01 X87.4028 Y31.5028 F2500.00
G01 X87.3619 Y31.5580 F2500.00
G01 X87.3118 Y31.6135 F2500.00
G01 X87.2599 Y31.6604 F2500.00
G01 X87.2038 Y31.7021 F2500.00
G01 X87.1428 Y31.7388 F2500.00
G01 X87.1041 Y31.7573 F2500.00
G01 X87.1041 Y33.0151 F2500.00
G01 X87.1535 Y33.0386 F2500.00
G01 X87.2167 Y33.0764 F2500.00
G01 X87.2758 Y33.1202 F2500.00
G01 X87.3303 Y33.1697 F2500.00
G01 X87.3798 Y33.2242 F2500.00
G01 X87.4236 Y33.2833 F2500.00
G01 X87.4614 Y33.3465 F2500.00
G01 X87.4929 Y33.4130 F2500.00
G01 X87.5177 Y33.4823 F2500.00
G01 X87.5356 Y33.5537 F2500.00
G01 X87.5464 Y33.6265 F2500.00
G01 X87.5500 Y33.7000 F2500.00
G01 X87.5464 Y33.7735 F2500.00
G01 X87.5356 Y33.8463 F2500.00
G01 X87.5177 Y33.9177 F2500.00
G01 X87.4993 Y33.9692 F2500.00
G01 X88.3551 Y34.8250 F2500.00
G01 X89.9012 Y34.8250 F2500.00
G01 X89.9073 Y34.8255 F2500.00
G01 X89.9145 Y34.8272 F2500.00
G01 X89.9214 Y34.8298 F2500.00
G01 X89.9267 Y34.8328 F2500.00
G01 X89.9317 Y34.8363 F2500.00
G01 X89.9370 Y34.8414 F2500.00
G01 X89.9409 Y34.8462 F2500.00
G01 X89.9441 Y34.8514 F2500.00
G01 X89.9466 Y34.8570 F2500.00
G01 X89.9485 Y34.8629 F2500.00
G01 X89.9496 Y34.8689 F2500.00
G01 X89.9500 Y34.8750 F2500.00
G01 X89.9500 Y37.1750 F2500.00
G01 X89.9496 Y37.1811 F2500.00
G01 X89.9478 Y37.1895 F2500.00
G01 X89.9452 Y37.1964 F2500.00
G01 X89.9409 Y37.2038 F2500.00
G01 X89.9362 Y37.2095 F2500.00
G01 X89.6354 Y37.5104 F2500.00
G01 X89.6298 Y37.5152 F2500.00
G01 X89.6236 Y37.5191 F2500.00
G01 X89.6180 Y37.5216 F2500.00
G01 X89.6121 Y37.5235 F2500.00
G01 X89.6061 Y37.5246 F2500.00
G01 X89.6000 Y37.5250 F2500.00
G01 X88.0000 Y37.5250 F2500.00
G01 X87.9915 Y37.5243 F2500.00
G01 X87.9843 Y37.5225 F2500.00
G01 X87.9775 Y37.5197 F2500.00
G01 X87.9712 Y37.5159 F2500.00
G01 X87.9655 Y37.5112 F2500.00
G01 X87.6646 Y37.2104 F2500.00
G01 X87.6598 Y37.2048 F2500.00
G01 X87.6559 Y37.1986 F2500.00
G01 X87.6534 Y37.1930 F2500.00
G01 X87.6515 Y37.1871 F2500.00
G01 X87.6504 Y37.1811 F2500.00
G01 X87.6500 Y37.1750 F2500.00
G01 X87.6500 Y34.9801 F2500.00
G01 X87.0692 Y34.3993 F2500.00
G01 X87.0177 Y34.4177 F2500.00
G01 X86.9487 Y34.4351 F2500.00
G01 X86.8759 Y34.4461 F2500.00
G01 X86.8000 Y34.4500 F2500.00
G01 X86.7253 Y34.4463 F2500.00
G01 X86.6513 Y34.4351 F2500.00
G01 X86.5823 Y34.4177 F2500.00
G01 X86.5153 Y34.3938 F2500.00
G01 X86.4465 Y34.3614 F2500.00
G01 X86.3823 Y34.3229 F2500.00
G01 X86.3242 Y34.2798 F2500.00
G01 X86.2697 Y34.2303 F2500.00
G01 X86.2202 Y34.1758 F2500.00
G01 X86.1764 Y34.1167 F2500.00
G01 X86.1386 Y34.0535 F2500.00
G01 X86.1071 Y33.9870 F2500.00
G01 X86.0823 Y33.9177 F2500.00
G01 X86.0647 Y33.8475 F2500.00
G01 X86.0536 Y33.7735 F2500.00
G01 X86.0501 Y33.7025 F2500.00
G01 X86.0539 Y33.6241 F2500.00
G01 X86.0644 Y33.5537 F2500.00
G01 X86.0823 Y33.4823 F2500.00
G01 X86.1071 Y33.4130 F2500.00
G01 X86.1380 Y33.3475 F2500.00
G01 X86.1764 Y33.2833 F2500.00
G01 X86.2187 Y33.2261 F2500.00
G01 X86.2714 Y33.1680 F2500.00
G01 X86.3242 Y33.1202 F2500.00
G01 X86.3833 Y33.0764 F2500.00
G01 X86.4465 Y33.0386 F2500.00
G01 X86.4959 Y33.0151 F2500.00
G01 X86.4959 Y31.7573 F2500.00
G00 Z1.0000
G00 X89.1041 Y31.7573
G01 F400.00
G01 Z-0.0400
G01 F2500.00
G01 X89.1428 Y31.7388 F2500.00
G01 X89.2038 Y31.7021 F2500.00
G01 X89.2599 Y31.6604 F2500.00
G01 X89.3127 Y31.6127 F2500.00
G01 X89.3604 Y31.5599 F2500.00
G01 X89.4021 Y31.5038 F2500.00
G01 X89.4388 Y31.4428 F2500.00
G01 X89.4573 Y31.4041 F2500.00
G01 X89.8454 Y31.4041 F2500.00
G01 X89.8723 Y31.4483 F2500.00
G01 X89.8191 Y31.5930 F2500.00
G01 X89.7034 Y31.7823 F2500.00
G01 X89.5529 Y31.9454 F2500.00
G01 X89.3735 Y32.0761 F2500.00
G01 X89.1674 Y32.1714 F2500.00
G01 X89.1540 Y32.1754 F2500.00
G01 X89.1041 Y32.1449 F2500.00
G01 X89.1041 Y31.7573 F2500.00
G00 Z1.0000
G00 X89.1041 Y52.1573
G01 F400.00
G01 Z-0.0400
G01 F2500.00
G01 X89.1428 Y52.1388 F2500.00
G01 X89.2038 Y52.1021 F2500.00
G01 X89.2599 Y52.0604 F2500.00
G01 X89.3127 Y52.0127 F2500.00
G01 X89.3604 Y51.9599 F2500.00
G01 X89.4021 Y51.9038 F2500.00
G01 X89.4388 Y51.8428 F2500.00
G01 X89.4573 Y51.8041 F2500.00
G01 X89.8454 Y51.8041 F2500.00
G01 X89.8723 Y51.8483 F2500.00
G01 X89.8191 Y51.9930 F2500.00
G01 X89.7034 Y52.1823 F2500.00
G01 X89.5529 Y52.3454 F2500.00
G01 X89.3735 Y52.4761 F2500.00
G01 X89.1674 Y52.5714 F2500.00
G01 X89.1540 Y52.5754 F2500.00
G01 X89.1041 Y52.5449 F2500.00
G01 X89.1041 Y52.1573 F2500.00
G00 Z1.0000
G00 X86.4959 Y52.1573
G01 F400.00
G01 Z-0.0400
G01 F2500.00
G01 X86.4572 Y52.1388 F2500.00
G01 X86.3962 Y52.1021 F2500.00
G01 X86.3401 Y52.0604 F2500.00
G01 X86.2865 Y52.0118 F2500.00
G01 X86.2396 Y51.9599 F2500.00
G01 X86.1972 Y51.9028 F2500.00
G01 X86.1606 Y51.8418 F2500.00
G01 X86.1297 Y51.7763 F2500.00
G01 X86.1062 Y51.7105 F2500.00
G01 X86.0889 Y51.6414 F2500.00
G01 X86.0785 Y51.5711 F2500.00
G01 X86.0750 Y51.5000 F2500.00
G01 X86.0785 Y51.4289 F2500.00
G01 X86.0889 Y51.3586 F2500.00
G01 X86.1062 Y51.2895 F2500.00
G01 X86.1307 Y51.2214 F2500.00
G01 X86.1606 Y51.1582 F2500.00
G01 X86.1972 Y51.0972 F2500.00
G01 X86.2396 Y51.0401 F2500.00
G01 X86.2873 Y50.9873 F2500.00
G01 X86.3401 Y50.9396 F2500.00
G01 X86.3972 Y50.8972 F2500.00
G01 X86.4582 Y50.8606 F2500.00
G01 X86.5226 Y50.8302 F2500.00
G01 X86.5895 Y50.8062 F2500.00
G01 X86.6586 Y50.7889 F2500.00
G01 X86.7289 Y50.7785 F2500.00
G01 X86.8000 Y50.7750 F2500.00
G01 X86.8711 Y50.7785 F2500.00
G01 X86.9414 Y50.7889 F2500.00
G01 X87.0105 Y50.8062 F2500.00
G01 X87.0786 Y50.8307 F2500.00
G01 X87.1439 Y50.8618 F2500.00
G01 X87.2028 Y50.8972 F2500.00
G01 X87.2580 Y50.9381 F2500.00
G01 X87.3127 Y50.9873 F2500.00
G01 X87.3619 Y51.0420 F2500.00
G01 X87.4028 Y51.0972 F2500.00
G01 X87.4382 Y51.1561 F2500.00
G01 X87.4698 Y51.2226 F2500.00
G01 X87.4944 Y51.2919 F2500.00
G01 X87.5111 Y51.3586 F2500.00
G01 X87.5214 Y51.4277 F2500.00
G01 X87.5249 Y51.5025 F2500.00
G01 X87.5215 Y51.5711 F2500.00
G01 X87.5111 Y51.6414 F2500.00
G01 X87.4938 Y51.7105 F2500.00
G01 X87.4707 Y51.7752 F2500.00
G01 X87.4388 Y51.8428 F2500.00
G01 X87.4028 Y51.9028 F2500.00
G01 X87.3619 Y51.9580 F2500.00
G01 X87.3118 Y52.0135 F2500.00
G01 X87.2599 Y52.0604 F2500.00
G01 X87.2038 Y52.1021 F2500.00
G01 X87.1428 Y52.1388 F2500.00
G01 X87.1041 Y52.1573 F2500.00
G01 X87.1041 Y53.4151 F2500.00
G01 X87.1535 Y53.4386 F2500.00
G01 X87.2167 Y53.4764 F2500.00
G01 X87.2758 Y53.5202 F2500.00
G01 X87.3303 Y53.5697 F2500.00
G01 X87.3798 Y53.6242 F2500.00
G01 X87.4236 Y53.6833 F2500.00
G01 X87.4614 Y53.7465 F2500.00
G01 X87.4929 Y53.8130 F2500.00
G01 X87.5177 Y53.8823 F2500.00
G01 X87.5356 Y53.9537 F2500.00
G01 X87.5464 Y54.0265 F2500.00
G01 X87.5500 Y54.1000 F2500.00
G01 X87.5464 Y54.1735 F2500.00
G01 X87.5356 Y54.2463 F2500.00
G01 X87.5177 Y54.3177 F2500.00
G01 X87.4993 Y54.3692 F2500.00
G01 X88.3551 Y55.2250 F2500.00
G01 X89.9012 Y55.2250 F2500.00
G01 X89.9073 Y55.2255 F2500.00
G01 X89.9145 Y55.2272 F2500.00
G01 X89.9214 Y55.2298 F2500.00
G01 X89.9267 Y55.2328 F2500.00
G01 X89.9317 Y55.2363 F2500.00
G01 X89.9370 Y55.2414 F2500.00
G01 X89.9409 Y55.2462 F2500.00
G01 X89.9441 Y55.2514 F2500.00
G01 X89.9466 Y55.2570 F2500.00
G01 X89.9485 Y55.2629 F2500.00
G01 X89.9496 Y55.2689 F2500.00
G01 X89.9500 Y55.2750 F2500.00
G01 X89.9500 Y57.5750 F2500.00
G01 X89.9496 Y57.5811 F2500.00
G01 X89.9482 Y57.5883 F2500.00
G01 X89.9452 Y57.5964 F2500.00
G01 X89.9416 Y57.6028 F2500.00
G01 X89.9362 Y57.6095 F2500.00
G01 X89.6354 Y57.9104 F2500.00
G01 X89.6298 Y57.9152 F2500.00
G01 X89.6236 Y57.9191 F2500.00
G01 X89.6180 Y57.9216 F2500.00
G01 X89.6121 Y57.9235 F2500.00
G01 X89.6061 Y57.9246 F2500.00
G01 X89.6000 Y57.9250 F2500.00
G01 X88.0000 Y57.9250 F2500.00
G01 X87.9915 Y57.9243 F2500.00
G01 X87.9843 Y57.9225 F2500.00
G01 X87.9775 Y57.9197 F2500.00
G01 X87.9712 Y57.9159 F2500.00
G01 X87.9655 Y57.9112 F2500.00
G01 X87.6646 Y57.6104 F2500.00
G01 X87.6598 Y57.6048 F2500.00
G01 X87.6559 Y57.5986 F2500.00
G01 X87.6534 Y57.5930 F2500.00
G01 X87.6515 Y57.5871 F2500.00
G01 X87.6504 Y57.5811 F2500.00
G01 X87.6500 Y57.5750 F2500.00
G01 X87.6500 Y55.3801 F2500.00
G01 X87.0692 Y54.7993 F2500.00
G01 X87.0177 Y54.8177 F2500.00
G01 X86.9487 Y54.8351 F2500.00
G01 X86.8759 Y54.8461 F2500.00
G01 X86.8000 Y54.8500 F2500.00
G01 X86.7253 Y54.8463 F2500.00
G01 X86.6513 Y54.8351 F2500.00
G01 X86.5823 Y54.8177 F2500.00
G01 X86.5153 Y54.7938 F2500.00
G01 X86.4465 Y54.7614 F2500.00
G01 X86.3823 Y54.7229 F2500.00
G01 X86.3242 Y54.6798 F2500.00
G01 X86.2697 Y54.6303 F2500.00
G01 X86.2202 Y54.5758 F2500.00
G01 X86.1764 Y54.5167 F2500.00
G01 X86.1386 Y54.4535 F2500.00
G01 X86.1071 Y54.3870 F2500.00
G01 X86.0823 Y54.3177 F2500.00
G01 X86.0647 Y54.2475 F2500.00
G01 X86.0536 Y54.1735 F2500.00
G01 X86.0501 Y54.1025 F2500.00
G01 X86.0539 Y54.0241 F2500.00
G01 X86.0644 Y53.9537 F2500.00
G01 X86.0823 Y53.8823 F2500.00
G01 X86.1071 Y53.8130 F2500.00
G01 X86.1380 Y53.7475 F2500.00
G01 X86.1764 Y53.6833 F2500.00
G01 X86.2187 Y53.6261 F2500.00
G01 X86.2714 Y53.5680 F2500.00
G01 X86.3242 Y53.5202 F2500.00
G01 X86.3833 Y53.4764 F2500.00
G01 X86.4465 Y53.4386 F2500.00
G01 X86.4959 Y53.4151 F2500.00
G01 X86.4959 Y52.1573 F2500.00
G00 Z1.0000
G00 X82.7773 Y56.1751
G01 F400.00
G01 Z-0.0400
G01 F2500.00
G01 X83.1701 Y55.7823 F2500.00
G01 X83.2436 Y55.7213 F2500.00
G01 X83.3220 Y55.6787 F2500.00
G01 X83.4073 Y55.6522 F2500.00
G01 X83.5016 Y55.6421 F2500.00
G01 X84.8913 Y55.6421 F2500.00
G01 X84.9865 Y55.6509 F2500.00
G01 X85.0721 Y55.6763 F2500.00
G01 X85.1511 Y55.7178 F2500.00
G01 X85.2249 Y55.7773 F2500.00
G01 X85.6177 Y56.1701 F2500.00
G01 X85.6787 Y56.2436 F2500.00
G01 X85.7213 Y56.3220 F2500.00
G01 X85.7478 Y56.4073 F2500.00
G01 X85.7579 Y56.5016 F2500.00
G01 X85.7579 Y57.2688 F2500.00
G01 X85.7587 Y57.2849 F2500.00
G01 X85.7610 Y57.3082 F2500.00
G01 X85.7584 Y57.7405 F2500.00
G01 X85.7029 Y57.7959 F2500.00
G01 X85.3500 Y57.7959 F2500.00
G01 X85.3500 Y56.5000 F2500.00
G01 X85.3496 Y56.4939 F2500.00
G01 X85.3485 Y56.4879 F2500.00
G01 X85.3462 Y56.4809 F2500.00
G01 X85.3435 Y56.4754 F2500.00
G01 X85.3394 Y56.4692 F2500.00
G01 X85.3354 Y56.4646 F2500.00
G01 X84.9354 Y56.0646 F2500.00
G01 X84.9298 Y56.0598 F2500.00
G01 X84.9236 Y56.0559 F2500.00
G01 X84.9157 Y56.0525 F2500.00
G01 X84.9085 Y56.0507 F2500.00
G01 X84.9000 Y56.0500 F2500.00
G01 X83.4988 Y56.0500 F2500.00
G01 X83.4890 Y56.0512 F2500.00
G01 X83.4797 Y56.0543 F2500.00
G01 X83.4712 Y56.0591 F2500.00
G01 X83.4646 Y56.0646 F2500.00
G01 X83.0646 Y56.4646 F2500.00
G01 X83.0598 Y56.4702 F2500.00
G01 X83.0565 Y56.4754 F2500.00
G01 X83.0538 Y56.4809 F2500.00
G01 X83.0515 Y56.4879 F2500.00
G01 X83.0504 Y56.4939 F2500.00
G01 X83.0500 Y56.5000 F2500.00
G01 X83.0500 Y57.7959 F2500.00
G01 X82.6971 Y57.7959 F2500.00
G01 X82.6416 Y57.7405 F2500.00
G01 X82.6390 Y57.3082 F2500.00
G01 X82.6413 Y57.2849 F2500.00
G01 X82.6421 Y57.2688 F2500.00
G01 X82.6421 Y56.5087 F2500.00
G01 X82.6509 Y56.4135 F2500.00
G01 X82.6763 Y56.3279 F2500.00
G01 X82.7178 Y56.2489 F2500.00
G01 X82.7773 Y56.1751 F2500.00
G00 Z1.0000
G00 X81.4470 Y56.2377
G01 F400.00
G01 Z-0.0400
G01 F2500.00
G01 X81.4500 Y56.3000 F2500.00
G01 X81.4464 Y56.3735 F2500.00
G01 X81.4356 Y56.4463 F2500.00
G01 X81.4177 Y56.5177 F2500.00
G01 X81.3929 Y56.5870 F2500.00
G01 X81.3614 Y56.6535 F2500.00
G01 X81.3236 Y56.7167 F2500.00
G01 X81.2798 Y56.7758 F2500.00
G01 X81.2303 Y56.8303 F2500.00
G01 X81.1758 Y56.8798 F2500.00
G01 X81.1167 Y56.9236 F2500.00
G01 X81.0535 Y56.9614 F2500.00
G01 X80.9870 Y56.9929 F2500.00
G01 X80.9177 Y57.0177 F2500.00
G01 X80.8463 Y57.0356 F2500.00
G01 X80.7735 Y57.0464 F2500.00
G01 X80.7000 Y57.0500 F2500.00
G01 X80.6265 Y57.0464 F2500.00
G01 X80.5537 Y57.0356 F2500.00
G01 X80.4823 Y57.0177 F2500.00
G01 X80.4130 Y56.9929 F2500.00
G01 X80.3465 Y56.9614 F2500.00
G01 X80.2833 Y56.9236 F2500.00
G01 X80.2242 Y56.8798 F2500.00
G01 X80.1697 Y56.8303 F2500.00
G01 X80.1202 Y56.7758 F2500.00
G01 X80.0764 Y56.7167 F2500.00
G01 X80.0386 Y56.6535 F2500.00
G01 X80.0071 Y56.5870 F2500.00
G01 X79.9823 Y56.5177 F2500.00
G01 X79.9644 Y56.4463 F2500.00
G01 X79.9536 Y56.3735 F2500.00
G01 X79.9500 Y56.3000 F2500.00
G01 X79.9539 Y56.2241 F2500.00
G01 X79.9644 Y56.1537 F2500.00
G01 X79.9816 Y56.0847 F2500.00
G01 X80.0071 Y56.0130 F2500.00
G01 X80.0386 Y55.9465 F2500.00
G01 X80.0778 Y55.8813 F2500.00
G01 X80.1218 Y55.8223 F2500.00
G01 X80.1697 Y55.7697 F2500.00
G01 X80.2223 Y55.7218 F2500.00
G01 X80.2833 Y55.6764 F2500.00
G01 X80.3443 Y55.6398 F2500.00
G01 X80.4153 Y55.6062 F2500.00
G01 X80.4823 Y55.5823 F2500.00
G01 X80.5537 Y55.5644 F2500.00
G01 X80.6265 Y55.5536 F2500.00
G01 X80.6988 Y55.5500 F2500.00
G01 X80.7759 Y55.5539 F2500.00
G01 X80.8463 Y55.5644 F2500.00
G01 X80.9189 Y55.5827 F2500.00
G01 X80.9870 Y55.6071 F2500.00
G01 X81.0525 Y55.6380 F2500.00
G01 X81.1156 Y55.6757 F2500.00
G01 X81.1348 Y55.6897 F2500.00
G01 X84.4959 Y52.3286 F2500.00
G01 X84.4959 Y52.1573 F2500.00
G01 X84.4572 Y52.1388 F2500.00
G01 X84.3982 Y52.1035 F2500.00
G01 X84.3410 Y52.0612 F2500.00
G01 X84.2873 Y52.0127 F2500.00
G01 X84.2388 Y51.9590 F2500.00
G01 X84.1959 Y51.9007 F2500.00
G01 X84.1606 Y51.8418 F2500.00
G01 X84.1312 Y51.7797 F2500.00
G01 X84.1062 Y51.7105 F2500.00
G01 X84.0885 Y51.6390 F2500.00
G01 X84.0783 Y51.5686 F2500.00
G01 X84.0750 Y51.5000 F2500.00
G01 X84.0783 Y51.4314 F2500.00
G01 X84.0889 Y51.3586 F2500.00
G01 X84.1062 Y51.2895 F2500.00
G01 X84.1302 Y51.2226 F2500.00
G01 X84.1618 Y51.1561 F2500.00
G01 X84.1972 Y51.0972 F2500.00
G01 X84.2381 Y51.0420 F2500.00
G01 X84.2865 Y50.9882 F2500.00
G01 X84.3401 Y50.9396 F2500.00
G01 X84.3952 Y50.8986 F2500.00
G01 X84.4604 Y50.8595 F2500.00
G01 X84.5226 Y50.8302 F2500.00
G01 X84.5895 Y50.8062 F2500.00
G01 X84.6586 Y50.7889 F2500.00
G01 X84.7289 Y50.7785 F2500.00
G01 X84.8000 Y50.7750 F2500.00
G01 X84.8711 Y50.7785 F2500.00
G01 X84.9414 Y50.7889 F2500.00
G01 X85.0081 Y50.8056 F2500.00
G01 X85.0797 Y50.8312 F2500.00
G01 X85.1418 Y50.8606 F2500.00
G01 X85.2038 Y50.8979 F2500.00
G01 X85.2599 Y50.9396 F2500.00
G01 X85.3109 Y50.9857 F2500.00
G01 X85.3604 Y51.0401 F2500.00
G01 X85.4041 Y51.0993 F2500.00
G01 X85.4394 Y51.1582 F2500.00
G01 X85.4688 Y51.2203 F2500.00
G01 X85.4938 Y51.2895 F2500.00
G01 X85.5115 Y51.3610 F2500.00
G01 X85.5215 Y51.4289 F2500.00
G01 X85.5249 Y51.4975 F2500.00
G01 X85.5215 Y51.5711 F2500.00
G01 X85.5105 Y51.6438 F2500.00
G01 X85.4938 Y51.7105 F2500.00
G01 X85.4707 Y51.7752 F2500.00
G01 X85.4394 Y51.8418 F2500.00
G01 X85.4021 Y51.9038 F2500.00
G01 X85.3588 Y51.9618 F2500.00
G01 X85.3127 Y52.0127 F2500.00
G01 X85.2609 Y52.0596 F2500.00
G01 X85.2018 Y52.1035 F2500.00
G01 X85.1428 Y52.1388 F2500.00
G01 X85.1041 Y52.1573 F2500.00
G01 X85.1041 Y52.4546 F2500.00
G01 X85.1025 Y52.4856 F2500.00
G01 X85.0977 Y52.5163 F2500.00
G01 X85.0910 Y52.5429 F2500.00
G01 X85.0819 Y52.5687 F2500.00
G01 X85.0682 Y52.5980 F2500.00
G01 X85.0522 Y52.6246 F2500.00
G01 X85.0351 Y52.6475 F2500.00
G01 X85.0151 Y52.6696 F2500.00
G01 X81.4470 Y56.2377 F2500.00
G00 Z1.0000
G00 X83.0500 Y58.9000
G01 F400.00
G01 Z-0.0400
G01 F2500.00
G01 X83.0507 Y58.9085 F2500.00
G01 X83.0534 Y58.9180 F2500.00
G01 X83.0578 Y58.9267 F2500.00
G01 X83.0638 Y58.9345 F2500.00
G01 X83.0712 Y58.9409 F2500.00
G01 X83.0797 Y58.9457 F2500.00
G01 X83.0890 Y58.9488 F2500.00
G01 X83.0975 Y58.9499 F2500.00
G01 X83.8959 Y58.9500 F2500.00
G01 X83.8959 Y59.3029 F2500.00
G01 X83.8406 Y59.3582 F2500.00
G01 X83.1084 Y59.3610 F2500.00
G01 X83.0102 Y59.3513 F2500.00
G01 X82.9239 Y59.3251 F2500.00
G01 X82.8444 Y59.2826 F2500.00
G01 X82.7746 Y59.2254 F2500.00
G01 X82.7174 Y59.1556 F2500.00
G01 X82.6749 Y59.0761 F2500.00
G01 X82.6487 Y58.9898 F2500.00
G01 X82.6390 Y58.8918 F2500.00
G01 X82.6416 Y58.4595 F2500.00
G01 X82.6971 Y58.4041 F2500.00
G01 X83.0500 Y58.4041 F2500.00
G01 X83.0500 Y58.9000 F2500.00
G00 Z1.0000
G00 X85.3000 Y58.9500
G01 F400.00
G01 Z-0.0400
G01 F2500.00
G01 X85.3085 Y58.9493 F2500.00
G01 X85.3180 Y58.9466 F2500.00
G01 X85.3257 Y58.9429 F2500.00
G01 X85.3336 Y58.9370 F2500.00
G01 X85.3394 Y58.9308 F2500.00
G01 X85.3447 Y58.9225 F2500.00
G01 X85.3482 Y58.9133 F2500.00
G01 X85.3498 Y58.9049 F2500.00
G01 X85.3500 Y58.4041 F2500.00
G01 X85.7029 Y58.4041 F2500.00
G01 X85.7584 Y58.4595 F2500.00
G01 X85.7610 Y58.8918 F2500.00
G01 X85.7513 Y58.9898 F2500.00
G01 X85.7251 Y59.0761 F2500.00
G01 X85.6826 Y59.1556 F2500.00
G01 X85.6254 Y59.2254 F2500.00
G01 X85.5556 Y59.2826 F2500.00
G01 X85.4761 Y59.3251 F2500.00
G01 X85.3898 Y59.3513 F2500.00
G01 X85.2916 Y59.3610 F2500.00
G01 X84.5594 Y59.3582 F2500.00
G01 X84.5041 Y59.3029 F2500.00
G01 X84.5041 Y58.9500 F2500.00
G01 X85.3000 Y58.9500 F2500.00
G00 Z1.0000
G00 X78.8191 Y58.8080
G01 F400.00
G01 Z-0.0400
G01 F2500.00
G01 X78.8191 Y53.8369 F2500.00
G01 X78.8209 Y53.8047 F2500.00
G01 X78.8250 Y53.7776 F2500.00
G01 X78.8316 Y53.7510 F2500.00
G01 X78.8423 Y53.7205 F2500.00
G01 X78.8562 Y53.6914 F2500.00
G01 X78.8704 Y53.6680 F2500.00
G01 X78.8866 Y53.6459 F2500.00
G01 X78.9082 Y53.6219 F2500.00
G01 X81.2451 Y51.2849 F2500.00
G01 X81.2672 Y51.2649 F2500.00
G01 X81.2922 Y51.2465 F2500.00
G01 X81.3190 Y51.2307 F2500.00
G01 X81.3438 Y51.2190 F2500.00
G01 X81.3695 Y51.2097 F2500.00
G01 X81.4008 Y51.2017 F2500.00
G01 X81.4316 Y51.1972 F2500.00
G01 X81.4602 Y51.1959 F2500.00
G01 X82.0750 Y51.1959 F2500.00
G01 X82.0752 Y50.8201 F2500.00
G01 X82.0768 Y50.8117 F2500.00
G01 X82.0793 Y50.8047 F2500.00
G01 X82.0828 Y50.7983 F2500.00
G01 X82.0880 Y50.7914 F2500.00
G01 X82.0933 Y50.7863 F2500.00
G01 X82.1004 Y50.7815 F2500.00
G01 X82.1082 Y50.7779 F2500.00
G01 X82.1152 Y50.7760 F2500.00
G01 X82.1250 Y50.7750 F2500.00
G01 X83.4750 Y50.7750 F2500.00
G01 X83.4811 Y50.7754 F2500.00
G01 X83.4883 Y50.7768 F2500.00
G01 X83.4941 Y50.7788 F2500.00
G01 X83.5007 Y50.7821 F2500.00
G01 X83.5058 Y50.7856 F2500.00
G01 X83.5104 Y50.7896 F2500.00
G01 X83.5152 Y50.7952 F2500.00
G01 X83.5185 Y50.8004 F2500.00
G01 X83.5212 Y50.8059 F2500.00
G01 X83.5235 Y50.8129 F2500.00
G01 X83.5246 Y50.8189 F2500.00
G01 X83.5250 Y50.8250 F2500.00
G01 X83.5250 Y52.1762 F2500.00
G01 X83.5246 Y52.1811 F2500.00
G01 X83.5235 Y52.1871 F2500.00
G01 X83.5221 Y52.1918 F2500.00
G01 X83.5197 Y52.1975 F2500.00
G01 X83.5166 Y52.2028 F2500.00
G01 X83.5137 Y52.2067 F2500.00
G01 X83.5104 Y52.2104 F2500.00
G01 X83.5058 Y52.2144 F2500.00
G01 X83.4986 Y52.2191 F2500.00
G01 X83.4907 Y52.2225 F2500.00
G01 X83.4835 Y52.2243 F2500.00
G01 X83.4750 Y52.2250 F2500.00
G01 X82.1250 Y52.2250 F2500.00
G01 X82.1201 Y52.2248 F2500.00
G01 X82.1140 Y52.2238 F2500.00
G01 X82.1059 Y52.2212 F2500.00
G01 X82.0993 Y52.2179 F2500.00
G01 X82.0933 Y52.2137 F2500.00
G01 X82.0880 Y52.2086 F2500.00
G01 X82.0828 Y52.2017 F2500.00
G01 X82.0793 Y52.1953 F2500.00
G01 X82.0768 Y52.1883 F2500.00
G01 X82.0752 Y52.1799 F2500.00
G01 X82.0750 Y51.8041 F2500.00
G01 X81.5861 Y51.8041 F2500.00
G01 X79.4274 Y53.9629 F2500.00
G01 X79.4274 Y58.8080 F2500.00
G01 X79.4768 Y58.8315 F2500.00
G01 X79.5378 Y58.8680 F2500.00
G01 X79.5990 Y58.9131 F2500.00
G01 X79.6536 Y58.9626 F2500.00
G01 X79.7014 Y59.0153 F2500.00
G01 X79.7468 Y59.0762 F2500.00
G01 X79.7858 Y59.1415 F2500.00
G01 X79.8161 Y59.2059 F2500.00
G01 X79.8409 Y59.2752 F2500.00
G01 X79.8592 Y59.3490 F2500.00
G01 X79.8696 Y59.4194 F2500.00
G01 X79.8732 Y59.4929 F2500.00
G01 X79.8693 Y59.5689 F2500.00
G01 X79.8588 Y59.6392 F2500.00
G01 X79.8409 Y59.7106 F2500.00
G01 X79.8152 Y59.7822 F2500.00
G01 X79.7847 Y59.8465 F2500.00
G01 X79.7468 Y59.9096 F2500.00
G01 X79.7030 Y59.9687 F2500.00
G01 X79.6553 Y60.0215 F2500.00
G01 X79.5990 Y60.0727 F2500.00
G01 X79.5378 Y60.1178 F2500.00
G01 X79.4768 Y60.1543 F2500.00
G01 X79.4114 Y60.1853 F2500.00
G01 X79.3410 Y60.2106 F2500.00
G01 X79.2696 Y60.2285 F2500.00
G01 X79.1968 Y60.2393 F2500.00
G01 X79.1232 Y60.2429 F2500.00
G01 X79.0497 Y60.2393 F2500.00
G01 X78.9769 Y60.2285 F2500.00
G01 X78.9055 Y60.2106 F2500.00
G01 X78.8362 Y60.1858 F2500.00
G01 X78.7697 Y60.1543 F2500.00
G01 X78.7066 Y60.1165 F2500.00
G01 X78.6474 Y60.0727 F2500.00
G01 X78.5929 Y60.0232 F2500.00
G01 X78.5435 Y59.9687 F2500.00
G01 X78.4996 Y59.9096 F2500.00
G01 X78.4618 Y59.8465 F2500.00
G01 X78.4308 Y59.7810 F2500.00
G01 X78.4055 Y59.7106 F2500.00
G01 X78.3877 Y59.6392 F2500.00
G01 X78.3769 Y59.5664 F2500.00
G01 X78.3732 Y59.4929 F2500.00
G01 X78.3769 Y59.4194 F2500.00
G01 X78.3877 Y59.3466 F2500.00
G01 X78.4055 Y59.2752 F2500.00
G01 X78.4299 Y59.2070 F2500.00
G01 X78.4618 Y59.1394 F2500.00
G01 X78.4996 Y59.0762 F2500.00
G01 X78.5435 Y59.0171 F2500.00
G01 X78.5921 Y58.9635 F2500.00
G01 X78.6474 Y58.9131 F2500.00
G01 X78.7066 Y58.8693 F2500.00
G01 X78.7697 Y58.8315 F2500.00
G01 X78.8191 Y58.8080 F2500.00
G00 Z1.0000
G00 X78.3500 Y62.0000
G01 F400.00
G01 Z-0.0400
G01 F2500.00
G01 X78.3493 Y61.9915 F2500.00
G01 X78.3466 Y61.9820 F2500.00
G01 X78.3422 Y61.9733 F2500.00
G01 X78.3362 Y61.9655 F2500.00
G01 X78.3288 Y61.9591 F2500.00
G01 X78.3203 Y61.9543 F2500.00
G01 X78.3110 Y61.9512 F2500.00
G01 X78.3025 Y61.9501 F2500.00
G01 X77.5041 Y61.9500 F2500.00
G01 X77.5041 Y61.5971 F2500.00
G01 X77.5594 Y61.5418 F2500.00
G01 X78.2916 Y61.5390 F2500.00
G01 X78.3898 Y61.5487 F2500.00
G01 X78.4761 Y61.5749 F2500.00
G01 X78.5556 Y61.6174 F2500.00
G01 X78.6254 Y61.6746 F2500.00
G01 X78.6826 Y61.7444 F2500.00
G01 X78.7251 Y61.8239 F2500.00
G01 X78.7513 Y61.9102 F2500.00
G01 X78.7610 Y62.0082 F2500.00
G01 X78.7584 Y62.4405 F2500.00
G01 X78.7029 Y62.4959 F2500.00
G01 X78.3500 Y62.4959 F2500.00
G01 X78.3500 Y62.0000 F2500.00
G00 Z1.0000
G00 X76.0500 Y62.4959
G01 F400.00
G01 Z-0.0400
G01 F2500.00
G01 X75.6970 Y62.4959 F2500.00
G01 X75.6416 Y62.4405 F2500.00
G01 X75.6390 Y62.0082 F2500.00
G01 X75.6487 Y61.9102 F2500.00
G01 X75.6749 Y61.8239 F2500.00
G01 X75.7174 Y61.7444 F2500.00
G01 X75.7746 Y61.6746 F2500.00
G01 X75.8444 Y61.6174 F2500.00
G01 X75.9239 Y61.5749 F2500.00
G01 X76.0102 Y61.5487 F2500.00
G01 X76.1084 Y61.5390 F2500.00
G01 X76.8406 Y61.5418 F2500.00
G01 X76.8959 Y61.5971 F2500.00
G01 X76.8959 Y61.9500 F2500.00
G01 X76.0988 Y61.9500 F2500.00
G01 X76.0927 Y61.9505 F2500.00
G01 X76.0879 Y61.9515 F2500.00
G01 X76.0786 Y61.9548 F2500.00
G01 X76.0733 Y61.9578 F2500.00
G01 X76.0692 Y61.9606 F2500.00
G01 X76.0646 Y61.9646 F2500.00
G01 X76.0613 Y61.9683 F2500.00
G01 X76.0571 Y61.9743 F2500.00
G01 X76.0534 Y61.9820 F2500.00
G01 X76.0510 Y61.9902 F2500.00
G01 X76.0500 Y61.9988 F2500.00
G01 X76.0500 Y62.4959 F2500.00
G00 Z1.0000
G00 X74.5500 Y62.0000
G01 F400.00
G01 Z-0.0400
G01 F2500.00
G01 X74.5490 Y61.9902 F2500.00
G01 X74.5466 Y61.9820 F2500.00
G01 X74.5422 Y61.9733 F2500.00
G01 X74.5362 Y61.9655 F2500.00
G01 X74.5288 Y61.9591 F2500.00
G01 X74.5203 Y61.9543 F2500.00
G01 X74.5110 Y61.9512 F2500.00
G01 X74.5025 Y61.9501 F2500.00
G01 X73.7041 Y61.9500 F2500.00
G01 X73.7041 Y61.5971 F2500.00
G01 X73.7594 Y61.5418 F2500.00
G01 X74.4916 Y61.5390 F2500.00
G01 X74.5898 Y61.5487 F2500.00
G01 X74.6761 Y61.5749 F2500.00
G01 X74.7556 Y61.6174 F2500.00
G01 X74.8254 Y61.6746 F2500.00
G01 X74.8826 Y61.7444 F2500.00
G01 X74.9251 Y61.8239 F2500.00
G01 X74.9513 Y61.9102 F2500.00
G01 X74.9610 Y62.0082 F2500.00
G01 X74.9584 Y62.4405 F2500.00
G01 X74.9030 Y62.4959 F2500.00
G01 X74.5500 Y62.4959 F2500.00
G01 X74.5500 Y62.0000 F2500.00
G00 Z1.0000
G00 X72.2500 Y62.4959
G01 F400.00
G01 Z-0.0400
G01 F2500.00
G01 X71.8971 Y62.4959 F2500.00
G01 X71.8416 Y62.4405 F2500.00
G01 X71.8390 Y62.0082 F2500.00
G01 X71.8487 Y61.9102 F2500.00
G01 X71.8749 Y61.8239 F2500.00
G01 X71.9174 Y61.7444 F2500.00
G01 X71.9746 Y61.6746 F2500.00
G01 X72.0444 Y61.6174 F2500.00
G01 X72.1239 Y61.5749 F2500.00
G01 X72.2102 Y61.5487 F2500.00
G01 X72.3084 Y61.5390 F2500.00
G01 X73.0406 Y61.5418 F2500.00
G01 X73.0959 Y61.5971 F2500.00
G01 X73.0959 Y61.9500 F2500.00
G01 X72.2988 Y61.9500 F2500.00
G01 X72.2927 Y61.9505 F2500.00
G01 X72.2879 Y61.9515 F2500.00
G01 X72.2786 Y61.9548 F2500.00
G01 X72.2733 Y61.9578 F2500.00
G01 X72.2692 Y61.9606 F2500.00
G01 X72.2646 Y61.9646 F2500.00
G01 X72.2613 Y61.9683 F2500.00
G01 X72.2571 Y61.9743 F2500.00
G01 X72.2534 Y61.9820 F2500.00
G01 X72.2510 Y61.9902 F2500.00
G01 X72.2500 Y61.9988 F2500.00
G01 X72.2500 Y62.4959 F2500.00
G00 Z1.0000
G00 X71.8421 Y64.3984
G01 F400.00
G01 Z-0.0400
G01 F2500.00
G01 X71.8421 Y63.6312 F2500.00
G01 X71.8413 Y63.6151 F2500.00
G01 X71.8390 Y63.5918 F2500.00
G01 X71.8416 Y63.1595 F2500.00
G01 X71.8600 Y63.1411 F2500.00
G01 X72.2500 Y63.1411 F2500.00
G01 X72.2500 Y64.4000 F2500.00
G01 X72.2504 Y64.4061 F2500.00
G01 X72.2515 Y64.4121 F2500.00
G01 X72.2538 Y64.4191 F2500.00
G01 X72.2565 Y64.4246 F2500.00
G01 X72.2606 Y64.4308 F2500.00
G01 X72.2646 Y64.4354 F2500.00
G01 X72.6664 Y64.8370 F2500.00
G01 X72.6743 Y64.8429 F2500.00
G01 X72.6820 Y64.8466 F2500.00
G01 X72.6902 Y64.8490 F2500.00
G01 X72.7000 Y64.8500 F2500.00
G01 X74.1000 Y64.8500 F2500.00
G01 X74.1085 Y64.8493 F2500.00
G01 X74.1180 Y64.8466 F2500.00
G01 X74.1267 Y64.8422 F2500.00
G01 X74.1317 Y64.8387 F2500.00
G01 X74.1354 Y64.8354 F2500.00
G01 X74.5354 Y64.4354 F2500.00
G01 X74.5402 Y64.4298 F2500.00
G01 X74.5435 Y64.4246 F2500.00
G01 X74.5462 Y64.4191 F2500.00
G01 X74.5485 Y64.4121 F2500.00
G01 X74.5496 Y64.4061 F2500.00
G01 X74.5500 Y64.4000 F2500.00
G01 X74.5500 Y63.1041 F2500.00
G01 X74.9030 Y63.1041 F2500.00
G01 X74.9584 Y63.1595 F2500.00
G01 X74.9610 Y63.5918 F2500.00
G01 X74.9587 Y63.6151 F2500.00
G01 X74.9579 Y63.6312 F2500.00
G01 X74.9579 Y64.3913 F2500.00
G01 X74.9491 Y64.4865 F2500.00
G01 X74.9237 Y64.5721 F2500.00
G01 X74.8822 Y64.6511 F2500.00
G01 X74.8227 Y64.7249 F2500.00
G01 X74.4299 Y65.1177 F2500.00
G01 X74.3564 Y65.1787 F2500.00
G01 X74.2780 Y65.2213 F2500.00
G01 X74.1927 Y65.2478 F2500.00
G01 X74.0984 Y65.2579 F2500.00
G01 X72.7087 Y65.2579 F2500.00
G01 X72.6135 Y65.2491 F2500.00
G01 X72.5279 Y65.2237 F2500.00
G01 X72.4489 Y65.1822 F2500.00
G01 X72.3751 Y65.1227 F2500.00
G01 X71.9823 Y64.7299 F2500.00
G01 X71.9213 Y64.6564 F2500.00
G01 X71.8787 Y64.5780 F2500.00
G01 X71.8522 Y64.4927 F2500.00
G01 X71.8421 Y64.3984 F2500.00
G00 Z1.0000
G00 X75.6421 Y64.3984
G01 F400.00
G01 Z-0.0400
G01 F2500.00
G01 X75.6421 Y63.6312 F2500.00
G01 X75.6413 Y63.6151 F2500.00
G01 X75.6390 Y63.5918 F2500.00
G01 X75.6416 Y63.1595 F2500.00
G01 X75.6970 Y63.1041 F2500.00
G01 X76.0500 Y63.1041 F2500.00
G01 X76.0500 Y64.4000 F2500.00
G01 X76.0504 Y64.4061 F2500.00
G01 X76.0515 Y64.4121 F2500.00
G01 X76.0534 Y64.4180 F2500.00
G01 X76.0565 Y64.4246 F2500.00
G01 X76.0598 Y64.4298 F2500.00
G01 X76.0646 Y64.4354 F2500.00
G01 X76.4655 Y64.8362 F2500.00
G01 X76.4733 Y64.8422 F2500.00
G01 X76.4820 Y64.8466 F2500.00
G01 X76.4902 Y64.8490 F2500.00
