(G-CODE GENERATED BY FLATCAM v8.992 - www.flatcam.org - Version Date: 2020/05/03)

(Name: multiBoard_small-PTH.drl_07_cnc)
(Type: G-code from Excellon)
(Units: MM)

(Created on Thursday, 21 May 2020 at 13:59)

(This preprocessor is the default preprocessor used by FlatCAM.)
(It is made to work with MACH3 compatible motion controllers.)


(TOOLS DIAMETER: )
(Tool: 1 -> Dia: 0.3)
(Tool: 2 -> Dia: 0.7)
(Tool: 3 -> Dia: 0.8)
(Tool: 4 -> Dia: 0.9)

(FEEDRATE Z: )
(Tool: 1 -> Feedrate: 100.0)
(Tool: 2 -> Feedrate: 100.0)
(Tool: 3 -> Feedrate: 100.0)
(Tool: 4 -> Feedrate: 100.0)

(FEEDRATE RAPIDS: )
(Tool: 1 -> Feedrate Rapids: 1500)
(Tool: 2 -> Feedrate Rapids: 1500)
(Tool: 3 -> Feedrate Rapids: 1500)
(Tool: 4 -> Feedrate Rapids: 1500)

(Z_CUT: )
(Tool: 1 -> Z_Cut: -1.8)
(Tool: 2 -> Z_Cut: -1.8)
(Tool: 3 -> Z_Cut: -1.8)
(Tool: 4 -> Z_Cut: -1.8)

(Tools Offset: )
(Tool: 2 -> Offset Z: -0.0)

(DEPTH_PER_CUT: )
(Tool: 1 -> DeptPerCut: 0.9)
(Tool: 2 -> DeptPerCut: 0.9)
(Tool: 3 -> DeptPerCut: 0.9)
(Tool: 4 -> DeptPerCut: 0.9)

(Z_MOVE: )
(Tool: 1 -> Z_Move: 2)
(Tool: 2 -> Z_Move: 2)
(Tool: 3 -> Z_Move: 2)
(Tool: 4 -> Z_Move: 2)

(Z Start: None mm)
(Z End: 2.0 mm)
(Steps per circle: 64)
(Preprocessor Excellon: default)

(X range:   61.1000 ...   89.2000  mm)
(Y range:   30.7000 ...   86.0500  mm)

(Spindle Speed: 10000.0 RPM)
G21
G90
G94



G00 Z2.0000

G01 F100.00
M03 S10000
G4 P2.0
G00 X88.8000 Y77.6500
G01 Z-0.9000
G01 Z0
G00 Z2.0000
G01 Z-1.8000
G01 Z0
G00 Z2.0000
G00 X88.8000 Y77.3000
G01 Z-0.9000
G01 Z0
G00 Z2.0000
G01 Z-1.8000
G01 Z0
G00 Z2.0000
G00 X88.8000 Y56.9000
G01 Z-0.9000
G01 Z0
G00 Z2.0000
G01 Z-1.8000
G01 Z0
G00 Z2.0000
G00 X88.8000 Y57.2500
G01 Z-0.9000
G01 Z0
G00 Z2.0000
G01 Z-1.8000
G01 Z0
G00 Z2.0000
G00 X88.8000 Y36.5000
G01 Z-0.9000
G01 Z0
G00 Z2.0000
G01 Z-1.8000
G01 Z0
G00 Z2.0000
G00 X88.8000 Y36.8500
G01 Z-0.9000
G01 Z0
G00 Z2.0000
G01 Z-1.8000
G01 Z0
G00 Z2.0000
G00 X65.3000 Y40.9250
G01 Z-0.9000
G01 Z0
G00 Z2.0000
G01 Z-1.8000
G01 Z0
G00 Z2.0000
G00 X65.3000 Y41.2750
G01 Z-0.9000
G01 Z0
G00 Z2.0000
G01 Z-1.8000
G01 Z0
G00 Z2.0000
G00 X65.3000 Y61.3250
G01 Z-0.9000
G01 Z0
G00 Z2.0000
G01 Z-1.8000
G01 Z0
G00 Z2.0000
G00 X65.3000 Y61.6750
G01 Z-0.9000
G01 Z0
G00 Z2.0000
G01 Z-1.8000
G01 Z0
G00 Z2.0000
G00 X65.3000 Y81.7250
G01 Z-0.9000
G01 Z0
G00 Z2.0000
G01 Z-1.8000
G01 Z0
G00 Z2.0000
G00 X65.3000 Y82.0750
G01 Z-0.9000
G01 Z0
G00 Z2.0000
G01 Z-1.8000
G01 Z0
G00 Z2.0000
M05
G00 Z2.00

