(G-CODE GENERATED BY FLATCAM v8.992 - www.flatcam.org - Version Date: 2020/05/03)

(Name: viaTest)
(Type: G-code from Excellon)
(Units: MM)

(Created on Sunday, 24 May 2020 at 15:43)

(This preprocessor is the default preprocessor used by FlatCAM.)
(It is made to work with MACH3 compatible motion controllers.)


(TOOLS DIAMETER: )
(Tool: 1 -> Dia: 0.3)
(Tool: 2 -> Dia: 0.7)
(Tool: 3 -> Dia: 0.8)
(Tool: 4 -> Dia: 0.9)

(FEEDRATE Z: )
(Tool: 1 -> Feedrate: 300.0)
(Tool: 2 -> Feedrate: 300.0)
(Tool: 3 -> Feedrate: 300.0)
(Tool: 4 -> Feedrate: 300.0)

(FEEDRATE RAPIDS: )
(Tool: 1 -> Feedrate Rapids: 1500)
(Tool: 2 -> Feedrate Rapids: 1500)
(Tool: 3 -> Feedrate Rapids: 1500)
(Tool: 4 -> Feedrate Rapids: 1500)

(Z_CUT: )
(Tool: 1 -> Z_Cut: -2.0)
(Tool: 2 -> Z_Cut: -2.0)
(Tool: 3 -> Z_Cut: -2.0)
(Tool: 4 -> Z_Cut: -2.0)

(Tools Offset: )
(Tool: 3 -> Offset Z: -0.0)

(Z_MOVE: )
(Tool: 1 -> Z_Move: 2.0)
(Tool: 2 -> Z_Move: 2.0)
(Tool: 3 -> Z_Move: 2.0)
(Tool: 4 -> Z_Move: 2.0)

(Z Start: None mm)
(Z End: 2.0 mm)
(Steps per circle: 64)
(Preprocessor Excellon: default)

(X range:   61.1000 ...   89.2000  mm)
(Y range:   30.7000 ...   86.0500  mm)

(Spindle Speed: 10000.0 RPM)
G21
G90
G94



G00 Z2.0000

G01 F300.00
M03 S10000
G4 P2.0
G00 X61.5000 Y37.2000
G01 Z-2.0000
G01 Z0
G00 Z2.0000
G00 X61.5000 Y35.2000
G01 Z-2.0000
G01 Z0
G00 Z2.0000
G00 X61.5000 Y33.2000
G01 Z-2.0000
G01 Z0
G00 Z2.0000
G00 X61.5000 Y31.2000
G01 Z-2.0000
G01 Z0
G00 Z2.0000
G00 X82.8000 Y31.1000
G01 Z-2.0000
G01 Z0
G00 Z2.0000
G00 X84.8000 Y31.1000
G01 Z-2.0000
G01 Z0
G00 Z2.0000
G00 X86.8000 Y31.1000
G01 Z-2.0000
G01 Z0
G00 Z2.0000
G00 X88.8000 Y31.1000
G01 Z-2.0000
G01 Z0
G00 Z2.0000
G00 X82.8000 Y51.5000
G01 Z-2.0000
G01 Z0
G00 Z2.0000
G00 X84.8000 Y51.5000
G01 Z-2.0000
G01 Z0
G00 Z2.0000
G00 X86.8000 Y51.5000
G01 Z-2.0000
G01 Z0
G00 Z2.0000
G00 X88.8000 Y51.5000
G01 Z-2.0000
G01 Z0
G00 Z2.0000
G00 X88.8000 Y71.9000
G01 Z-2.0000
G01 Z0
G00 Z2.0000
G00 X86.8000 Y71.9000
G01 Z-2.0000
G01 Z0
G00 Z2.0000
G00 X84.8000 Y71.9000
G01 Z-2.0000
G01 Z0
G00 Z2.0000
G00 X82.8000 Y71.9000
G01 Z-2.0000
G01 Z0
G00 Z2.0000
G00 X61.5000 Y85.0000
G01 Z-2.0000
G01 Z0
G00 Z2.0000
G00 X61.5000 Y83.0000
G01 Z-2.0000
G01 Z0
G00 Z2.0000
G00 X61.5000 Y78.0000
G01 Z-2.0000
G01 Z0
G00 Z2.0000
G00 X61.5000 Y76.0000
G01 Z-2.0000
G01 Z0
G00 Z2.0000
G00 X61.5000 Y74.0000
G01 Z-2.0000
G01 Z0
G00 Z2.0000
G00 X61.5000 Y72.0000
G01 Z-2.0000
G01 Z0
G00 Z2.0000
G00 X61.5000 Y64.6000
G01 Z-2.0000
G01 Z0
G00 Z2.0000
G00 X61.5000 Y62.6000
G01 Z-2.0000
G01 Z0
G00 Z2.0000
G00 X61.5000 Y57.6000
G01 Z-2.0000
G01 Z0
G00 Z2.0000
G00 X61.5000 Y55.6000
G01 Z-2.0000
G01 Z0
G00 Z2.0000
G00 X61.5000 Y53.6000
G01 Z-2.0000
G01 Z0
G00 Z2.0000
G00 X61.5000 Y51.6000
G01 Z-2.0000
G01 Z0
G00 Z2.0000
G00 X61.5000 Y44.2000
G01 Z-2.0000
G01 Z0
G00 Z2.0000
G00 X61.5000 Y42.2000
G01 Z-2.0000
G01 Z0
G00 Z2.0000
M05
G00 Z2.00

