(G-CODE GENERATED BY FLATCAM v8.992 - www.flatcam.org - Version Date: 2020/05/03)

(Name: MSP430G2553-B_Cu.gbr_iso_cnc)
(Type: G-code from Geometry)
(Units: MM)

(Created on Friday, 29 May 2020 at 10:30)

(This preprocessor is the default preprocessor used by FlatCAM.)
(It is made to work with MACH3 compatible motion controllers.)

(TOOL DIAMETER: 0.1 mm)
(Feedrate_XY: 2500.0 mm/min)
(Feedrate_Z: 400.0 mm/min)
(Feedrate rapids 1500.0 mm/min)

(Z_Cut: -0.04 mm)
(Z_Move: 1.0 mm)
(Z Start: None mm)
(Z End: 15.0 mm)
(Steps per circle: 64)
(Preprocessor Geometry: default)

(X range:   55.0583 ...   84.9250  mm)
(Y range:   35.0750 ...   65.6750  mm)

(Spindle Speed: None RPM)
G21
G90
G94



G01 F2500.00
G00 Z1.0000

M03
G00 X56.6526 Y48.4100
G01 F400.00
G01 Z-0.0400
G01 F2500.00
G01 X56.3197 Y48.4100
G01 X56.2711 Y48.2953
G01 X56.3502 Y48.1044
G01 X56.4906 Y47.8915
G01 X56.6697 Y47.7104
G01 X56.8807 Y47.5676
G01 X57.0859 Y47.4811
G01 X57.2000 Y47.5286
G01 X57.2000 Y47.8626
G01 X57.1545 Y47.8790
G01 X57.0768 Y47.9157
G01 X57.0010 Y47.9610
G01 X56.9290 Y48.0143
G01 X56.8636 Y48.0736
G01 X56.8043 Y48.1390
G01 X56.7510 Y48.2110
G01 X56.7057 Y48.2868
G01 X56.6690 Y48.3645
G01 X56.6526 Y48.4100
G00 Z1.0000
G00 X57.2000 Y49.5574
G01 F400.00
G01 Z-0.0400
G01 F2500.00
G01 X57.2000 Y49.8914
G01 X57.0859 Y49.9389
G01 X56.8807 Y49.8524
G01 X56.6697 Y49.7096
G01 X56.4906 Y49.5285
G01 X56.3502 Y49.3156
G01 X56.2711 Y49.1247
G01 X56.3197 Y49.0100
G01 X56.6526 Y49.0100
G01 X56.6690 Y49.0555
G01 X56.7057 Y49.1332
G01 X56.7510 Y49.2090
G01 X56.8043 Y49.2810
G01 X56.8636 Y49.3464
G01 X56.9290 Y49.4057
G01 X57.0010 Y49.4590
G01 X57.0768 Y49.5043
G01 X57.1545 Y49.5410
G01 X57.2000 Y49.5574
G00 Z1.0000
G00 X57.8000 Y49.5574
G01 F400.00
G01 Z-0.0400
G01 F2500.00
G01 X57.8455 Y49.5410
G01 X57.9232 Y49.5043
G01 X57.9990 Y49.4590
G01 X58.0710 Y49.4057
G01 X58.1364 Y49.3464
G01 X58.1957 Y49.2810
G01 X58.2490 Y49.2090
G01 X58.2943 Y49.1332
G01 X58.3310 Y49.0555
G01 X58.3474 Y49.0100
G01 X58.6803 Y49.0100
G01 X58.7289 Y49.1247
G01 X58.6498 Y49.3156
G01 X58.5094 Y49.5285
G01 X58.3303 Y49.7096
G01 X58.1193 Y49.8524
G01 X57.9141 Y49.9389
G01 X57.8000 Y49.8914
G01 X57.8000 Y49.5574
G00 Z1.0000
G00 X58.3474 Y48.4100
G01 F400.00
G01 Z-0.0400
G01 F2500.00
G01 X58.3310 Y48.3645
G01 X58.2943 Y48.2868
G01 X58.2490 Y48.2110
G01 X58.1957 Y48.1390
G01 X58.1364 Y48.0736
G01 X58.0710 Y48.0143
G01 X57.9990 Y47.9610
G01 X57.9232 Y47.9157
G01 X57.8455 Y47.8790
G01 X57.8000 Y47.8626
G01 X57.8000 Y47.5286
G01 X57.9141 Y47.4811
G01 X58.1193 Y47.5676
G01 X58.3303 Y47.7104
G01 X58.5094 Y47.8915
G01 X58.6498 Y48.1044
G01 X58.7289 Y48.2953
G01 X58.6803 Y48.4100
G01 X58.3474 Y48.4100
G00 Z1.0000
G00 X56.6000 Y52.1000
G01 F400.00
G01 Z-0.0400
G01 F2500.00
G01 X56.6000 Y50.3988
G01 X56.6005 Y50.3927
G01 X56.6018 Y50.3867
G01 X56.6043 Y50.3797
G01 X56.6071 Y50.3743
G01 X56.6106 Y50.3692
G01 X56.6146 Y50.3646
G01 X56.6192 Y50.3606
G01 X56.6243 Y50.3571
G01 X56.6297 Y50.3543
G01 X56.6367 Y50.3518
G01 X56.6427 Y50.3505
G01 X56.6500 Y50.3500
G01 X58.3500 Y50.3500
G01 X58.3585 Y50.3507
G01 X58.3668 Y50.3529
G01 X58.3746 Y50.3565
G01 X58.3808 Y50.3606
G01 X58.3870 Y50.3664
G01 X58.3916 Y50.3722
G01 X58.3957 Y50.3797
G01 X58.3985 Y50.3879
G01 X58.3999 Y50.3963
G01 X58.4000 Y50.8999
G01 X59.6500 Y50.8998
G01 X59.6500 Y50.8738
G01 X59.6519 Y50.8346
G01 X59.6584 Y50.7909
G01 X59.6691 Y50.7493
G01 X59.6824 Y50.7124
G01 X59.6996 Y50.6757
G01 X59.7230 Y50.6369
G01 X59.7465 Y50.6054
G01 X59.7728 Y50.5763
G01 X59.8054 Y50.5465
G01 X59.8399 Y50.5210
G01 X59.8747 Y50.5002
G01 X59.9146 Y50.4815
G01 X59.9540 Y50.4676
G01 X59.9921 Y50.4582
G01 X60.0309 Y50.4523
G01 X60.0750 Y50.4500
G01 X60.3499 Y50.4500
G01 X60.3499 Y50.3475
G01 X60.3515 Y50.3157
G01 X60.3571 Y50.2793
G01 X60.3657 Y50.2460
G01 X60.3765 Y50.2160
G01 X60.3901 Y50.1871
G01 X60.4089 Y50.1555
G01 X60.4286 Y50.1288
G01 X60.4524 Y50.1024
G01 X61.1654 Y49.3894
G01 X61.1472 Y49.3847
G01 X61.1171 Y49.3740
G01 X61.0839 Y49.3582
G01 X61.0555 Y49.3411
G01 X61.0298 Y49.3222
G01 X61.0033 Y49.2985
G01 X59.5046 Y47.7998
G01 X59.4975 Y47.7999
G01 X59.4461 Y47.7974
G01 X59.3927 Y47.7894
G01 X59.3403 Y47.7763
G01 X59.2873 Y47.7571
G01 X59.2407 Y47.7351
G01 X59.1965 Y47.7086
G01 X59.1530 Y47.6767
G01 X59.1111 Y47.6389
G01 X59.0741 Y47.5980
G01 X59.0427 Y47.5556
G01 X59.0149 Y47.5093
G01 X58.9919 Y47.4605
G01 X58.9737 Y47.4097
G01 X58.9606 Y47.3573
G01 X58.9526 Y47.3039
G01 X58.9500 Y47.2500
G01 X58.9526 Y47.1961
G01 X58.9606 Y47.1427
G01 X58.9737 Y47.0903
G01 X58.9919 Y47.0395
G01 X59.0149 Y46.9907
G01 X59.0427 Y46.9444
G01 X59.0748 Y46.9011
G01 X59.1111 Y46.8611
G01 X59.1511 Y46.8248
G01 X59.1944 Y46.7927
G01 X59.2386 Y46.7662
G01 X59.2918 Y46.7410
G01 X59.3403 Y46.7237
G01 X59.3927 Y46.7106
G01 X59.4461 Y46.7026
G01 X59.5000 Y46.7000
G01 X59.5539 Y46.7026
G01 X59.6073 Y46.7106
G01 X59.6597 Y46.7237
G01 X59.7082 Y46.7410
G01 X59.7614 Y46.7662
G01 X59.8056 Y46.7927
G01 X59.8489 Y46.8248
G01 X59.8906 Y46.8629
G01 X59.9252 Y46.9011
G01 X59.9559 Y46.9424
G01 X59.9851 Y46.9907
G01 X60.0090 Y47.0418
G01 X60.0263 Y47.0903
G01 X60.0389 Y47.1403
G01 X60.0474 Y47.1961
G01 X60.0499 Y47.2525
G01 X60.0474 Y47.3039
G01 X60.0412 Y47.3460
G01 X61.2000 Y48.5048
G01 X61.2000 Y47.4000
G01 X61.2005 Y47.3893
G01 X61.2020 Y47.3800
G01 X61.2051 Y47.3684
G01 X61.3051 Y47.0684
G01 X61.3087 Y47.0592
G01 X61.3137 Y47.0494
G01 X61.3175 Y47.0434
G01 X61.3219 Y47.0375
G01 X61.3293 Y47.0293
G01 X61.5293 Y46.8293
G01 X61.5363 Y46.8229
G01 X61.5428 Y46.8179
G01 X61.5540 Y46.8112
G01 X61.5603 Y46.8082
G01 X61.5692 Y46.8048
G01 X61.5783 Y46.8024
G01 X61.5853 Y46.8011
G01 X61.9876 Y46.7507
G01 X61.9965 Y46.7500
G01 X62.0048 Y46.7501
G01 X62.0124 Y46.7507
G01 X62.4124 Y46.8007
G01 X62.4194 Y46.8019
G01 X62.4308 Y46.8048
G01 X62.4418 Y46.8092
G01 X62.4481 Y46.8123
G01 X62.4552 Y46.8166
G01 X62.4655 Y46.8245
G01 X62.4707 Y46.8293
G01 X62.6707 Y47.0293
G01 X62.6770 Y47.0361
G01 X62.6826 Y47.0435
G01 X62.6874 Y47.0514
G01 X62.6916 Y47.0597
G01 X62.6949 Y47.0684
G01 X62.7953 Y47.3696
G01 X62.7982 Y47.3813
G01 X62.7995 Y47.3893
G01 X62.8000 Y47.3987
G01 X62.8000 Y49.6762
G01 X62.7980 Y49.7167
G01 X62.7918 Y49.7579
G01 X62.7817 Y49.7984
G01 X62.7667 Y49.8399
G01 X62.7498 Y49.8753
G01 X62.7297 Y49.9090
G01 X62.7050 Y49.9427
G01 X62.6755 Y49.9755
G01 X62.6446 Y50.0035
G01 X62.6090 Y50.0297
G01 X62.5753 Y50.0498
G01 X62.5399 Y50.0667
G01 X62.4984 Y50.0817
G01 X62.4567 Y50.0921
G01 X62.4167 Y50.0980
G01 X62.3750 Y50.1000
G01 X61.6238 Y50.1000
G01 X61.5833 Y50.0980
G01 X61.5421 Y50.0918
G01 X61.5016 Y50.0817
G01 X61.4735 Y50.0717
G01 X61.0952 Y50.4500
G01 X62.3500 Y50.4500
G01 X62.3594 Y50.4504
G01 X62.3713 Y50.4523
G01 X62.3816 Y50.4551
G01 X62.6828 Y50.5555
G01 X62.6908 Y50.5587
G01 X62.6995 Y50.5631
G01 X62.7078 Y50.5684
G01 X62.7165 Y50.5753
G01 X62.9216 Y50.7801
G01 X62.9271 Y50.7863
G01 X62.9327 Y50.7938
G01 X62.9377 Y50.8019
G01 X62.9418 Y50.8103
G01 X62.9452 Y50.8192
G01 X62.9471 Y50.8260
G01 X62.9493 Y50.8376
G01 X62.9993 Y51.2376
G01 X62.9999 Y51.2452
G01 X63.0000 Y51.2521
G01 X62.9993 Y51.2624
G01 X62.9493 Y51.6624
G01 X62.9471 Y51.6740
G01 X62.9452 Y51.6808
G01 X62.9418 Y51.6897
G01 X62.9377 Y51.6981
G01 X62.9327 Y51.7062
G01 X62.9271 Y51.7137
G01 X62.9216 Y51.7199
G01 X62.7207 Y51.9207
G01 X62.7139 Y51.9270
G01 X62.7065 Y51.9326
G01 X62.6986 Y51.9374
G01 X62.6903 Y51.9416
G01 X62.6816 Y51.9449
G01 X62.3816 Y52.0449
G01 X62.3687 Y52.0482
G01 X62.3607 Y52.0495
G01 X62.3527 Y52.0500
G01 X60.0750 Y52.0500
G01 X60.0346 Y52.0481
G01 X59.9921 Y52.0418
G01 X59.9516 Y52.0317
G01 X59.9124 Y52.0176
G01 X59.8747 Y51.9998
G01 X59.8389 Y51.9784
G01 X59.8054 Y51.9535
G01 X59.7745 Y51.9255
G01 X59.7473 Y51.8956
G01 X59.7216 Y51.8611
G01 X59.7002 Y51.8253
G01 X59.6824 Y51.7876
G01 X59.6687 Y51.7495
G01 X59.6582 Y51.7079
G01 X59.6522 Y51.6679
G01 X59.6500 Y51.6262
G01 X59.6500 Y51.6001
G01 X58.4000 Y51.6002
G01 X58.3999 Y52.1037
G01 X58.3988 Y52.1110
G01 X58.3966 Y52.1180
G01 X58.3929 Y52.1257
G01 X58.3887 Y52.1317
G01 X58.3836 Y52.1370
G01 X58.3778 Y52.1416
G01 X58.3714 Y52.1452
G01 X58.3633 Y52.1482
G01 X58.3561 Y52.1496
G01 X58.3500 Y52.1500
G01 X56.6488 Y52.1500
G01 X56.6390 Y52.1488
G01 X56.6297 Y52.1457
G01 X56.6212 Y52.1409
G01 X56.6146 Y52.1354
G01 X56.6084 Y52.1278
G01 X56.6038 Y52.1191
G01 X56.6010 Y52.1098
G01 X56.6000 Y52.1000
G00 Z1.0000
G00 X56.4988 Y52.0951
G01 F400.00
G01 Z-0.0400
G01 F2500.00
G01 X56.4988 Y50.4049
G01 X56.5022 Y50.3706
G01 X56.5108 Y50.3423
G01 X56.5247 Y50.3163
G01 X56.5434 Y50.2934
G01 X56.5663 Y50.2747
G01 X56.5923 Y50.2608
G01 X56.6206 Y50.2522
G01 X56.6549 Y50.2488
G01 X58.3451 Y50.2488
G01 X58.3794 Y50.2522
G01 X58.4077 Y50.2608
G01 X58.4337 Y50.2747
G01 X58.4566 Y50.2934
G01 X58.4753 Y50.3163
G01 X58.4892 Y50.3423
G01 X58.4978 Y50.3706
G01 X58.5012 Y50.4049
G01 X58.5012 Y50.7000
G01 X58.5020 Y50.7122
G01 X58.5031 Y50.7195
G01 X58.5048 Y50.7267
G01 X58.5083 Y50.7371
G01 X58.5130 Y50.7472
G01 X58.5187 Y50.7566
G01 X58.5255 Y50.7653
G01 X58.5305 Y50.7707
G01 X58.5359 Y50.7757
G01 X58.5456 Y50.7832
G01 X58.5551 Y50.7888
G01 X58.5652 Y50.7933
G01 X58.5722 Y50.7957
G01 X58.5793 Y50.7976
G01 X58.5902 Y50.7994
G01 X58.6012 Y50.8000
G01 X59.4768 Y50.8000
G01 X59.4867 Y50.7995
G01 X59.4952 Y50.7983
G01 X59.5059 Y50.7957
G01 X59.5140 Y50.7929
G01 X59.5229 Y50.7888
G01 X59.5303 Y50.7845
G01 X59.5422 Y50.7757
G01 X59.5484 Y50.7698
G01 X59.5549 Y50.7625
G01 X59.5600 Y50.7556
G01 X59.5639 Y50.7493
G01 X59.5697 Y50.7371
G01 X59.5726 Y50.7290
G01 X59.5893 Y50.6738
G01 X59.6379 Y50.5829
G01 X59.7033 Y50.5033
G01 X59.7829 Y50.4379
G01 X59.8738 Y50.3893
G01 X59.9724 Y50.3594
G01 X60.0799 Y50.3488
G01 X60.1585 Y50.3488
G01 X60.1671 Y50.3483
G01 X60.1744 Y50.3473
G01 X60.1875 Y50.3441
G01 X60.1956 Y50.3412
G01 X60.2034 Y50.3376
G01 X60.2139 Y50.3313
G01 X60.2208 Y50.3261
G01 X60.2263 Y50.3212
G01 X60.2338 Y50.3132
G01 X60.2405 Y50.3044
G01 X60.2455 Y50.2959
G01 X60.2502 Y50.2859
G01 X60.2537 Y50.2755
G01 X60.2554 Y50.2683
G01 X60.2563 Y50.2624
G01 X60.2823 Y50.1770
G01 X60.3240 Y50.0988
G01 X60.3803 Y50.0303
G01 X60.3946 Y50.0185
G01 X60.4009 Y50.0127
G01 X60.9174 Y49.4962
G01 X60.9240 Y49.4890
G01 X60.9291 Y49.4821
G01 X60.9360 Y49.4705
G01 X60.9391 Y49.4638
G01 X60.9424 Y49.4545
G01 X60.9448 Y49.4450
G01 X60.9459 Y49.4378
G01 X60.9467 Y49.4243
G01 X60.9462 Y49.4157
G01 X60.9450 Y49.4072
G01 X60.9416 Y49.3941
G01 X60.9391 Y49.3872
G01 X60.9349 Y49.3784
G01 X60.9298 Y49.3699
G01 X60.9255 Y49.3640
G01 X60.9136 Y49.3500
G01 X59.4911 Y47.9274
G01 X59.4827 Y47.9202
G01 X59.4768 Y47.9159
G01 X59.4705 Y47.9120
G01 X59.4606 Y47.9071
G01 X59.4514 Y47.9037
G01 X59.4407 Y47.9009
G01 X59.3104 Y47.8750
G01 X59.1921 Y47.8260
G01 X59.0857 Y47.7549
G01 X58.9951 Y47.6643
G01 X58.9240 Y47.5579
G01 X58.8750 Y47.4396
G01 X58.8500 Y47.3140
G01 X58.8500 Y47.1860
G01 X58.8750 Y47.0604
G01 X58.9240 Y46.9421
G01 X58.9951 Y46.8357
G01 X59.0857 Y46.7451
G01 X59.1921 Y46.6740
G01 X59.3104 Y46.6250
G01 X59.4360 Y46.6000
G01 X59.5640 Y46.6000
G01 X59.6896 Y46.6250
G01 X59.8079 Y46.6740
G01 X59.9143 Y46.7451
G01 X60.0049 Y46.8357
G01 X60.0760 Y46.9421
G01 X60.1250 Y47.0604
G01 X60.1500 Y47.1860
G01 X60.1500 Y47.2734
G01 X60.1505 Y47.2820
G01 X60.1517 Y47.2905
G01 X60.1543 Y47.3012
G01 X60.1586 Y47.3127
G01 X60.1618 Y47.3193
G01 X60.1655 Y47.3257
G01 X60.1719 Y47.3347
G01 X60.1793 Y47.3429
G01 X60.9302 Y48.0938
G01 X60.9365 Y48.0995
G01 X60.9444 Y48.1054
G01 X60.9528 Y48.1104
G01 X60.9606 Y48.1141
G01 X60.9698 Y48.1175
G01 X60.9781 Y48.1197
G01 X60.9926 Y48.1219
G01 X61.0000 Y48.1222
G01 X61.0098 Y48.1217
G01 X61.0195 Y48.1203
G01 X61.0290 Y48.1179
G01 X61.0383 Y48.1146
G01 X61.0472 Y48.1104
G01 X61.0556 Y48.1054
G01 X61.0615 Y48.1010
G01 X61.0724 Y48.0911
G01 X61.0781 Y48.0847
G01 X61.0838 Y48.0767
G01 X61.0882 Y48.0693
G01 X61.0924 Y48.0605
G01 X61.0957 Y48.0512
G01 X61.0981 Y48.0417
G01 X61.0995 Y48.0320
G01 X61.1000 Y48.0222
G01 X61.1000 Y47.4049
G01 X61.1014 Y47.3909
G01 X61.1018 Y47.3776
G01 X61.1043 Y47.3613
G01 X61.1079 Y47.3485
G01 X61.1108 Y47.3352
G01 X61.2087 Y47.0414
G01 X61.2147 Y47.0260
G01 X61.2216 Y47.0125
G01 X61.2266 Y47.0013
G01 X61.2327 Y46.9914
G01 X61.2420 Y46.9795
G01 X61.2491 Y46.9695
G01 X61.2598 Y46.9574
G01 X61.4551 Y46.7621
G01 X61.4601 Y46.7579
G01 X61.4677 Y46.7507
G01 X61.4798 Y46.7418
G01 X61.4891 Y46.7342
G01 X61.4992 Y46.7278
G01 X61.5128 Y46.7214
G01 X61.5234 Y46.7158
G01 X61.5346 Y46.7115
G01 X61.5492 Y46.7079
G01 X61.5606 Y46.7044
G01 X61.5768 Y46.7014
G01 X61.9703 Y46.6522
G01 X61.9823 Y46.6512
G01 X61.9976 Y46.6514
G01 X62.0149 Y46.6510
G01 X62.0264 Y46.6518
G01 X62.4199 Y46.7010
G01 X62.4263 Y46.7023
G01 X62.4367 Y46.7039
G01 X62.4511 Y46.7080
G01 X62.4628 Y46.7106
G01 X62.4740 Y46.7148
G01 X62.4874 Y46.7216
G01 X62.4984 Y46.7264
G01 X62.5086 Y46.7327
G01 X62.5180 Y46.7401
G01 X62.5302 Y46.7488
G01 X62.5426 Y46.7598
G01 X62.7379 Y46.9551
G01 X62.7419 Y46.9599
G01 X62.7491 Y46.9674
G01 X62.7581 Y46.9796
G01 X62.7658 Y46.9891
G01 X62.7720 Y46.9989
G01 X62.7784 Y47.0126
G01 X62.7842 Y47.0234
G01 X62.7902 Y47.0383
G01 X62.8882 Y47.3321
G01 X62.8913 Y47.3458
G01 X62.8951 Y47.3585
G01 X62.8979 Y47.3749
G01 X62.8985 Y47.3881
G01 X62.9000 Y47.4017
G01 X62.9000 Y48.4127
G01 X62.9012 Y48.4299
G01 X62.9012 Y49.6701
G01 X62.8906 Y49.7776
G01 X62.8607 Y49.8762
G01 X62.8121 Y49.9671
G01 X62.7467 Y50.0467
G01 X62.6671 Y50.1121
G01 X62.5762 Y50.1607
G01 X62.4769 Y50.1908
G01 X62.4690 Y50.1937
G01 X62.4623 Y50.1968
G01 X62.4508 Y50.2035
G01 X62.4422 Y50.2101
G01 X62.4368 Y50.2151
G01 X62.4318 Y50.2204
G01 X62.4251 Y50.2290
G01 X62.4193 Y50.2383
G01 X62.4142 Y50.2493
G01 X62.4117 Y50.2561
G01 X62.4098 Y50.2631
G01 X62.4077 Y50.2751
G01 X62.4071 Y50.2860
G01 X62.4075 Y50.2945
G01 X62.4084 Y50.3017
G01 X62.4109 Y50.3136
G01 X62.4150 Y50.3250
G01 X62.4181 Y50.3316
G01 X62.4216 Y50.3380
G01 X62.4285 Y50.3480
G01 X62.4357 Y50.3562
G01 X62.4419 Y50.3620
G01 X62.4476 Y50.3665
G01 X62.4578 Y50.3732
G01 X62.4665 Y50.3775
G01 X62.4755 Y50.3810
G01 X62.7086 Y50.4587
G01 X62.7240 Y50.4647
G01 X62.7375 Y50.4716
G01 X62.7487 Y50.4766
G01 X62.7586 Y50.4827
G01 X62.7705 Y50.4920
G01 X62.7805 Y50.4991
G01 X62.7926 Y50.5098
G01 X62.9879 Y50.7051
G01 X62.9921 Y50.7101
G01 X62.9993 Y50.7177
G01 X63.0082 Y50.7298
G01 X63.0158 Y50.7391
G01 X63.0222 Y50.7492
G01 X63.0286 Y50.7628
G01 X63.0342 Y50.7734
G01 X63.0385 Y50.7846
G01 X63.0421 Y50.7992
G01 X63.0456 Y50.8106
G01 X63.0486 Y50.8268
G01 X63.0978 Y51.2203
G01 X63.0988 Y51.2323
G01 X63.0986 Y51.2476
G01 X63.0990 Y51.2649
G01 X63.0982 Y51.2764
G01 X63.0490 Y51.6699
G01 X63.0477 Y51.6763
G01 X63.0461 Y51.6867
G01 X63.0428 Y51.6982
G01 X63.0394 Y51.7128
G01 X63.0352 Y51.7240
G01 X63.0298 Y51.7347
G01 X63.0236 Y51.7484
G01 X63.0173 Y51.7586
G01 X63.0099 Y51.7680
G01 X63.0012 Y51.7802
G01 X62.9902 Y51.7926
G01 X62.7949 Y51.9879
G01 X62.7826 Y51.9991
G01 X62.7727 Y52.0063
G01 X62.7609 Y52.0158
G01 X62.7511 Y52.0220
G01 X62.7400 Y52.0271
G01 X62.7266 Y52.0342
G01 X62.7117 Y52.0402
G01 X62.4179 Y52.1382
G01 X62.4042 Y52.1413
G01 X62.3915 Y52.1451
G01 X62.3751 Y52.1479
G01 X62.3619 Y52.1485
G01 X62.3483 Y52.1500
G01 X61.3373 Y52.1500
G01 X61.3201 Y52.1512
G01 X60.0799 Y52.1512
G01 X59.9724 Y52.1406
G01 X59.8738 Y52.1107
G01 X59.7829 Y52.0621
G01 X59.7033 Y51.9967
G01 X59.6379 Y51.9171
G01 X59.5893 Y51.8262
G01 X59.5718 Y51.7686
G01 X59.5693 Y51.7617
G01 X59.5662 Y51.7550
G01 X59.5607 Y51.7455
G01 X59.5549 Y51.7375
G01 X59.5493 Y51.7310
G01 X59.5384 Y51.7212
G01 X59.5324 Y51.7168
G01 X59.5240 Y51.7118
G01 X59.5151 Y51.7076
G01 X59.5059 Y51.7043
G01 X59.4964 Y51.7019
G01 X59.4891 Y51.7008
G01 X59.4768 Y51.7000
G01 X58.6000 Y51.7000
G01 X58.5914 Y51.7005
G01 X58.5817 Y51.7019
G01 X58.5722 Y51.7043
G01 X58.5652 Y51.7067
G01 X58.5530 Y51.7124
G01 X58.5456 Y51.7168
G01 X58.5378 Y51.7227
G01 X58.5305 Y51.7293
G01 X58.5247 Y51.7356
G01 X58.5167 Y51.7465
G01 X58.5130 Y51.7528
G01 X58.5088 Y51.7617
G01 X58.5055 Y51.7710
G01 X58.5036 Y51.7781
G01 X58.5018 Y51.7890
G01 X58.5012 Y51.8000
G01 X58.5012 Y52.0951
G01 X58.4978 Y52.1294
G01 X58.4892 Y52.1577
G01 X58.4753 Y52.1837
G01 X58.4566 Y52.2066
G01 X58.4337 Y52.2253
G01 X58.4077 Y52.2392
G01 X58.3794 Y52.2478
G01 X58.3451 Y52.2512
G01 X56.6549 Y52.2512
G01 X56.6206 Y52.2478
G01 X56.5923 Y52.2392
G01 X56.5663 Y52.2253
G01 X56.5434 Y52.2066
G01 X56.5247 Y52.1837
G01 X56.5108 Y52.1577
G01 X56.5022 Y52.1294
G01 X56.4988 Y52.0951
G00 Z1.0000
G00 X56.6500 Y54.8500
G01 F400.00
G01 Z-0.0400
G01 F2500.00
G01 X58.3500 Y54.8500
G01 X58.3598 Y54.8510
G01 X58.3657 Y54.8525
G01 X58.3703 Y54.8543
G01 X58.3788 Y54.8591
G01 X58.3862 Y54.8655
G01 X58.3922 Y54.8733
G01 X58.3966 Y54.8820
G01 X58.3990 Y54.8902
G01 X58.4000 Y54.9000
G01 X58.4000 Y56.6000
G01 X58.3990 Y56.6098
G01 X58.3975 Y56.6157
G01 X58.3957 Y56.6203
G01 X58.3909 Y56.6288
G01 X58.3845 Y56.6362
G01 X58.3767 Y56.6422
G01 X58.3680 Y56.6466
G01 X58.3598 Y56.6490
G01 X58.3500 Y56.6500
G01 X56.6500 Y56.6500
G01 X56.6402 Y56.6490
G01 X56.6309 Y56.6462
G01 X56.6222 Y56.6416
G01 X56.6173 Y56.6379
G01 X56.6138 Y56.6345
G01 X56.6078 Y56.6267
G01 X56.6038 Y56.6191
G01 X56.6010 Y56.6098
G01 X56.6000 Y56.6000
G01 X56.6000 Y54.8988
G01 X56.6012 Y54.8890
G01 X56.6043 Y54.8797
G01 X56.6091 Y54.8712
G01 X56.6146 Y54.8646
G01 X56.6222 Y54.8584
G01 X56.6309 Y54.8538
G01 X56.6402 Y54.8510
G01 X56.6500 Y54.8500
G00 Z1.0000
G00 X58.0035 Y57.5442
G01 F400.00
G01 Z-0.0400
G01 F2500.00
G01 X66.5746 Y48.9731
G01 X66.5938 Y48.9559
G01 X66.6125 Y48.9420
G01 X66.6336 Y48.9294
G01 X66.6558 Y48.9189
G01 X66.6765 Y48.9114
G01 X66.7051 Y48.9043
G01 X66.7270 Y48.9011
G01 X66.7502 Y48.8999
G01 X68.9964 Y48.8999
G01 X73.2749 Y44.6214
G01 X73.2749 Y44.0682
G01 X73.2692 Y44.0644
G01 X73.2646 Y44.0604
G01 X73.2606 Y44.0558
G01 X73.2565 Y44.0496
G01 X73.2534 Y44.0430
G01 X73.2515 Y44.0371
G01 X73.2504 Y44.0311
G01 X73.2500 Y44.0250
G01 X73.2500 Y42.5750
G01 X73.2504 Y42.5689
G01 X73.2515 Y42.5629
G01 X73.2538 Y42.5559
G01 X73.2578 Y42.5483
G01 X73.2630 Y42.5414
G01 X73.2683 Y42.5363
G01 X73.2754 Y42.5315
G01 X73.2820 Y42.5284
G01 X73.2902 Y42.5260
G01 X73.2975 Y42.5251
G01 X73.7512 Y42.5250
G01 X73.7610 Y42.5262
G01 X73.7703 Y42.5293
G01 X73.7788 Y42.5341
G01 X73.7862 Y42.5405
G01 X73.7916 Y42.5472
G01 X73.7962 Y42.5559
G01 X73.7990 Y42.5652
G01 X73.8000 Y42.5750
G01 X73.8000 Y44.0262
G01 X73.7995 Y44.0323
G01 X73.7982 Y44.0383
G01 X73.7962 Y44.0441
G01 X73.7929 Y44.0507
G01 X73.7894 Y44.0558
G01 X73.7854 Y44.0604
G01 X73.7808 Y44.0644
G01 X73.7751 Y44.0682
G01 X73.7751 Y44.7250
G01 X73.7740 Y44.7483
G01 X73.7703 Y44.7738
G01 X73.7636 Y44.7999
G01 X73.7561 Y44.8207
G01 X73.7467 Y44.8407
G01 X73.7330 Y44.8639
G01 X73.7183 Y44.8837
G01 X73.7018 Y44.9018
G01 X69.2760 Y49.3277
G01 X69.2587 Y49.3433
G01 X69.2390 Y49.3579
G01 X69.2179 Y49.3706
G01 X69.1957 Y49.3811
G01 X69.1726 Y49.3893
G01 X69.1488 Y49.3953
G01 X69.1245 Y49.3989
G01 X69.1012 Y49.4001
G01 X66.8551 Y49.4001
G01 X58.3245 Y57.9307
G01 X58.3319 Y57.9467
G01 X58.3619 Y58.0311
G01 X58.3827 Y58.1144
G01 X58.3957 Y58.2018
G01 X58.4000 Y58.2900
G01 X58.3958 Y58.3758
G01 X58.3827 Y58.4656
G01 X58.3605 Y58.5536
G01 X58.3315 Y58.6344
G01 X58.2937 Y58.7143
G01 X58.2469 Y58.7920
G01 X58.1957 Y58.8610
G01 X58.1364 Y58.9264
G01 X58.0710 Y58.9857
G01 X58.0020 Y59.0369
G01 X57.9221 Y59.0848
G01 X57.8444 Y59.1215
G01 X57.7613 Y59.1512
G01 X57.6756 Y59.1727
G01 X57.5882 Y59.1857
G01 X57.5000 Y59.1900
G01 X57.4118 Y59.1857
G01 X57.3244 Y59.1727
G01 X57.2411 Y59.1519
G01 X57.1533 Y59.1205
G01 X57.0757 Y59.0837
G01 X57.0000 Y59.0383
G01 X56.9290 Y58.9857
G01 X56.8636 Y58.9264
G01 X56.8043 Y58.8610
G01 X56.7517 Y58.7900
G01 X56.7063 Y58.7143
G01 X56.6685 Y58.6344
G01 X56.6388 Y58.5513
G01 X56.6173 Y58.4656
G01 X56.6043 Y58.3782
G01 X56.6000 Y58.2900
G01 X56.6043 Y58.2018
G01 X56.6173 Y58.1144
G01 X56.6388 Y58.0287
G01 X56.6685 Y57.9456
G01 X56.7063 Y57.8657
G01 X56.7517 Y57.7900
G01 X56.8043 Y57.7190
G01 X56.8636 Y57.6536
G01 X56.9290 Y57.5943
G01 X57.0000 Y57.5417
G01 X57.0757 Y57.4963
G01 X57.1556 Y57.4585
G01 X57.2387 Y57.4288
G01 X57.3244 Y57.4073
G01 X57.4118 Y57.3943
G01 X57.5000 Y57.3900
G01 X57.5882 Y57.3943
G01 X57.6756 Y57.4073
G01 X57.7613 Y57.4288
G01 X57.8444 Y57.4585
G01 X57.9243 Y57.4963
G01 X57.9979 Y57.5404
G01 X58.0035 Y57.5442
G00 Z1.0000
G00 X57.8536 Y59.8941
G01 F400.00
G01 Z-0.0400
G01 F2500.00
G01 X57.8629 Y59.8974
G01 X57.8700 Y59.8993
G01 X57.8821 Y59.9012
G01 X57.8919 Y59.9017
G01 X57.8993 Y59.9014
G01 X57.9114 Y59.8998
G01 X57.9209 Y59.8974
G01 X57.9279 Y59.8950
G01 X57.9391 Y59.8899
G01 X57.9495 Y59.8835
G01 X57.9554 Y59.8790
G01 X57.9618 Y59.8733
G01 X59.1207 Y58.7143
G01 X59.1288 Y58.7051
G01 X59.1332 Y58.6992
G01 X59.1382 Y58.6908
G01 X59.1433 Y58.6796
G01 X59.1457 Y58.6726
G01 X59.1476 Y58.6655
G01 X59.1494 Y58.6546
G01 X59.1500 Y58.6436
G01 X59.1500 Y57.4879
G01 X59.1492 Y57.4756
G01 X59.1481 Y57.4683
G01 X59.1464 Y57.4612
G01 X59.1424 Y57.4496
G01 X59.1376 Y57.4396
G01 X59.1318 Y57.4303
G01 X59.1273 Y57.4244
G01 X59.1224 Y57.4189
G01 X59.1144 Y57.4113
G01 X59.1056 Y57.4047
G01 X59.0961 Y57.3991
G01 X59.0860 Y57.3946
G01 X59.0790 Y57.3921
G01 X59.0719 Y57.3903
G01 X59.0610 Y57.3884
G01 X59.0500 Y57.3878
G01 X59.0390 Y57.3884
G01 X59.0281 Y57.3903
G01 X59.0210 Y57.3921
G01 X59.0140 Y57.3946
G01 X59.0028 Y57.3996
G01 X58.9934 Y57.4054
G01 X58.9865 Y57.4105
G01 X58.9793 Y57.4171
G01 X58.4888 Y57.9076
G01 X58.4822 Y57.9148
G01 X58.4764 Y57.9227
G01 X58.4713 Y57.9312
G01 X58.4676 Y57.9389
G01 X58.4632 Y57.9516
G01 X58.4614 Y57.9588
G01 X58.4600 Y57.9685
G01 X58.4595 Y57.9783
G01 X58.4598 Y57.9857
G01 X58.4614 Y57.9978
G01 X58.5000 Y58.1915
G01 X58.5000 Y58.3885
G01 X58.4615 Y58.5817
G01 X58.3862 Y58.7637
G01 X58.2767 Y58.9274
G01 X58.1374 Y59.0667
G01 X57.9737 Y59.1762
G01 X57.7917 Y59.2515
G01 X57.5985 Y59.2900
G01 X57.4015 Y59.2900
G01 X57.2083 Y59.2515
G01 X57.0263 Y59.1762
G01 X56.8626 Y59.0667
G01 X56.7233 Y58.9274
G01 X56.6138 Y58.7637
G01 X56.5385 Y58.5817
G01 X56.5000 Y58.3885
G01 X56.5000 Y58.1915
G01 X56.5385 Y57.9983
G01 X56.6138 Y57.8163
G01 X56.7233 Y57.6526
G01 X56.8626 Y57.5133
G01 X57.0263 Y57.4038
G01 X57.2083 Y57.3285
G01 X57.4015 Y57.2900
G01 X57.5985 Y57.2900
G01 X57.7917 Y57.3285
G01 X57.9324 Y57.3868
G01 X57.9417 Y57.3901
G01 X57.9500 Y57.3922
G01 X57.9634 Y57.3941
G01 X57.9707 Y57.3944
G01 X57.9805 Y57.3939
G01 X57.9902 Y57.3924
G01 X57.9974 Y57.3907
G01 X58.0101 Y57.3863
G01 X58.0179 Y57.3826
G01 X58.0263 Y57.3775
G01 X58.0342 Y57.3717
G01 X58.0414 Y57.3651
G01 X58.4988 Y56.9077
G01 X58.5046 Y56.9013
G01 X58.5104 Y56.8934
G01 X58.5155 Y56.8850
G01 X58.5201 Y56.8750
G01 X58.5230 Y56.8669
G01 X58.5256 Y56.8561
G01 X58.5269 Y56.8464
G01 X58.5272 Y56.8354
G01 X58.5268 Y56.8280
G01 X58.5253 Y56.8183
G01 X58.5230 Y56.8088
G01 X58.5197 Y56.7995
G01 X58.5155 Y56.7907
G01 X58.5104 Y56.7822
G01 X58.5046 Y56.7744
G01 X58.4988 Y56.7680
G01 X58.4916 Y56.7613
G01 X58.4848 Y56.7561
G01 X58.4722 Y56.7485
G01 X58.4644 Y56.7450
G01 X58.4551 Y56.7418
G01 X58.4468 Y56.7397
G01 X58.4358 Y56.7382
G01 X58.4260 Y56.7378
G01 X58.4150 Y56.7386
G01 X58.4077 Y56.7397
G01 X58.4006 Y56.7414
G01 X58.3794 Y56.7478
G01 X58.3451 Y56.7512
G01 X56.6549 Y56.7512
G01 X56.6206 Y56.7478
G01 X56.5923 Y56.7392
G01 X56.5663 Y56.7253
G01 X56.5434 Y56.7066
G01 X56.5247 Y56.6837
G01 X56.5108 Y56.6577
G01 X56.5022 Y56.6294
G01 X56.4988 Y56.5951
G01 X56.4988 Y54.9049
G01 X56.5022 Y54.8706
G01 X56.5108 Y54.8423
G01 X56.5247 Y54.8163
G01 X56.5434 Y54.7934
G01 X56.5663 Y54.7747
G01 X56.5923 Y54.7608
G01 X56.6206 Y54.7522
G01 X56.6549 Y54.7488
G01 X58.3451 Y54.7488
G01 X58.3794 Y54.7522
G01 X58.4077 Y54.7608
G01 X58.4337 Y54.7747
G01 X58.4566 Y54.7934
G01 X58.4753 Y54.8163
G01 X58.4892 Y54.8423
G01 X58.4978 Y54.8706
G01 X58.5012 Y54.9049
G01 X58.5012 Y56.5951
G01 X58.4978 Y56.6294
G01 X58.4914 Y56.6506
G01 X58.4897 Y56.6577
G01 X58.4886 Y56.6650
G01 X58.4878 Y56.6760
G01 X58.4883 Y56.6871
G01 X58.4903 Y56.6992
G01 X58.4921 Y56.7063
G01 X58.4945 Y56.7132
G01 X58.4996 Y56.7244
G01 X58.5053 Y56.7338
G01 X58.5105 Y56.7407
G01 X58.5154 Y56.7462
G01 X58.5234 Y56.7538
G01 X58.5322 Y56.7604
G01 X58.5429 Y56.7666
G01 X58.5495 Y56.7697
G01 X58.5565 Y56.7722
G01 X58.5671 Y56.7751
G01 X58.5780 Y56.7768
G01 X58.5903 Y56.7772
G01 X58.5976 Y56.7768
G01 X58.6049 Y56.7758
G01 X58.6169 Y56.7730
G01 X58.6283 Y56.7687
G01 X58.6350 Y56.7655
G01 X58.6413 Y56.7617
G01 X58.6503 Y56.7553
G01 X58.6585 Y56.7480
G01 X66.4884 Y48.9181
G01 X66.4942 Y48.9118
G01 X66.5028 Y48.9013
G01 X66.5561 Y48.8576
G01 X66.6169 Y48.8251
G01 X66.6829 Y48.8051
G01 X66.7515 Y48.7983
G01 X66.7650 Y48.7996
G01 X66.7736 Y48.8000
G01 X68.9136 Y48.8000
G01 X68.9259 Y48.7992
G01 X68.9331 Y48.7981
G01 X68.9427 Y48.7957
G01 X68.9541 Y48.7914
G01 X68.9608 Y48.7882
G01 X68.9682 Y48.7838
G01 X68.9771 Y48.7773
G01 X68.9843 Y48.7707
G01 X73.1457 Y44.6093
G01 X73.1523 Y44.6021
G01 X73.1588 Y44.5931
G01 X73.1638 Y44.5847
G01 X73.1683 Y44.5746
G01 X73.1707 Y44.5676
G01 X73.1731 Y44.5581
G01 X73.1745 Y44.5484
G01 X73.1750 Y44.5398
G01 X73.1750 Y44.2762
G01 X73.1745 Y44.2664
G01 X73.1728 Y44.2555
G01 X73.1699 Y44.2448
G01 X73.1664 Y44.2357
G01 X73.1632 Y44.2291
G01 X73.1595 Y44.2227
G01 X73.1531 Y44.2137
G01 X73.1466 Y44.2064
G01 X73.1385 Y44.1989
G01 X73.1306 Y44.1930
G01 X73.1200 Y44.1869
G01 X73.1133 Y44.1838
G01 X73.1040 Y44.1805
G01 X73.0921 Y44.1777
G01 X73.0848 Y44.1767
G01 X73.0775 Y44.1762
G01 X72.6750 Y44.1762
G01 X72.6652 Y44.1767
G01 X72.6567 Y44.1779
G01 X72.6436 Y44.1813
G01 X72.6367 Y44.1838
G01 X72.6278 Y44.1880
G01 X72.6194 Y44.1930
G01 X72.6125 Y44.1981
G01 X72.6043 Y44.2055
G01 X72.5977 Y44.2128
G01 X72.5918 Y44.2206
G01 X72.5874 Y44.2280
G01 X72.5826 Y44.2379
G01 X72.5797 Y44.2460
G01 X72.5772 Y44.2555
G01 X72.5758 Y44.2640
G01 X72.5750 Y44.2762
G01 X72.5750 Y44.4029
G01 X72.5754 Y44.4115
G01 X72.5767 Y44.4250
G01 X72.5699 Y44.4936
G01 X72.5499 Y44.5596
G01 X72.5174 Y44.6204
G01 X72.4737 Y44.6737
G01 X72.4632 Y44.6823
G01 X72.4568 Y44.6881
G01 X69.6631 Y47.4818
G01 X69.6573 Y47.4882
G01 X69.6487 Y47.4987
G01 X69.5954 Y47.5424
G01 X69.5346 Y47.5749
G01 X69.4686 Y47.5949
G01 X69.4000 Y47.6017
G01 X69.3865 Y47.6004
G01 X69.3779 Y47.6000
G01 X69.0414 Y47.6000
G01 X69.0340 Y47.6005
G01 X69.0267 Y47.6015
G01 X69.0160 Y47.6039
G01 X69.0055 Y47.6076
G01 X68.9945 Y47.6130
G01 X68.9883 Y47.6168
G01 X68.9804 Y47.6227
G01 X68.9731 Y47.6293
G01 X68.9681 Y47.6347
G01 X68.9600 Y47.6455
G01 X68.9556 Y47.6528
G01 X68.9519 Y47.6606
G01 X68.9481 Y47.6710
G01 X68.9455 Y47.6817
G01 X68.9443 Y47.6902
G01 X68.9406 Y47.7276
G01 X68.9107 Y47.8262
G01 X68.8621 Y47.9171
G01 X68.7967 Y47.9967
G01 X68.7171 Y48.0621
G01 X68.6262 Y48.1107
G01 X68.5276 Y48.1406
G01 X68.4201 Y48.1512
G01 X67.1799 Y48.1512
G01 X67.1627 Y48.1500
G01 X66.1549 Y48.1500
G01 X66.1409 Y48.1486
G01 X66.1276 Y48.1482
G01 X66.1113 Y48.1457
G01 X66.0985 Y48.1421
G01 X66.0852 Y48.1392
G01 X65.7914 Y48.0413
G01 X65.7760 Y48.0353
G01 X65.7651 Y48.0296
G01 X65.7513 Y48.0234
G01 X65.7414 Y48.0173
G01 X65.7318 Y48.0097
G01 X65.7195 Y48.0009
G01 X65.7074 Y47.9902
G01 X65.5121 Y47.7949
G01 X65.5079 Y47.7899
G01 X65.5007 Y47.7823
G01 X65.4936 Y47.7726
G01 X65.4842 Y47.7609
G01 X65.4778 Y47.7508
G01 X65.4728 Y47.7399
G01 X65.4658 Y47.7266
G01 X65.4615 Y47.7154
G01 X65.4587 Y47.7038
G01 X65.4544 Y47.6894
G01 X65.4514 Y47.6732
G01 X65.4022 Y47.2797
G01 X65.4012 Y47.2677
G01 X65.4014 Y47.2524
G01 X65.4010 Y47.2351
G01 X65.4018 Y47.2236
G01 X65.4510 Y46.8301
G01 X65.4523 Y46.8237
G01 X65.4539 Y46.8133
G01 X65.4580 Y46.7989
G01 X65.4606 Y46.7872
G01 X65.4648 Y46.7760
G01 X65.4716 Y46.7626
G01 X65.4764 Y46.7516
G01 X65.4827 Y46.7414
G01 X65.4901 Y46.7320
G01 X65.4988 Y46.7198
G01 X65.5098 Y46.7074
G01 X65.7051 Y46.5121
G01 X65.7099 Y46.5081
G01 X65.7174 Y46.5009
G01 X65.7296 Y46.4919
G01 X65.7391 Y46.4842
G01 X65.7489 Y46.4780
G01 X65.7626 Y46.4716
G01 X65.7734 Y46.4658
G01 X65.7883 Y46.4598
G01 X66.0821 Y46.3618
G01 X66.0958 Y46.3587
G01 X66.1085 Y46.3549
G01 X66.1249 Y46.3521
G01 X66.1381 Y46.3515
G01 X66.1517 Y46.3500
G01 X67.1627 Y46.3500
G01 X67.1799 Y46.3488
G01 X68.4201 Y46.3488
G01 X68.5276 Y46.3594
G01 X68.6262 Y46.3893
G01 X68.7171 Y46.4379
G01 X68.7967 Y46.5033
G01 X68.8621 Y46.5829
G01 X68.9107 Y46.6738
G01 X68.9406 Y46.7724
G01 X68.9443 Y46.8098
G01 X68.9453 Y46.8171
G01 X68.9478 Y46.8279
G01 X68.9505 Y46.8360
G01 X68.9562 Y46.8482
G01 X68.9607 Y46.8556
G01 X68.9657 Y46.8625
G01 X68.9749 Y46.8724
G01 X68.9804 Y46.8773
G01 X68.9872 Y46.8825
G01 X68.9967 Y46.8882
G01 X69.0078 Y46.8933
G01 X69.0148 Y46.8957
G01 X69.0231 Y46.8978
G01 X69.0352 Y46.8996
G01 X69.0438 Y46.9000
G01 X69.2148 Y46.9000
G01 X69.2234 Y46.8995
G01 X69.2331 Y46.8981
G01 X69.2426 Y46.8957
G01 X69.2496 Y46.8933
G01 X69.2618 Y46.8876
G01 X69.2692 Y46.8832
G01 X69.2771 Y46.8773
G01 X69.2843 Y46.8707
G01 X71.5093 Y44.6457
G01 X71.5159 Y44.6385
G01 X71.5204 Y44.6326
G01 X71.5274 Y44.6211
G01 X71.5315 Y44.6121
G01 X71.5350 Y44.6017
G01 X71.5371 Y44.5921
G01 X71.5381 Y44.5848
G01 X71.5386 Y44.5775
G01 X71.5383 Y44.5664
G01 X71.5369 Y44.5567
G01 X71.5343 Y44.5460
G01 X71.5310 Y44.5367
G01 X71.5268 Y44.5278
G01 X71.5218 Y44.5194
G01 X71.5159 Y44.5115
G01 X71.5093 Y44.5043
G01 X71.5021 Y44.4977
G01 X71.4942 Y44.4918
G01 X71.4858 Y44.4868
G01 X71.4750 Y44.4819
G01 X71.4750 Y44.4613
G01 X71.4742 Y44.4503
G01 X71.4731 Y44.4430
G01 X71.4711 Y44.4346
G01 X71.4669 Y44.4231
G01 X71.4632 Y44.4154
G01 X71.4595 Y44.4090
G01 X71.4523 Y44.3990
G01 X71.4457 Y44.3918
G01 X71.4403 Y44.3868
G01 X71.4295 Y44.3787
G01 X71.4200 Y44.3732
G01 X71.4133 Y44.3701
G01 X71.4064 Y44.3676
G01 X71.3957 Y44.3647
G01 X71.3848 Y44.3630
G01 X71.3738 Y44.3625
G01 X71.3628 Y44.3633
G01 X71.3555 Y44.3644
G01 X71.3483 Y44.3661
G01 X71.3367 Y44.3701
G01 X71.3278 Y44.3743
G01 X71.3205 Y44.3787
G01 X71.3097 Y44.3868
G01 X71.3043 Y44.3918
G01 X71.2346 Y44.4614
G01 X71.1589 Y44.4348
G01 X71.0826 Y44.3896
G01 X71.0166 Y44.3304
G01 X70.9634 Y44.2595
G01 X70.9251 Y44.1796
G01 X70.9031 Y44.0937
G01 X70.8979 Y43.9984
G01 X70.8998 Y43.6792
G01 X70.9789 Y43.6000
G01 X71.3000 Y43.6000
G01 X71.3001 Y44.0275
G01 X71.3015 Y44.0371
G01 X71.3029 Y44.0418
G01 X71.3053 Y44.0475
G01 X71.3106 Y44.0558
G01 X71.3146 Y44.0604
G01 X71.3183 Y44.0637
G01 X71.3254 Y44.0685
G01 X71.3332 Y44.0721
G01 X71.3402 Y44.0740
G01 X71.3488 Y44.0750
G01 X71.8012 Y44.0750
G01 X71.8073 Y44.0745
G01 X71.8145 Y44.0728
G01 X71.8203 Y44.0707
G01 X71.8257 Y44.0679
G01 X71.8308 Y44.0644
G01 X71.8354 Y44.0604
G01 X71.8402 Y44.0548
G01 X71.8435 Y44.0496
G01 X71.8462 Y44.0441
G01 X71.8485 Y44.0371
G01 X71.8496 Y44.0311
G01 X71.8500 Y44.0250
G01 X71.8500 Y42.5750
G01 X71.8497 Y42.5699
G01 X71.8500 Y42.5627
G01 X71.8500 Y42.2039
G01 X71.9154 Y42.1386
G01 X71.9911 Y42.1652
G01 X72.0674 Y42.2104
G01 X72.1334 Y42.2696
G01 X72.1866 Y42.3405
G01 X72.1993 Y42.3670
G01 X72.2035 Y42.3749
G01 X72.2100 Y42.3844
G01 X72.2157 Y42.3913
G01 X72.2259 Y42.4009
G01 X72.2320 Y42.4056
G01 X72.2406 Y42.4111
G01 X72.2498 Y42.4156
G01 X72.2581 Y42.4188
G01 X72.2717 Y42.4222
G01 X72.2793 Y42.4233
G01 X72.2895 Y42.4238
G01 X72.4262 Y42.4238
G01 X72.4348 Y42.4233
G01 X72.4445 Y42.4219
G01 X72.4540 Y42.4195
G01 X72.4644 Y42.4157
G01 X72.4722 Y42.4120
G01 X72.4806 Y42.4070
G01 X72.4885 Y42.4011
G01 X72.4940 Y42.3962
G01 X72.5031 Y42.3863
G01 X72.5082 Y42.3794
G01 X72.5126 Y42.3720
G01 X72.5183 Y42.3598
G01 X72.5207 Y42.3528
G01 X72.5231 Y42.3433
G01 X72.5247 Y42.3311
G01 X72.5250 Y42.3114
G01 X72.5245 Y42.3016
G01 X72.5231 Y42.2919
G01 X72.5207 Y42.2824
G01 X72.5174 Y42.2731
G01 X72.5132 Y42.2642
G01 X72.5082 Y42.2558
G01 X72.5023 Y42.2479
G01 X72.4957 Y42.2407
G01 X70.8843 Y40.6293
G01 X70.8761 Y40.6219
G01 X70.8671 Y40.6155
G01 X70.8608 Y40.6118
G01 X70.8541 Y40.6086
G01 X70.8438 Y40.6047
G01 X70.8307 Y40.6015
G01 X70.8234 Y40.6005
G01 X70.8136 Y40.6000
G01 X69.5221 Y40.6000
G01 X69.5135 Y40.6004
G01 X69.5000 Y40.6017
G01 X69.4314 Y40.5949
G01 X69.3654 Y40.5749
G01 X69.3046 Y40.5424
G01 X69.2513 Y40.4987
G01 X69.2427 Y40.4882
G01 X69.2369 Y40.4818
G01 X68.8339 Y40.0788
G01 X68.8275 Y40.0731
G01 X68.8206 Y40.0679
G01 X68.8090 Y40.0611
G01 X68.8023 Y40.0580
G01 X68.7931 Y40.0547
G01 X68.7835 Y40.0523
G01 X68.7750 Y40.0510
G01 X68.7640 Y40.0504
G01 X68.7530 Y40.0510
G01 X68.7421 Y40.0529
G01 X68.7350 Y40.0547
G01 X68.7280 Y40.0571
G01 X68.7169 Y40.0622
G01 X68.6262 Y40.1107
G01 X68.5276 Y40.1406
G01 X68.4201 Y40.1512
G01 X67.1799 Y40.1512
G01 X67.1627 Y40.1500
G01 X66.1549 Y40.1500
G01 X66.1409 Y40.1486
G01 X66.1276 Y40.1482
G01 X66.1113 Y40.1457
G01 X66.0985 Y40.1421
G01 X66.0852 Y40.1392
G01 X65.7914 Y40.0413
G01 X65.7760 Y40.0353
G01 X65.7651 Y40.0296
G01 X65.7513 Y40.0234
G01 X65.7414 Y40.0173
G01 X65.7318 Y40.0097
G01 X65.7195 Y40.0009
G01 X65.7074 Y39.9902
G01 X65.5121 Y39.7949
G01 X65.5079 Y39.7899
G01 X65.5007 Y39.7823
G01 X65.4936 Y39.7726
G01 X65.4842 Y39.7609
G01 X65.4778 Y39.7508
G01 X65.4728 Y39.7399
G01 X65.4658 Y39.7266
G01 X65.4615 Y39.7154
G01 X65.4587 Y39.7038
G01 X65.4544 Y39.6894
G01 X65.4514 Y39.6732
G01 X65.4022 Y39.2797
G01 X65.4012 Y39.2677
G01 X65.4014 Y39.2524
G01 X65.4010 Y39.2351
G01 X65.4018 Y39.2236
G01 X65.4510 Y38.8301
G01 X65.4523 Y38.8237
G01 X65.4539 Y38.8133
G01 X65.4580 Y38.7989
G01 X65.4606 Y38.7872
G01 X65.4648 Y38.7760
G01 X65.4716 Y38.7626
G01 X65.4764 Y38.7516
G01 X65.4827 Y38.7414
G01 X65.4901 Y38.7320
G01 X65.4988 Y38.7198
G01 X65.5098 Y38.7074
G01 X65.7051 Y38.5121
G01 X65.7099 Y38.5081
G01 X65.7174 Y38.5009
G01 X65.7296 Y38.4919
G01 X65.7391 Y38.4842
G01 X65.7489 Y38.4780
G01 X65.7626 Y38.4716
G01 X65.7734 Y38.4658
G01 X65.7883 Y38.4598
G01 X66.0821 Y38.3618
G01 X66.0958 Y38.3587
G01 X66.1085 Y38.3549
G01 X66.1249 Y38.3521
G01 X66.1381 Y38.3515
G01 X66.1517 Y38.3500
G01 X67.1627 Y38.3500
G01 X67.1799 Y38.3488
G01 X68.4201 Y38.3488
G01 X68.5276 Y38.3594
G01 X68.6262 Y38.3893
G01 X68.7171 Y38.4379
G01 X68.7967 Y38.5033
G01 X68.8621 Y38.5829
G01 X68.9107 Y38.6738
G01 X68.9406 Y38.7724
G01 X68.9512 Y38.8799
G01 X68.9512 Y39.1648
G01 X68.9515 Y39.1722
G01 X68.9531 Y39.1843
G01 X68.9559 Y39.1950
G01 X68.9588 Y39.2031
G01 X68.9619 Y39.2098
G01 X68.9680 Y39.2204
G01 X68.9739 Y39.2283
G01 X68.9805 Y39.2355
G01 X69.6157 Y39.8707
G01 X69.6239 Y39.8781
G01 X69.6308 Y39.8832
G01 X69.6392 Y39.8882
G01 X69.6481 Y39.8924
G01 X69.6550 Y39.8949
G01 X69.6681 Y39.8983
G01 X69.6766 Y39.8995
G01 X69.6852 Y39.9000
G01 X70.9779 Y39.9000
G01 X70.9865 Y39.8996
G01 X71.0000 Y39.8983
G01 X71.0686 Y39.9051
G01 X71.1346 Y39.9251
G01 X71.1954 Y39.9576
G01 X71.2487 Y40.0013
G01 X71.2573 Y40.0118
G01 X71.2631 Y40.0182
G01 X73.1068 Y41.8619
G01 X73.1132 Y41.8677
G01 X73.1237 Y41.8763
G01 X73.1674 Y41.9296
G01 X73.1999 Y41.9904
G01 X73.2199 Y42.0564
G01 X73.2267 Y42.1250
G01 X73.2254 Y42.1385
G01 X73.2250 Y42.1471
G01 X73.2250 Y42.3238
G01 X73.2255 Y42.3336
G01 X73.2269 Y42.3433
G01 X73.2293 Y42.3528
G01 X73.2326 Y42.3621
G01 X73.2357 Y42.3688
G01 X73.2432 Y42.3814
G01 X73.2485 Y42.3882
G01 X73.2552 Y42.3954
G01 X73.2615 Y42.4011
G01 X73.2694 Y42.4070
G01 X73.2778 Y42.4120
G01 X73.2856 Y42.4157
G01 X73.2948 Y42.4191
G01 X73.3031 Y42.4214
G01 X73.3176 Y42.4235
G01 X73.3250 Y42.4238
G01 X73.7250 Y42.4238
G01 X73.7348 Y42.4233
G01 X73.7457 Y42.4216
G01 X73.7540 Y42.4195
G01 X73.7633 Y42.4162
G01 X73.7722 Y42.4120
G01 X73.7785 Y42.4083
G01 X73.7894 Y42.4003
G01 X73.7957 Y42.3945
G01 X73.8023 Y42.3872
G01 X73.8082 Y42.3794
G01 X73.8126 Y42.3720
G01 X73.8183 Y42.3598
G01 X73.8207 Y42.3528
G01 X73.8231 Y42.3433
G01 X73.8245 Y42.3336
G01 X73.8250 Y42.3250
G01 X73.8250 Y39.8529
G01 X73.8247 Y39.8456
G01 X73.8231 Y39.8334
G01 X73.8199 Y39.8216
G01 X73.8174 Y39.8146
G01 X73.8138 Y39.8069
G01 X73.8075 Y39.7963
G01 X73.8015 Y39.7885
G01 X73.7940 Y39.7805
G01 X73.7885 Y39.7756
G01 X73.7533 Y39.7467
G01 X73.6879 Y39.6671
G01 X73.6393 Y39.5762
G01 X73.6094 Y39.4776
G01 X73.5988 Y39.3701
G01 X73.5988 Y39.2000
G01 X73.5983 Y39.1902
G01 X73.5973 Y39.1829
G01 X73.5941 Y39.1698
G01 X73.5912 Y39.1617
G01 X73.5876 Y39.1539
G01 X73.5805 Y39.1424
G01 X73.5761 Y39.1365
G01 X73.5695 Y39.1293
G01 X73.5622 Y39.1227
G01 X73.5544 Y39.1168
G01 X73.5459 Y39.1118
G01 X73.5371 Y39.1076
G01 X73.5278 Y39.1043
G01 X73.5183 Y39.1019
G01 X73.5086 Y39.1005
G01 X73.5000 Y39.1000
G01 X73.2438 Y39.1000
G01 X73.2365 Y39.1003
G01 X73.2243 Y39.1019
G01 X73.2136 Y39.1047
G01 X73.2033 Y39.1086
G01 X73.1967 Y39.1118
G01 X73.1903 Y39.1155
G01 X73.1794 Y39.1235
G01 X73.1731 Y39.1293
G01 X73.1665 Y39.1365
G01 X73.1607 Y39.1444
G01 X73.1568 Y39.1507
G01 X73.1510 Y39.1629
G01 X73.1478 Y39.1721
G01 X73.1453 Y39.1829
G01 X73.1443 Y39.1902
G01 X73.1406 Y39.2276
G01 X73.1107 Y39.3262
G01 X73.0621 Y39.4171
G01 X72.9967 Y39.4967
G01 X72.9171 Y39.5621
G01 X72.8262 Y39.6107
G01 X72.7276 Y39.6406
G01 X72.6201 Y39.6512
G01 X71.3799 Y39.6512
G01 X71.3627 Y39.6500
G01 X70.3549 Y39.6500
G01 X70.3409 Y39.6486
G01 X70.3276 Y39.6482
G01 X70.3113 Y39.6457
G01 X70.2985 Y39.6421
G01 X70.2852 Y39.6392
G01 X69.9914 Y39.5413
G01 X69.9760 Y39.5353
G01 X69.9651 Y39.5296
G01 X69.9513 Y39.5234
G01 X69.9414 Y39.5173
G01 X69.9318 Y39.5097
G01 X69.9195 Y39.5009
G01 X69.9074 Y39.4902
G01 X69.7121 Y39.2949
G01 X69.7079 Y39.2899
G01 X69.7007 Y39.2823
G01 X69.6936 Y39.2726
G01 X69.6842 Y39.2609
G01 X69.6778 Y39.2508
G01 X69.6728 Y39.2399
G01 X69.6658 Y39.2266
G01 X69.6615 Y39.2154
G01 X69.6587 Y39.2038
G01 X69.6544 Y39.1894
G01 X69.6514 Y39.1732
G01 X69.6022 Y38.7797
G01 X69.6012 Y38.7677
G01 X69.6014 Y38.7524
G01 X69.6010 Y38.7351
G01 X69.6018 Y38.7236
G01 X69.6510 Y38.3301
G01 X69.6523 Y38.3237
G01 X69.6539 Y38.3133
G01 X69.6580 Y38.2989
G01 X69.6606 Y38.2872
G01 X69.6648 Y38.2760
G01 X69.6716 Y38.2626
G01 X69.6764 Y38.2516
G01 X69.6827 Y38.2414
G01 X69.6901 Y38.2320
G01 X69.6988 Y38.2198
G01 X69.7098 Y38.2074
G01 X69.9051 Y38.0121
G01 X69.9099 Y38.0081
G01 X69.9174 Y38.0009
G01 X69.9296 Y37.9919
G01 X69.9391 Y37.9842
G01 X69.9489 Y37.9780
G01 X69.9626 Y37.9716
G01 X69.9734 Y37.9658
G01 X69.9883 Y37.9598
G01 X70.2821 Y37.8618
G01 X70.2958 Y37.8587
G01 X70.3085 Y37.8549
G01 X70.3249 Y37.8521
G01 X70.3381 Y37.8515
G01 X70.3517 Y37.8500
G01 X71.3627 Y37.8500
G01 X71.3799 Y37.8488
G01 X72.6201 Y37.8488
G01 X72.7276 Y37.8594
G01 X72.8262 Y37.8893
G01 X72.9171 Y37.9379
G01 X72.9967 Y38.0033
G01 X73.0621 Y38.0829
G01 X73.1107 Y38.1738
G01 X73.1406 Y38.2724
G01 X73.1443 Y38.3098
G01 X73.1453 Y38.3171
G01 X73.1478 Y38.3279
G01 X73.1510 Y38.3371
G01 X73.1568 Y38.3493
G01 X73.1613 Y38.3566
G01 X73.1673 Y38.3644
G01 X73.1731 Y38.3707
G01 X73.1804 Y38.3773
G01 X73.1883 Y38.3832
G01 X73.1945 Y38.3870
G01 X73.2055 Y38.3924
G01 X73.2160 Y38.3961
G01 X73.2243 Y38.3981
G01 X73.2316 Y38.3992
G01 X73.2426 Y38.4000
G01 X73.5000 Y38.4000
G01 X73.5086 Y38.3995
G01 X73.5183 Y38.3981
G01 X73.5278 Y38.3957
G01 X73.5348 Y38.3933
G01 X73.5470 Y38.3876
G01 X73.5544 Y38.3832
G01 X73.5613 Y38.3781
G01 X73.5704 Y38.3698
G01 X73.5761 Y38.3635
G01 X73.5805 Y38.3576
G01 X73.5876 Y38.3461
G01 X73.5912 Y38.3383
G01 X73.5937 Y38.3314
G01 X73.5969 Y38.3195
G01 X73.5985 Y38.3074
G01 X73.5988 Y38.3000
G01 X73.5988 Y38.1299
G01 X73.6000 Y38.1127
G01 X73.6000 Y37.1049
G01 X73.6014 Y37.0909
G01 X73.6018 Y37.0776
G01 X73.6043 Y37.0613
G01 X73.6079 Y37.0485
G01 X73.6108 Y37.0352
G01 X73.7087 Y36.7414
G01 X73.7147 Y36.7260
G01 X73.7216 Y36.7125
G01 X73.7266 Y36.7013
G01 X73.7327 Y36.6914
G01 X73.7420 Y36.6795
G01 X73.7491 Y36.6695
G01 X73.7598 Y36.6574
G01 X73.9551 Y36.4621
G01 X73.9601 Y36.4579
G01 X73.9677 Y36.4507
G01 X73.9798 Y36.4418
G01 X73.9891 Y36.4342
G01 X73.9992 Y36.4278
G01 X74.0128 Y36.4214
G01 X74.0234 Y36.4158
G01 X74.0346 Y36.4115
G01 X74.0492 Y36.4079
G01 X74.0606 Y36.4044
G01 X74.0768 Y36.4014
G01 X74.4703 Y36.3522
G01 X74.4823 Y36.3512
G01 X74.4976 Y36.3514
G01 X74.5149 Y36.3510
G01 X74.5264 Y36.3518
G01 X74.9199 Y36.4010
G01 X74.9263 Y36.4023
G01 X74.9367 Y36.4039
G01 X74.9511 Y36.4080
G01 X74.9628 Y36.4106
G01 X74.9740 Y36.4148
G01 X74.9874 Y36.4216
G01 X74.9984 Y36.4264
G01 X75.0086 Y36.4327
G01 X75.0180 Y36.4401
G01 X75.0302 Y36.4488
G01 X75.0426 Y36.4598
G01 X75.2379 Y36.6551
G01 X75.2419 Y36.6599
G01 X75.2491 Y36.6674
G01 X75.2581 Y36.6796
G01 X75.2658 Y36.6891
G01 X75.2720 Y36.6989
G01 X75.2784 Y36.7126
G01 X75.2842 Y36.7234
G01 X75.2902 Y36.7383
G01 X75.3882 Y37.0321
G01 X75.3913 Y37.0458
G01 X75.3951 Y37.0585
G01 X75.3979 Y37.0749
G01 X75.3985 Y37.0881
G01 X75.4000 Y37.1017
G01 X75.4000 Y38.1127
G01 X75.4012 Y38.1299
G01 X75.4012 Y39.3701
G01 X75.3906 Y39.4776
G01 X75.3607 Y39.5762
G01 X75.3121 Y39.6671
G01 X75.2467 Y39.7467
G01 X75.1671 Y39.8121
G01 X75.0762 Y39.8607
G01 X74.9776 Y39.8906
G01 X74.8701 Y39.9012
G01 X74.6250 Y39.9012
G01 X74.6140 Y39.9018
G01 X74.6031 Y39.9036
G01 X74.5936 Y39.9063
G01 X74.5867 Y39.9088
G01 X74.5800 Y39.9119
G01 X74.5705 Y39.9174
G01 X74.5615 Y39.9239
G01 X74.5526 Y39.9323
G01 X74.5477 Y39.9378
G01 X74.5432 Y39.9436
G01 X74.5374 Y39.9530
G01 X74.5326 Y39.9629
G01 X74.5293 Y39.9722
G01 X74.5269 Y39.9817
G01 X74.5255 Y39.9914
G01 X74.5250 Y40.0012
G01 X74.5250 Y41.3058
G01 X74.5256 Y41.3156
G01 X74.5274 Y41.3265
G01 X74.5293 Y41.3336
G01 X74.5317 Y41.3406
G01 X74.5362 Y41.3507
G01 X74.5418 Y41.3602
G01 X74.5477 Y41.3681
G01 X74.5552 Y41.3762
G01 X74.5635 Y41.3834
G01 X74.5694 Y41.3878
G01 X74.5778 Y41.3928
G01 X74.5867 Y41.3970
G01 X74.5960 Y41.4003
G01 X74.6055 Y41.4027
G01 X74.6152 Y41.4041
G01 X74.6250 Y41.4046
G01 X74.6324 Y41.4043
G01 X74.6469 Y41.4022
G01 X74.6552 Y41.3999
G01 X74.6644 Y41.3965
G01 X74.6722 Y41.3928
G01 X74.6806 Y41.3878
G01 X74.6885 Y41.3819
G01 X74.6949 Y41.3762
G01 X76.3530 Y39.7181
G01 X76.3588 Y39.7118
G01 X76.3674 Y39.7013
G01 X76.4207 Y39.6575
G01 X76.4815 Y39.6251
G01 X76.5474 Y39.6050
G01 X76.6160 Y39.5983
G01 X76.6296 Y39.5996
G01 X76.6381 Y39.6000
G01 X79.3619 Y39.6000
G01 X79.3705 Y39.5996
G01 X79.3840 Y39.5983
G01 X79.4526 Y39.6050
G01 X79.5186 Y39.6250
G01 X79.5794 Y39.6575
G01 X79.6327 Y39.7013
G01 X79.6413 Y39.7118
G01 X79.6471 Y39.7181
G01 X80.7318 Y40.8029
G01 X80.7382 Y40.8087
G01 X80.7487 Y40.8173
G01 X80.7924 Y40.8706
G01 X80.8249 Y40.9314
G01 X80.8449 Y40.9973
G01 X80.8517 Y41.0659
G01 X80.8504 Y41.0795
G01 X80.8500 Y41.0880
G01 X80.8500 Y49.5472
G01 X80.8503 Y49.5551
G01 X80.8517 Y49.5695
G01 X80.8504 Y49.5830
G01 X80.8500 Y49.5916
G01 X80.8500 Y53.2836
G01 X80.8506 Y53.2946
G01 X80.8519 Y53.3031
G01 X80.8543 Y53.3127
G01 X80.8576 Y53.3219
G01 X80.8607 Y53.3286
G01 X80.8675 Y53.3402
G01 X80.8727 Y53.3471
G01 X80.8784 Y53.3535
G01 X81.8174 Y54.2924
G01 X81.8266 Y54.3005
G01 X81.8325 Y54.3049
G01 X81.8399 Y54.3093
G01 X81.8487 Y54.3136
G01 X81.8567 Y54.3166
G01 X81.8710 Y54.3202
G01 X81.8783 Y54.3212
G01 X81.8881 Y54.3217
G01 X81.8979 Y54.3212
G01 X81.9064 Y54.3200
G01 X81.9171 Y54.3174
G01 X81.9252 Y54.3146
G01 X81.9883 Y54.2885
G01 X82.1815 Y54.2500
G01 X82.3785 Y54.2500
G01 X82.5717 Y54.2885
G01 X82.7537 Y54.3638
G01 X82.9174 Y54.4733
G01 X83.0567 Y54.6126
G01 X83.1662 Y54.7763
G01 X83.2415 Y54.9583
G01 X83.2800 Y55.1515
G01 X83.2800 Y55.3485
G01 X83.2464 Y55.5172
G01 X83.2448 Y55.5293
G01 X83.2445 Y55.5367
G01 X83.2448 Y55.5441
G01 X83.2464 Y55.5562
G01 X83.2496 Y55.5681
G01 X83.2521 Y55.5750
G01 X83.2557 Y55.5828
G01 X83.2628 Y55.5943
G01 X83.2672 Y55.6002
G01 X83.2738 Y55.6074
G01 X83.6491 Y55.9827
G01 X83.6554 Y55.9885
G01 X83.6697 Y56.0003
G01 X83.7260 Y56.0688
G01 X83.7677 Y56.1470
G01 X83.7935 Y56.2318
G01 X83.8022 Y56.3200
G01 X83.8004 Y56.3384
G01 X83.8000 Y56.3470
G01 X83.8000 Y59.7230
G01 X83.8004 Y59.7316
G01 X83.8022 Y59.7500
G01 X83.7935 Y59.8382
G01 X83.7677 Y59.9230
G01 X83.7260 Y60.0012
G01 X83.6697 Y60.0697
G01 X83.6554 Y60.0815
G01 X83.6491 Y60.0873
G01 X83.5864 Y60.1500
G01 X83.5815 Y60.1554
G01 X83.5697 Y60.1697
G01 X83.5012 Y60.2260
G01 X83.4530 Y60.2517
G01 X83.4456 Y60.2562
G01 X83.4387 Y60.2613
G01 X83.4305 Y60.2686
G01 X83.4239 Y60.2759
G01 X83.4180 Y60.2838
G01 X83.4130 Y60.2922
G01 X83.4088 Y60.3011
G01 X83.4055 Y60.3103
G01 X83.4031 Y60.3199
G01 X83.4016 Y60.3308
G01 X83.4012 Y60.3394
G01 X83.4012 Y60.4701
G01 X83.3906 Y60.5776
G01 X83.3607 Y60.6762
G01 X83.3121 Y60.7671
G01 X83.2467 Y60.8467
G01 X83.1671 Y60.9121
G01 X83.0762 Y60.9607
G01 X82.9776 Y60.9906
G01 X82.8701 Y61.0012
G01 X82.1299 Y61.0012
G01 X82.0224 Y60.9906
G01 X81.9238 Y60.9607
G01 X81.8329 Y60.9121
G01 X81.7533 Y60.8467
G01 X81.6879 Y60.7671
G01 X81.6393 Y60.6762
G01 X81.6094 Y60.5776
G01 X81.5988 Y60.4701
G01 X81.5988 Y59.2299
G01 X81.6000 Y59.2127
G01 X81.6000 Y58.2049
G01 X81.6014 Y58.1909
G01 X81.6018 Y58.1776
G01 X81.6043 Y58.1613
G01 X81.6079 Y58.1485
G01 X81.6108 Y58.1352
G01 X81.7087 Y57.8414
G01 X81.7147 Y57.8260
G01 X81.7216 Y57.8125
G01 X81.7266 Y57.8013
G01 X81.7327 Y57.7914
G01 X81.7420 Y57.7795
G01 X81.7491 Y57.7695
G01 X81.7598 Y57.7574
G01 X81.9551 Y57.5621
G01 X81.9601 Y57.5579
G01 X81.9677 Y57.5507
G01 X81.9798 Y57.5418
G01 X81.9891 Y57.5342
G01 X81.9992 Y57.5278
G01 X82.0128 Y57.5214
G01 X82.0234 Y57.5158
G01 X82.0346 Y57.5115
G01 X82.0492 Y57.5079
G01 X82.0606 Y57.5044
G01 X82.0768 Y57.5014
G01 X82.4703 Y57.4522
G01 X82.4823 Y57.4512
G01 X82.4976 Y57.4514
G01 X82.5149 Y57.4510
G01 X82.5264 Y57.4518
G01 X82.7876 Y57.4844
G01 X82.7988 Y57.4852
G01 X82.8087 Y57.4848
G01 X82.8198 Y57.4832
G01 X82.8295 Y57.4807
G01 X82.8366 Y57.4783
G01 X82.8434 Y57.4752
G01 X82.8532 Y57.4698
G01 X82.8624 Y57.4634
G01 X82.8699 Y57.4568
G01 X82.8774 Y57.4485
G01 X82.8827 Y57.4415
G01 X82.8872 Y57.4341
G01 X82.8931 Y57.4217
G01 X82.8956 Y57.4146
G01 X82.8980 Y57.4050
G01 X82.8995 Y57.3951
G01 X82.9000 Y57.3864
G01 X82.9000 Y56.5478
G01 X82.8995 Y56.5380
G01 X82.8981 Y56.5283
G01 X82.8950 Y56.5165
G01 X82.8924 Y56.5095
G01 X82.8882 Y56.5007
G01 X82.8818 Y56.4902
G01 X82.8773 Y56.4844
G01 X82.8716 Y56.4780
G01 X82.6366 Y56.2429
G01 X82.6302 Y56.2372
G01 X82.6223 Y56.2314
G01 X82.6139 Y56.2263
G01 X82.6072 Y56.2231
G01 X82.5957 Y56.2188
G01 X82.5838 Y56.2160
G01 X82.5765 Y56.2150
G01 X82.5679 Y56.2145
G01 X82.5557 Y56.2151
G01 X82.5472 Y56.2164
G01 X82.3785 Y56.2500
G01 X82.1815 Y56.2500
G01 X81.9883 Y56.2115
G01 X81.8063 Y56.1362
G01 X81.6426 Y56.0267
G01 X81.5033 Y55.8874
G01 X81.3938 Y55.7237
G01 X81.3185 Y55.5417
G01 X81.2800 Y55.3485
G01 X81.2800 Y55.1515
G01 X81.3185 Y54.9583
G01 X81.3446 Y54.8952
G01 X81.3474 Y54.8871
G01 X81.3500 Y54.8764
G01 X81.3512 Y54.8679
G01 X81.3517 Y54.8581
G01 X81.3512 Y54.8483
G01 X81.3500 Y54.8398
G01 X81.3478 Y54.8302
G01 X81.3450 Y54.8221
G01 X81.3387 Y54.8088
G01 X81.3349 Y54.8025
G01 X81.3305 Y54.7966
G01 X81.3224 Y54.7874
G01 X80.2673 Y53.7323
G01 X80.2535 Y53.7204
G01 X80.2466 Y53.7153
G01 X80.2382 Y53.7101
G01 X80.2305 Y53.7063
G01 X80.2202 Y53.7024
G01 X80.2107 Y53.6999
G01 X80.2010 Y53.6983
G01 X80.1925 Y53.6978
G01 X80.1778 Y53.6985
G01 X80.1693 Y53.6999
G01 X80.1598 Y53.7024
G01 X80.1517 Y53.7053
G01 X80.1428 Y53.7095
G01 X80.1344 Y53.7146
G01 X80.1265 Y53.7204
G01 X80.1193 Y53.7270
G01 X80.1127 Y53.7343
G01 X80.1068 Y53.7422
G01 X80.1030 Y53.7484
G01 X80.0967 Y53.7617
G01 X80.0939 Y53.7699
G01 X80.0917 Y53.7794
G01 X80.0905 Y53.7879
G01 X80.0900 Y53.7977
G01 X80.0900 Y54.2458
G01 X80.0905 Y54.2556
G01 X80.0915 Y54.2629
G01 X80.0947 Y54.2760
G01 X80.0976 Y54.2840
G01 X80.1018 Y54.2929
G01 X80.1068 Y54.3013
G01 X80.1112 Y54.3073
G01 X80.1201 Y54.3174
G01 X80.1265 Y54.3231
G01 X80.1334 Y54.3282
G01 X80.1428 Y54.3340
G01 X80.1506 Y54.3377
G01 X80.2137 Y54.3638
G01 X80.3774 Y54.4733
G01 X80.5167 Y54.6126
G01 X80.6262 Y54.7763
G01 X80.7015 Y54.9583
G01 X80.7400 Y55.1515
G01 X80.7400 Y55.3485
G01 X80.7064 Y55.5172
G01 X80.7053 Y55.5245
G01 X80.7045 Y55.5355
G01 X80.7049 Y55.5453
G01 X80.7064 Y55.5562
G01 X80.7085 Y55.5646
G01 X80.7121 Y55.5750
G01 X80.7163 Y55.5839
G01 X80.7214 Y55.5923
G01 X80.7280 Y55.6011
G01 X80.7338 Y55.6074
G01 X80.8000 Y55.6736
G01 X80.8054 Y55.6785
G01 X80.8197 Y55.6903
G01 X80.8760 Y55.7588
G01 X80.9177 Y55.8370
G01 X80.9435 Y55.9218
G01 X80.9522 Y56.0100
G01 X80.9504 Y56.0284
G01 X80.9500 Y56.0370
G01 X80.9500 Y59.5730
G01 X80.9504 Y59.5816
G01 X80.9522 Y59.6000
G01 X80.9435 Y59.6882
G01 X80.9177 Y59.7730
G01 X80.8760 Y59.8512
G01 X80.8197 Y59.9197
G01 X80.8054 Y59.9315
G01 X80.7991 Y59.9373
G01 X80.5873 Y60.1491
G01 X80.5815 Y60.1554
G01 X80.5697 Y60.1697
G01 X80.5012 Y60.2260
G01 X80.4530 Y60.2517
G01 X80.4456 Y60.2562
G01 X80.4397 Y60.2605
G01 X80.4296 Y60.2695
G01 X80.4239 Y60.2759
G01 X80.4180 Y60.2838
G01 X80.4119 Y60.2944
G01 X80.4088 Y60.3011
G01 X80.4063 Y60.3080
G01 X80.4034 Y60.3186
G01 X80.4017 Y60.3296
G01 X80.4012 Y60.3394
G01 X80.4012 Y60.4701
G01 X80.3906 Y60.5776
G01 X80.3607 Y60.6762
G01 X80.3121 Y60.7671
G01 X80.2467 Y60.8467
G01 X80.1671 Y60.9121
G01 X80.0762 Y60.9607
G01 X79.9776 Y60.9906
G01 X79.8701 Y61.0012
G01 X79.1299 Y61.0012
G01 X79.0224 Y60.9906
G01 X78.9238 Y60.9607
G01 X78.8329 Y60.9121
G01 X78.7533 Y60.8467
G01 X78.6879 Y60.7671
G01 X78.6393 Y60.6762
G01 X78.6094 Y60.5776
G01 X78.5988 Y60.4701
G01 X78.5988 Y59.2299
G01 X78.6000 Y59.2127
G01 X78.6000 Y58.2049
G01 X78.6014 Y58.1909
G01 X78.6018 Y58.1776
G01 X78.6043 Y58.1613
G01 X78.6079 Y58.1485
G01 X78.6108 Y58.1352
G01 X78.7087 Y57.8414
G01 X78.7147 Y57.8260
G01 X78.7216 Y57.8125
G01 X78.7266 Y57.8013
G01 X78.7327 Y57.7914
G01 X78.7420 Y57.7795
G01 X78.7491 Y57.7695
G01 X78.7598 Y57.7574
G01 X78.9551 Y57.5621
G01 X78.9601 Y57.5579
G01 X78.9677 Y57.5507
G01 X78.9798 Y57.5418
G01 X78.9891 Y57.5342
G01 X78.9992 Y57.5278
G01 X79.0128 Y57.5214
G01 X79.0234 Y57.5158
G01 X79.0346 Y57.5115
G01 X79.0492 Y57.5079
G01 X79.0606 Y57.5044
G01 X79.0768 Y57.5014
G01 X79.4703 Y57.4522
G01 X79.4823 Y57.4512
G01 X79.4976 Y57.4514
G01 X79.5149 Y57.4510
G01 X79.5264 Y57.4518
G01 X79.9199 Y57.5010
G01 X79.9263 Y57.5023
G01 X79.9363 Y57.5039
G01 X79.9498 Y57.5047
G01 X79.9608 Y57.5041
G01 X79.9704 Y57.5026
G01 X79.9798 Y57.5001
G01 X79.9890 Y57.4968
G01 X79.9967 Y57.4931
G01 X80.0051 Y57.4881
G01 X80.0120 Y57.4831
G01 X80.0228 Y57.4732
G01 X80.0276 Y57.4678
G01 X80.0334 Y57.4599
G01 X80.0384 Y57.4515
G01 X80.0425 Y57.4427
G01 X80.0458 Y57.4335
G01 X80.0481 Y57.4241
G01 X80.0496 Y57.4144
G01 X80.0500 Y57.4059
G01 X80.0500 Y56.3286
G01 X80.0495 Y56.3200
G01 X80.0485 Y56.3127
G01 X80.0457 Y56.3007
G01 X80.0414 Y56.2893
G01 X80.0382 Y56.2826
G01 X80.0338 Y56.2752
G01 X80.0273 Y56.2663
G01 X80.0207 Y56.2590
G01 X80.0125 Y56.2517
G01 X80.0035 Y56.2453
G01 X79.9950 Y56.2405
G01 X79.9883 Y56.2374
G01 X79.9814 Y56.2348
G01 X79.9707 Y56.2319
G01 X79.9598 Y56.2302
G01 X79.9475 Y56.2298
G01 X79.9402 Y56.2302
G01 X79.9317 Y56.2315
G01 X79.8385 Y56.2500
G01 X79.6415 Y56.2500
G01 X79.4483 Y56.2115
G01 X79.2663 Y56.1362
G01 X79.1026 Y56.0267
G01 X78.9633 Y55.8874
G01 X78.8538 Y55.7237
G01 X78.7785 Y55.5417
G01 X78.7400 Y55.3485
G01 X78.7400 Y55.1515
G01 X78.7785 Y54.9583
G01 X78.8538 Y54.7763
G01 X78.9633 Y54.6126
G01 X79.1026 Y54.4733
G01 X79.2663 Y54.3638
G01 X79.3305 Y54.3372
G01 X79.3372 Y54.3340
G01 X79.3435 Y54.3302
G01 X79.3525 Y54.3239
G01 X79.3607 Y54.3165
G01 X79.3673 Y54.3092
G01 X79.3738 Y54.3003
G01 X79.3793 Y54.2907
G01 X79.3824 Y54.2840
G01 X79.3849 Y54.2771
G01 X79.3876 Y54.2677
G01 X79.3894 Y54.2568
G01 X79.3900 Y54.2470
G01 X79.3900 Y49.8444
G01 X79.3895 Y49.8346
G01 X79.3881 Y49.8249
G01 X79.3861 Y49.8165
G01 X79.3814 Y49.8039
G01 X79.3782 Y49.7972
G01 X79.3732 Y49.7888
G01 X79.3673 Y49.7809
G01 X79.3624 Y49.7754
G01 X78.9830 Y49.3959
G01 X78.9757 Y49.3893
G01 X78.9678 Y49.3835
G01 X78.9594 Y49.3784
G01 X78.9505 Y49.3742
G01 X78.9413 Y49.3709
G01 X78.9317 Y49.3685
G01 X78.9220 Y49.3671
G01 X78.9147 Y49.3667
G01 X78.9000 Y49.3674
G01 X78.8915 Y49.3688
G01 X78.8820 Y49.3713
G01 X78.8740 Y49.3742
G01 X78.8651 Y49.3784
G01 X78.8567 Y49.3835
G01 X78.8497 Y49.3885
G01 X78.8424 Y49.3950
G01 X78.8365 Y49.4013
G01 X78.8278 Y49.4131
G01 X78.8240 Y49.4195
G01 X78.8198 Y49.4284
G01 X78.8165 Y49.4376
G01 X78.8141 Y49.4471
G01 X78.8127 Y49.4568
G01 X78.8122 Y49.4666
G01 X78.8127 Y49.4764
G01 X78.8139 Y49.4849
G01 X78.8162 Y49.4945
G01 X78.8189 Y49.5026
G01 X78.8249 Y49.5154
G01 X78.8449 Y49.5814
G01 X78.8527 Y49.6608
G01 X78.8540 Y49.6693
G01 X78.8557 Y49.6765
G01 X78.8597 Y49.6882
G01 X78.8645 Y49.6982
G01 X78.8689 Y49.7055
G01 X78.8733 Y49.7115
G01 X78.8805 Y49.7199
G01 X78.8906 Y49.7289
G01 X78.9143 Y49.7451
G01 X79.0049 Y49.8357
G01 X79.0760 Y49.9421
G01 X79.1250 Y50.0604
G01 X79.1500 Y50.1860
G01 X79.1500 Y50.3140
G01 X79.1250 Y50.4396
G01 X79.0760 Y50.5579
G01 X79.0049 Y50.6643
G01 X78.9143 Y50.7549
G01 X78.8079 Y50.8260
G01 X78.6896 Y50.8750
G01 X78.5640 Y50.9000
G01 X78.4360 Y50.9000
G01 X78.3104 Y50.8750
G01 X78.1921 Y50.8260
G01 X78.0857 Y50.7549
G01 X77.9951 Y50.6643
G01 X77.9240 Y50.5579
G01 X77.8750 Y50.4396
G01 X77.8500 Y50.3140
G01 X77.8500 Y50.1860
G01 X77.8539 Y50.1648
G01 X77.8547 Y50.1525
G01 X77.8539 Y50.1403
G01 X77.8528 Y50.1330
G01 X77.8508 Y50.1247
G01 X77.8471 Y50.1142
G01 X77.8429 Y50.1054
G01 X77.8372 Y50.0959
G01 X77.8304 Y50.0872
G01 X77.8254 Y50.0818
G01 X77.8200 Y50.0768
G01 X77.8113 Y50.0700
G01 X77.8019 Y50.0643
G01 X77.7918 Y50.0596
G01 X77.7814 Y50.0561
G01 X77.7742 Y50.0544
G01 X77.7669 Y50.0533
G01 X77.7547 Y50.0525
G01 X77.7437 Y50.0531
G01 X77.7352 Y50.0544
G01 X77.7257 Y50.0568
G01 X77.7164 Y50.0601
G01 X77.7077 Y50.0642
G01 X77.6794 Y50.0728
G01 X77.6451 Y50.0762
G01 X77.2250 Y50.0762
G01 X77.2152 Y50.0767
G01 X77.2067 Y50.0779
G01 X77.1971 Y50.0801
G01 X77.1890 Y50.0829
G01 X77.1757 Y50.0892
G01 X77.1694 Y50.0930
G01 X77.1615 Y50.0989
G01 X77.1543 Y50.1055
G01 X77.1477 Y50.1128
G01 X77.1418 Y50.1206
G01 X77.1368 Y50.1291
G01 X77.1326 Y50.1379
G01 X77.1301 Y50.1448
G01 X77.1267 Y50.1579
G01 X77.1255 Y50.1664
G01 X77.1250 Y50.1762
G01 X77.1250 Y50.5482
G01 X77.1255 Y50.5555
G01 X77.1265 Y50.5628
G01 X77.1293 Y50.5747
G01 X77.1336 Y50.5862
G01 X77.1368 Y50.5929
G01 X77.1412 Y50.6003
G01 X77.1477 Y50.6092
G01 X77.1543 Y50.6164
G01 X77.8636 Y51.3258
G01 X77.8709 Y51.3323
G01 X77.8798 Y51.3389
G01 X77.8872 Y51.3432
G01 X77.8938 Y51.3464
G01 X77.9053 Y51.3507
G01 X77.9172 Y51.3535
G01 X77.9245 Y51.3546
G01 X77.9319 Y51.3550
G01 X77.9441 Y51.3546
G01 X77.9550 Y51.3529
G01 X77.9657 Y51.3500
G01 X77.9726 Y51.3474
G01 X77.9804 Y51.3438
G01 X77.9919 Y51.3368
G01 X77.9978 Y51.3323
G01 X78.0042 Y51.3266
G01 X78.0857 Y51.2451
G01 X78.1921 Y51.1740
G01 X78.3104 Y51.1250
G01 X78.4360 Y51.1000
G01 X78.5640 Y51.1000
G01 X78.6896 Y51.1250
G01 X78.8079 Y51.1740
G01 X78.9143 Y51.2451
G01 X79.0049 Y51.3357
G01 X79.0760 Y51.4421
G01 X79.1250 Y51.5604
G01 X79.1500 Y51.6860
G01 X79.1500 Y51.8140
G01 X79.1250 Y51.9396
G01 X79.0760 Y52.0579
G01 X79.0049 Y52.1643
G01 X78.9143 Y52.2549
G01 X78.8079 Y52.3260
G01 X78.6896 Y52.3750
G01 X78.5532 Y52.4021
G01 X78.5449 Y52.4043
G01 X78.5379 Y52.4067
G01 X78.5267 Y52.4118
G01 X78.5163 Y52.4182
G01 X78.5104 Y52.4227
G01 X78.5049 Y52.4276
G01 X78.4974 Y52.4356
G01 X78.4907 Y52.4444
G01 X78.4846 Y52.4550
G01 X78.4815 Y52.4617
G01 X78.4789 Y52.4686
G01 X78.4758 Y52.4805
G01 X78.4742 Y52.4914
G01 X78.4739 Y52.5000
G01 X78.4742 Y52.5074
G01 X78.4758 Y52.5195
G01 X78.4789 Y52.5314
G01 X78.4815 Y52.5383
G01 X78.4857 Y52.5471
G01 X78.4921 Y52.5576
G01 X78.4966 Y52.5635
G01 X78.5032 Y52.5707
G01 X78.5124 Y52.5788
G01 X78.5183 Y52.5832
G01 X78.5257 Y52.5876
G01 X78.5379 Y52.5933
G01 X78.5449 Y52.5957
G01 X78.5532 Y52.5978
G01 X78.6896 Y52.6250
G01 X78.8079 Y52.6740
G01 X78.9143 Y52.7451
G01 X79.0049 Y52.8357
G01 X79.0760 Y52.9421
G01 X79.1250 Y53.0604
G01 X79.1500 Y53.1860
G01 X79.1500 Y53.3140
G01 X79.1250 Y53.4396
G01 X79.0760 Y53.5579
G01 X79.0049 Y53.6643
G01 X78.9143 Y53.7549
G01 X78.8079 Y53.8260
G01 X78.6896 Y53.8750
G01 X78.5640 Y53.9000
G01 X78.4360 Y53.9000
G01 X78.3104 Y53.8750
G01 X78.1921 Y53.8260
G01 X78.0857 Y53.7549
G01 X77.9951 Y53.6643
G01 X77.9804 Y53.6424
G01 X77.9760 Y53.6365
G01 X77.9694 Y53.6293
G01 X77.9621 Y53.6227
G01 X77.9542 Y53.6168
G01 X77.9458 Y53.6118
G01 X77.9369 Y53.6076
G01 X77.9277 Y53.6043
G01 X77.9194 Y53.6021
G01 X77.9060 Y53.6003
G01 X77.8987 Y53.6000
G01 X77.8138 Y53.6000
G01 X77.7929 Y53.6017
G01 X77.7243 Y53.5949
G01 X77.6583 Y53.5749
G01 X77.5975 Y53.5424
G01 X77.5442 Y53.4987
G01 X77.5356 Y53.4882
G01 X77.5298 Y53.4818
G01 X75.9957 Y51.9478
G01 X75.9894 Y51.9420
G01 X75.9806 Y51.9353
G01 X75.9700 Y51.9292
G01 X75.9633 Y51.9261
G01 X75.9552 Y51.9231
G01 X75.9433 Y51.9202
G01 X75.9348 Y51.9189
G01 X75.9275 Y51.9185
G01 X75.9152 Y51.9189
G01 X75.9031 Y51.9209
G01 X75.8960 Y51.9228
G01 X75.8890 Y51.9252
G01 X75.8778 Y51.9303
G01 X75.8684 Y51.9360
G01 X75.8615 Y51.9412
G01 X75.8560 Y51.9461
G01 X75.8477 Y51.9550
G01 X75.8405 Y51.9650
G01 X75.8368 Y51.9713
G01 X75.8331 Y51.9791
G01 X75.8293 Y51.9895
G01 X75.8265 Y52.0014
G01 X75.8255 Y52.0087
G01 X75.8250 Y52.0185
G01 X75.8250 Y53.3398
G01 X75.8255 Y53.3484
G01 X75.8267 Y53.3569
G01 X75.8301 Y53.3700
G01 X75.8326 Y53.3769
G01 X75.8368 Y53.3858
G01 X75.8418 Y53.3942
G01 X75.8462 Y53.4001
G01 X75.8543 Y53.4093
G01 X76.7374 Y54.2924
G01 X76.7446 Y54.2990
G01 X76.7505 Y54.3035
G01 X76.7609 Y54.3099
G01 X76.7698 Y54.3141
G01 X76.7779 Y54.3170
G01 X76.7910 Y54.3202
G01 X76.7983 Y54.3212
G01 X76.8081 Y54.3217
G01 X76.8179 Y54.3212
G01 X76.8264 Y54.3200
G01 X76.8371 Y54.3174
G01 X76.8452 Y54.3146
G01 X76.9083 Y54.2885
G01 X77.1015 Y54.2500
G01 X77.2985 Y54.2500
G01 X77.4917 Y54.2885
G01 X77.6737 Y54.3638
G01 X77.8374 Y54.4733
G01 X77.9767 Y54.6126
G01 X78.0862 Y54.7763
G01 X78.1615 Y54.9583
G01 X78.2000 Y55.1515
G01 X78.2000 Y55.3485
G01 X78.1615 Y55.5417
G01 X78.0862 Y55.7237
G01 X77.9763 Y55.8881
G01 X77.9719 Y55.8931
G01 X77.9655 Y55.9021
G01 X77.9618 Y55.9085
G01 X77.9586 Y55.9151
G01 X77.9547 Y55.9254
G01 X77.9519 Y55.9361
G01 X77.9503 Y55.9483
G01 X77.9500 Y55.9556
G01 X77.9500 Y59.5730
G01 X77.9504 Y59.5816
G01 X77.9522 Y59.6000
G01 X77.9435 Y59.6882
G01 X77.9177 Y59.7730
G01 X77.8760 Y59.8512
G01 X77.8197 Y59.9197
G01 X77.8054 Y59.9315
G01 X77.7991 Y59.9373
G01 X77.5873 Y60.1491
G01 X77.5815 Y60.1554
G01 X77.5697 Y60.1697
G01 X77.5012 Y60.2260
G01 X77.4530 Y60.2517
G01 X77.4456 Y60.2562
G01 X77.4397 Y60.2605
G01 X77.4296 Y60.2695
G01 X77.4239 Y60.2759
G01 X77.4180 Y60.2838
G01 X77.4119 Y60.2944
G01 X77.4088 Y60.3011
G01 X77.4063 Y60.3080
G01 X77.4034 Y60.3186
G01 X77.4017 Y60.3296
G01 X77.4012 Y60.3394
G01 X77.4012 Y60.4701
G01 X77.3906 Y60.5776
G01 X77.3607 Y60.6762
G01 X77.3121 Y60.7671
G01 X77.2467 Y60.8467
G01 X77.1671 Y60.9121
G01 X77.0762 Y60.9607
G01 X76.9776 Y60.9906
G01 X76.8701 Y61.0012
G01 X76.1299 Y61.0012
G01 X76.0224 Y60.9906
G01 X75.9238 Y60.9607
G01 X75.8329 Y60.9121
G01 X75.7533 Y60.8467
G01 X75.6879 Y60.7671
G01 X75.6393 Y60.6762
G01 X75.6094 Y60.5776
G01 X75.5988 Y60.4701
G01 X75.5988 Y59.2299
G01 X75.6000 Y59.2127
G01 X75.6000 Y58.2049
G01 X75.6014 Y58.1909
G01 X75.6018 Y58.1776
G01 X75.6043 Y58.1613
G01 X75.6079 Y58.1485
G01 X75.6108 Y58.1352
G01 X75.7087 Y57.8414
G01 X75.7147 Y57.8260
G01 X75.7216 Y57.8125
G01 X75.7266 Y57.8013
G01 X75.7327 Y57.7914
G01 X75.7420 Y57.7795
G01 X75.7491 Y57.7695
G01 X75.7598 Y57.7574
G01 X75.9551 Y57.5621
G01 X75.9601 Y57.5579
G01 X75.9677 Y57.5507
G01 X75.9798 Y57.5418
G01 X75.9891 Y57.5342
G01 X75.9992 Y57.5278
G01 X76.0128 Y57.5214
G01 X76.0234 Y57.5158
G01 X76.0346 Y57.5115
G01 X76.0492 Y57.5079
G01 X76.0606 Y57.5044
G01 X76.0768 Y57.5014
G01 X76.4703 Y57.4522
G01 X76.4823 Y57.4512
G01 X76.4976 Y57.4514
G01 X76.5149 Y57.4510
G01 X76.5264 Y57.4518
G01 X76.9199 Y57.5010
G01 X76.9352 Y57.5037
G01 X76.9486 Y57.5047
G01 X76.9596 Y57.5042
G01 X76.9704 Y57.5026
G01 X76.9798 Y57.5001
G01 X76.9901 Y57.4963
G01 X76.9988 Y57.4919
G01 X77.0081 Y57.4861
G01 X77.0157 Y57.4800
G01 X77.0211 Y57.4750
G01 X77.0260 Y57.4696
G01 X77.0347 Y57.4578
G01 X77.0389 Y57.4504
G01 X77.0430 Y57.4416
G01 X77.0458 Y57.4335
G01 X77.0481 Y57.4241
G01 X77.0496 Y57.4144
G01 X77.0500 Y57.4059
G01 X77.0500 Y56.3194
G01 X77.0492 Y56.3096
G01 X77.0481 Y56.3023
G01 X77.0464 Y56.2952
G01 X77.0429 Y56.2847
G01 X77.0382 Y56.2747
G01 X77.0325 Y56.2652
G01 X77.0257 Y56.2565
G01 X77.0207 Y56.2511
G01 X77.0153 Y56.2461
G01 X77.0066 Y56.2393
G01 X76.9950 Y56.2325
G01 X76.9871 Y56.2290
G01 X76.9779 Y56.2258
G01 X76.9695 Y56.2237
G01 X76.9083 Y56.2115
G01 X76.7263 Y56.1362
G01 X76.5626 Y56.0267
G01 X76.4233 Y55.8874
G01 X76.3138 Y55.7237
G01 X76.2385 Y55.5417
G01 X76.2000 Y55.3485
G01 X76.2000 Y55.1515
G01 X76.2385 Y54.9583
G01 X76.2646 Y54.8952
G01 X76.2674 Y54.8871
G01 X76.2700 Y54.8764
G01 X76.2712 Y54.8679
G01 X76.2717 Y54.8581
G01 X76.2712 Y54.8483
G01 X76.2702 Y54.8410
G01 X76.2666 Y54.8267
G01 X76.2636 Y54.8187
G01 X76.2593 Y54.8099
G01 X76.2549 Y54.8025
G01 X76.2505 Y54.7966
G01 X76.2424 Y54.7874
G01 X75.3449 Y53.8898
G01 X75.3385 Y53.8841
G01 X75.3306 Y53.8782
G01 X75.3222 Y53.8732
G01 X75.3155 Y53.8700
G01 X75.3017 Y53.8650
G01 X75.2933 Y53.8631
G01 X75.2836 Y53.8617
G01 X75.2750 Y53.8614
G01 X75.2652 Y53.8619
G01 X75.2555 Y53.8633
G01 X75.2460 Y53.8657
G01 X75.2367 Y53.8690
G01 X75.2278 Y53.8732
G01 X75.2194 Y53.8782
G01 X75.2135 Y53.8826
G01 X75.2026 Y53.8924
G01 X75.1969 Y53.8989
G01 X75.1912 Y53.9069
G01 X75.1868 Y53.9142
G01 X75.1826 Y53.9231
G01 X75.1793 Y53.9324
G01 X75.1769 Y53.9419
G01 X75.1755 Y53.9516
G01 X75.1750 Y53.9614
G01 X75.1750 Y54.3380
G01 X75.1758 Y54.3502
G01 X75.1769 Y54.3575
G01 X75.1786 Y54.3646
G01 X75.1826 Y54.3762
G01 X75.1880 Y54.3873
G01 X75.1918 Y54.3935
G01 X75.1969 Y54.4005
G01 X75.2052 Y54.4096
G01 X75.2115 Y54.4153
G01 X75.2184 Y54.4204
G01 X75.2974 Y54.4733
G01 X75.4367 Y54.6126
G01 X75.5462 Y54.7763
G01 X75.6215 Y54.9583
G01 X75.6600 Y55.1515
G01 X75.6600 Y55.3485
G01 X75.6215 Y55.5417
G01 X75.5462 Y55.7237
G01 X75.4367 Y55.8874
G01 X75.2974 Y56.0267
G01 X75.1544 Y56.1223
G01 X75.1465 Y56.1281
G01 X75.1410 Y56.1330
G01 X75.1319 Y56.1430
G01 X75.1268 Y56.1499
G01 X75.1224 Y56.1572
G01 X75.1171 Y56.1683
G01 X75.1143 Y56.1764
G01 X75.1124 Y56.1836
G01 X75.1106 Y56.1944
G01 X75.1100 Y56.2055
G01 X75.1100 Y57.0630
G01 X75.1104 Y57.0716
G01 X75.1122 Y57.0900
G01 X75.1035 Y57.1782
G01 X75.0777 Y57.2630
G01 X75.0360 Y57.3412
G01 X74.9727 Y57.4180
G01 X74.9655 Y57.4279
G01 X74.9618 Y57.4343
G01 X74.9586 Y57.4409
G01 X74.9547 Y57.4512
G01 X74.9519 Y57.4619
G01 X74.9503 Y57.4741
G01 X74.9500 Y57.4814
G01 X74.9500 Y58.9560
G01 X74.9504 Y58.9646
G01 X74.9522 Y58.9830
G01 X74.9435 Y59.0712
G01 X74.9177 Y59.1560
G01 X74.8760 Y59.2342
G01 X74.8197 Y59.3027
G01 X74.8054 Y59.3145
G01 X74.7991 Y59.3203
G01 X74.4305 Y59.6889
G01 X74.4239 Y59.6962
G01 X74.4174 Y59.7051
G01 X74.4124 Y59.7135
G01 X74.4079 Y59.7236
G01 X74.4055 Y59.7306
G01 X74.4031 Y59.7401
G01 X74.4017 Y59.7498
G01 X74.4012 Y59.7596
G01 X74.4012 Y60.4701
G01 X74.3906 Y60.5776
G01 X74.3607 Y60.6762
G01 X74.3121 Y60.7671
G01 X74.2467 Y60.8467
G01 X74.1671 Y60.9121
G01 X74.0762 Y60.9607
G01 X73.9776 Y60.9906
G01 X73.8701 Y61.0012
G01 X73.1299 Y61.0012
G01 X73.0224 Y60.9906
G01 X72.9238 Y60.9607
G01 X72.8329 Y60.9121
G01 X72.7533 Y60.8467
G01 X72.6879 Y60.7671
G01 X72.6393 Y60.6762
G01 X72.6094 Y60.5776
G01 X72.5988 Y60.4701
G01 X72.5988 Y59.2299
G01 X72.6000 Y59.2127
G01 X72.6000 Y58.2049
G01 X72.6014 Y58.1909
G01 X72.6018 Y58.1776
G01 X72.6043 Y58.1613
G01 X72.6079 Y58.1485
G01 X72.6108 Y58.1352
G01 X72.7087 Y57.8414
G01 X72.7147 Y57.8260
G01 X72.7216 Y57.8125
G01 X72.7266 Y57.8013
G01 X72.7327 Y57.7914
G01 X72.7420 Y57.7795
G01 X72.7491 Y57.7695
G01 X72.7598 Y57.7574
G01 X72.9551 Y57.5621
G01 X72.9601 Y57.5579
G01 X72.9677 Y57.5507
G01 X72.9798 Y57.5418
G01 X72.9891 Y57.5342
G01 X72.9992 Y57.5278
G01 X73.0128 Y57.5214
G01 X73.0234 Y57.5158
G01 X73.0346 Y57.5115
G01 X73.0492 Y57.5079
G01 X73.0606 Y57.5044
G01 X73.0768 Y57.5014
G01 X73.4703 Y57.4522
G01 X73.4823 Y57.4512
G01 X73.4976 Y57.4514
G01 X73.5149 Y57.4510
G01 X73.5264 Y57.4518
G01 X73.9199 Y57.5010
G01 X73.9263 Y57.5023
G01 X73.9363 Y57.5039
G01 X73.9498 Y57.5047
G01 X73.9596 Y57.5042
G01 X73.9728 Y57.5020
G01 X73.9798 Y57.5001
G01 X73.9879 Y57.4972
G01 X73.9988 Y57.4919
G01 X74.0061 Y57.4875
G01 X74.0120 Y57.4831
G01 X74.0211 Y57.4750
G01 X74.0291 Y57.4658
G01 X74.0334 Y57.4599
G01 X74.0378 Y57.4526
G01 X74.0430 Y57.4416
G01 X74.0458 Y57.4335
G01 X74.0481 Y57.4241
G01 X74.0496 Y57.4144
G01 X74.0500 Y57.4071
G01 X74.0500 Y57.2758
G01 X74.0496 Y57.2684
G01 X74.0478 Y57.2500
G01 X74.0565 Y57.1618
G01 X74.0823 Y57.0770
G01 X74.1240 Y56.9988
G01 X74.1873 Y56.9220
G01 X74.1945 Y56.9120
G01 X74.1982 Y56.9057
G01 X74.2014 Y56.8991
G01 X74.2050 Y56.8899
G01 X74.2079 Y56.8793
G01 X74.2094 Y56.8696
G01 X74.2100 Y56.8586
G01 X74.2100 Y56.2055
G01 X74.2095 Y56.1957
G01 X74.2083 Y56.1872
G01 X74.2049 Y56.1741
G01 X74.2024 Y56.1672
G01 X74.1982 Y56.1583
G01 X74.1932 Y56.1499
G01 X74.1881 Y56.1430
G01 X74.1790 Y56.1330
G01 X74.1735 Y56.1281
G01 X74.1656 Y56.1223
G01 X74.0226 Y56.0267
G01 X73.8833 Y55.8874
G01 X73.7738 Y55.7237
G01 X73.6985 Y55.5417
G01 X73.6600 Y55.3485
G01 X73.6600 Y55.1515
G01 X73.6985 Y54.9583
G01 X73.7738 Y54.7763
G01 X73.8833 Y54.6126
G01 X74.0226 Y54.4733
G01 X74.1863 Y54.3638
G01 X74.3683 Y54.2885
G01 X74.3945 Y54.2832
G01 X74.4029 Y54.2812
G01 X74.4133 Y54.2776
G01 X74.4211 Y54.2739
G01 X74.4295 Y54.2690
G01 X74.4365 Y54.2640
G01 X74.4474 Y54.2541
G01 X74.4523 Y54.2486
G01 X74.4582 Y54.2407
G01 X74.4632 Y54.2323
G01 X74.4669 Y54.2245
G01 X74.4707 Y54.2142
G01 X74.4731 Y54.2047
G01 X74.4745 Y54.1949
G01 X74.4750 Y54.1864
G01 X74.4750 Y53.6314
G01 X74.4744 Y53.6204
G01 X74.4731 Y53.6119
G01 X74.4707 Y53.6024
G01 X74.4674 Y53.5931
G01 X74.4638 Y53.5853
G01 X74.4588 Y53.5769
G01 X74.4538 Y53.5699
G01 X74.4440 Y53.5590
G01 X74.4385 Y53.5541
G01 X74.4306 Y53.5482
G01 X74.4222 Y53.5432
G01 X74.4133 Y53.5390
G01 X74.4040 Y53.5357
G01 X74.3945 Y53.5333
G01 X74.3848 Y53.5319
G01 X74.3775 Y53.5314
G01 X74.3664 Y53.5317
G01 X74.3567 Y53.5331
G01 X74.3460 Y53.5357
G01 X74.3379 Y53.5385
G01 X74.3278 Y53.5432
G01 X74.3194 Y53.5482
G01 X74.3115 Y53.5541
G01 X74.3052 Y53.5598
G01 X73.0776 Y54.7874
G01 X73.0710 Y54.7946
G01 X73.0645 Y54.8036
G01 X73.0601 Y54.8109
G01 X73.0559 Y54.8198
G01 X73.0526 Y54.8291
G01 X73.0507 Y54.8362
G01 X73.0487 Y54.8495
G01 X73.0483 Y54.8581
G01 X73.0488 Y54.8679
G01 X73.0507 Y54.8800
G01 X73.0526 Y54.8871
G01 X73.0550 Y54.8941
G01 X73.0815 Y54.9583
G01 X73.1200 Y55.1515
G01 X73.1200 Y55.3485
G01 X73.0815 Y55.5417
G01 X73.0062 Y55.7237
G01 X72.8967 Y55.8874
G01 X72.7574 Y56.0267
G01 X72.5937 Y56.1362
G01 X72.4117 Y56.2115
G01 X72.2185 Y56.2500
G01 X72.0488 Y56.2500
G01 X72.0378 Y56.2508
G01 X72.0305 Y56.2519
G01 X72.0221 Y56.2539
G01 X72.0117 Y56.2576
G01 X72.0028 Y56.2618
G01 X71.9934 Y56.2675
G01 X71.9847 Y56.2743
G01 X71.9776 Y56.2810
G01 X71.9727 Y56.2865
G01 X71.9682 Y56.2924
G01 X71.9624 Y56.3018
G01 X71.9576 Y56.3117
G01 X71.9543 Y56.3210
G01 X71.9519 Y56.3305
G01 X71.9505 Y56.3402
G01 X71.9500 Y56.3500
G01 X71.9500 Y58.9530
G01 X71.9504 Y58.9616
G01 X71.9522 Y58.9800
G01 X71.9435 Y59.0682
G01 X71.9177 Y59.1530
G01 X71.8760 Y59.2312
G01 X71.8197 Y59.2997
G01 X71.8054 Y59.3115
G01 X71.7991 Y59.3173
G01 X71.4305 Y59.6859
G01 X71.4239 Y59.6932
G01 X71.4174 Y59.7021
G01 X71.4124 Y59.7105
G01 X71.4079 Y59.7206
G01 X71.4055 Y59.7276
G01 X71.4031 Y59.7371
G01 X71.4017 Y59.7468
G01 X71.4012 Y59.7566
G01 X71.4012 Y60.4701
G01 X71.3906 Y60.5776
G01 X71.3607 Y60.6762
G01 X71.3121 Y60.7671
G01 X71.2467 Y60.8467
G01 X71.1671 Y60.9121
G01 X71.0762 Y60.9607
G01 X70.9776 Y60.9906
G01 X70.8701 Y61.0012
G01 X70.1299 Y61.0012
G01 X70.0224 Y60.9906
G01 X69.9238 Y60.9607
G01 X69.8329 Y60.9121
G01 X69.7533 Y60.8467
G01 X69.6879 Y60.7671
G01 X69.6393 Y60.6762
G01 X69.6094 Y60.5776
G01 X69.5988 Y60.4701
G01 X69.5988 Y59.2299
G01 X69.6000 Y59.2127
G01 X69.6000 Y58.2049
G01 X69.6014 Y58.1909
G01 X69.6018 Y58.1776
G01 X69.6043 Y58.1613
G01 X69.6079 Y58.1485
G01 X69.6108 Y58.1352
G01 X69.7087 Y57.8414
G01 X69.7147 Y57.8260
G01 X69.7216 Y57.8125
G01 X69.7266 Y57.8013
G01 X69.7327 Y57.7914
G01 X69.7420 Y57.7795
G01 X69.7491 Y57.7695
G01 X69.7598 Y57.7574
G01 X69.9551 Y57.5621
G01 X69.9601 Y57.5579
G01 X69.9677 Y57.5507
G01 X69.9798 Y57.5418
G01 X69.9891 Y57.5342
G01 X69.9992 Y57.5278
G01 X70.0128 Y57.5214
G01 X70.0234 Y57.5158
G01 X70.0346 Y57.5115
G01 X70.0492 Y57.5079
G01 X70.0606 Y57.5044
G01 X70.0768 Y57.5014
G01 X70.4703 Y57.4522
G01 X70.4823 Y57.4512
G01 X70.4976 Y57.4514
G01 X70.5149 Y57.4510
G01 X70.5264 Y57.4518
G01 X70.9199 Y57.5010
G01 X70.9352 Y57.5037
G01 X70.9437 Y57.5045
G01 X70.9535 Y57.5046
G01 X70.9632 Y57.5038
G01 X70.9704 Y57.5026
G01 X70.9775 Y57.5008
G01 X70.9879 Y57.4972
G01 X70.9978 Y57.4925
G01 X71.0071 Y57.4868
G01 X71.0157 Y57.4800
G01 X71.0211 Y57.4750
G01 X71.0260 Y57.4696
G01 X71.0334 Y57.4599
G01 X71.0384 Y57.4515
G01 X71.0415 Y57.4449
G01 X71.0458 Y57.4335
G01 X71.0485 Y57.4216
G01 X71.0496 Y57.4144
G01 X71.0500 Y57.4047
G01 X71.0500 Y55.8970
G01 X71.0496 Y55.8884
G01 X71.0478 Y55.8700
G01 X71.0565 Y55.7818
G01 X71.0823 Y55.6970
G01 X71.1240 Y55.6188
G01 X71.1385 Y55.6007
G01 X71.1450 Y55.5903
G01 X71.1492 Y55.5814
G01 X71.1517 Y55.5745
G01 X71.1551 Y55.5614
G01 X71.1563 Y55.5529
G01 X71.1568 Y55.5431
G01 X71.1563 Y55.5333
G01 X71.1551 Y55.5248
G01 X71.1200 Y55.3485
G01 X71.1200 Y55.1515
G01 X71.1585 Y54.9583
G01 X71.2338 Y54.7763
G01 X71.3433 Y54.6126
G01 X71.4826 Y54.4733
G01 X71.6463 Y54.3638
G01 X71.8283 Y54.2885
G01 X72.0215 Y54.2500
G01 X72.2185 Y54.2500
G01 X72.4117 Y54.2885
G01 X72.4748 Y54.3146
G01 X72.4840 Y54.3178
G01 X72.4948 Y54.3202
G01 X72.5021 Y54.3212
G01 X72.5119 Y54.3217
G01 X72.5217 Y54.3212
G01 X72.5314 Y54.3198
G01 X72.5409 Y54.3174
G01 X72.5502 Y54.3141
G01 X72.5591 Y54.3099
G01 X72.5675 Y54.3049
G01 X72.5754 Y54.2990
G01 X72.5826 Y54.2924
G01 X73.7957 Y53.0793
G01 X73.8031 Y53.0711
G01 X73.8082 Y53.0642
G01 X73.8132 Y53.0558
G01 X73.8174 Y53.0469
G01 X73.8199 Y53.0400
G01 X73.8233 Y53.0269
G01 X73.8245 Y53.0184
G01 X73.8250 Y53.0098
G01 X73.8250 Y51.7414
G01 X73.8247 Y51.7340
G01 X73.8233 Y51.7231
G01 X73.8214 Y51.7147
G01 X73.8164 Y51.7009
G01 X73.8126 Y51.6932
G01 X73.8075 Y51.6848
G01 X73.8023 Y51.6779
G01 X73.7948 Y51.6698
G01 X73.7885 Y51.6641
G01 X73.7806 Y51.6582
G01 X73.7722 Y51.6532
G01 X73.7633 Y51.6490
G01 X73.7540 Y51.6457
G01 X73.7445 Y51.6433
G01 X73.7348 Y51.6419
G01 X73.7262 Y51.6414
G01 X73.7152 Y51.6419
G01 X73.7055 Y51.6433
G01 X73.6960 Y51.6457
G01 X73.6867 Y51.6490
G01 X73.6778 Y51.6532
G01 X73.6694 Y51.6582
G01 X73.6615 Y51.6641
G01 X73.6543 Y51.6707
G01 X70.5376 Y54.7874
G01 X70.5302 Y54.7956
G01 X70.5251 Y54.8025
G01 X70.5201 Y54.8109
G01 X70.5159 Y54.8198
G01 X70.5126 Y54.8291
G01 X70.5102 Y54.8386
G01 X70.5088 Y54.8483
G01 X70.5083 Y54.8581
G01 X70.5088 Y54.8679
G01 X70.5107 Y54.8800
G01 X70.5126 Y54.8871
G01 X70.5150 Y54.8941
G01 X70.5415 Y54.9583
G01 X70.5800 Y55.1515
G01 X70.5800 Y55.3485
G01 X70.5415 Y55.5417
G01 X70.4662 Y55.7237
G01 X70.3567 Y55.8874
G01 X70.2174 Y56.0267
G01 X70.0537 Y56.1362
G01 X69.8717 Y56.2115
G01 X69.6785 Y56.2500
G01 X69.4815 Y56.2500
G01 X69.4134 Y56.2364
G01 X69.4049 Y56.2352
G01 X69.3951 Y56.2348
G01 X69.3841 Y56.2354
G01 X69.3732 Y56.2372
G01 X69.3661 Y56.2391
G01 X69.3591 Y56.2415
G01 X69.3480 Y56.2466
G01 X69.3375 Y56.2530
G01 X69.3317 Y56.2575
G01 X69.3244 Y56.2640
G01 X68.9793 Y56.6092
G01 X68.9719 Y56.6174
G01 X68.9655 Y56.6264
G01 X68.9618 Y56.6327
G01 X68.9586 Y56.6394
G01 X68.9543 Y56.6509
G01 X68.9519 Y56.6604
G01 X68.9508 Y56.6677
G01 X68.9500 Y56.6799
G01 X68.9500 Y59.5730
G01 X68.9504 Y59.5816
G01 X68.9522 Y59.6000
G01 X68.9435 Y59.6882
G01 X68.9177 Y59.7730
G01 X68.8760 Y59.8512
G01 X68.8197 Y59.9197
G01 X68.8054 Y59.9315
G01 X68.7991 Y59.9373
G01 X68.5873 Y60.1491
G01 X68.5815 Y60.1554
G01 X68.5697 Y60.1697
G01 X68.5012 Y60.2260
G01 X68.4530 Y60.2517
G01 X68.4456 Y60.2562
G01 X68.4397 Y60.2605
G01 X68.4288 Y60.2704
G01 X68.4231 Y60.2769
G01 X68.4174 Y60.2848
G01 X68.4119 Y60.2944
G01 X68.4088 Y60.3011
G01 X68.4063 Y60.3080
G01 X68.4034 Y60.3186
G01 X68.4017 Y60.3296
G01 X68.4012 Y60.3394
G01 X68.4012 Y60.4701
G01 X68.3906 Y60.5776
G01 X68.3607 Y60.6762
G01 X68.3121 Y60.7671
G01 X68.2467 Y60.8467
G01 X68.1671 Y60.9121
G01 X68.0762 Y60.9607
G01 X67.9776 Y60.9906
G01 X67.8701 Y61.0012
G01 X67.1299 Y61.0012
G01 X67.0224 Y60.9906
G01 X66.9238 Y60.9607
G01 X66.8329 Y60.9121
G01 X66.7533 Y60.8467
G01 X66.6879 Y60.7671
G01 X66.6393 Y60.6762
G01 X66.6094 Y60.5776
G01 X66.5988 Y60.4701
G01 X66.5988 Y59.2299
G01 X66.6000 Y59.2127
G01 X66.6000 Y58.2049
G01 X66.6014 Y58.1909
G01 X66.6018 Y58.1776
G01 X66.6043 Y58.1613
G01 X66.6079 Y58.1485
G01 X66.6108 Y58.1352
G01 X66.7087 Y57.8414
G01 X66.7147 Y57.8260
G01 X66.7216 Y57.8125
G01 X66.7266 Y57.8013
G01 X66.7327 Y57.7914
G01 X66.7420 Y57.7795
G01 X66.7491 Y57.7695
G01 X66.7598 Y57.7574
G01 X66.9551 Y57.5621
G01 X66.9601 Y57.5579
G01 X66.9677 Y57.5507
G01 X66.9798 Y57.5418
G01 X66.9891 Y57.5342
G01 X66.9992 Y57.5278
G01 X67.0128 Y57.5214
G01 X67.0234 Y57.5158
G01 X67.0346 Y57.5115
G01 X67.0492 Y57.5079
G01 X67.0606 Y57.5044
G01 X67.0768 Y57.5014
G01 X67.4703 Y57.4522
G01 X67.4823 Y57.4512
G01 X67.4976 Y57.4514
G01 X67.5149 Y57.4510
G01 X67.5264 Y57.4518
G01 X67.9199 Y57.5010
G01 X67.9352 Y57.5037
G01 X67.9498 Y57.5047
G01 X67.9584 Y57.5043
G01 X67.9704 Y57.5026
G01 X67.9810 Y57.4998
G01 X67.9890 Y57.4968
G01 X67.9956 Y57.4937
G01 X68.0051 Y57.4881
G01 X68.0139 Y57.4816
G01 X68.0219 Y57.4741
G01 X68.0291 Y57.4658
G01 X68.0334 Y57.4599
G01 X68.0372 Y57.4537
G01 X68.0425 Y57.4427
G01 X68.0461 Y57.4323
G01 X68.0485 Y57.4216
G01 X68.0496 Y57.4144
G01 X68.0500 Y57.4059
G01 X68.0500 Y56.4791
G01 X68.0496 Y56.4705
G01 X68.0478 Y56.4521
G01 X68.0565 Y56.3639
G01 X68.0823 Y56.2790
G01 X68.1240 Y56.2009
G01 X68.1803 Y56.1324
G01 X68.1946 Y56.1206
G01 X68.2009 Y56.1148
G01 X68.6168 Y55.6990
G01 X68.6234 Y55.6917
G01 X68.6292 Y55.6838
G01 X68.6343 Y55.6754
G01 X68.6389 Y55.6654
G01 X68.6418 Y55.6573
G01 X68.6436 Y55.6501
G01 X68.6456 Y55.6380
G01 X68.6460 Y55.6258
G01 X68.6456 Y55.6184
G01 X68.6444 Y55.6099
G01 X68.6418 Y55.5992
G01 X68.6389 Y55.5911
G01 X68.6185 Y55.5417
G01 X68.5800 Y55.3485
G01 X68.5800 Y55.1515
G01 X68.6185 Y54.9583
G01 X68.6938 Y54.7763
G01 X68.8033 Y54.6126
G01 X68.8951 Y54.5207
G01 X68.9009 Y54.5144
G01 X68.9075 Y54.5056
G01 X68.9126 Y54.4972
G01 X68.9168 Y54.4883
G01 X68.9197 Y54.4802
G01 X68.9225 Y54.4695
G01 X68.9239 Y54.4598
G01 X68.9244 Y54.4488
G01 X68.9236 Y54.4378
G01 X68.9225 Y54.4305
G01 X68.9207 Y54.4233
G01 X68.9177 Y54.4140
G01 X68.9131 Y54.4039
G01 X68.9075 Y54.3944
G01 X68.9017 Y54.3865
G01 X68.8942 Y54.3784
G01 X68.8869 Y54.3719
G01 X68.8779 Y54.3655
G01 X68.8693 Y54.3607
G01 X68.8626 Y54.3576
G01 X68.8557 Y54.3551
G01 X68.8451 Y54.3522
G01 X68.8342 Y54.3505
G01 X68.8244 Y54.3500
G01 X68.4752 Y54.3500
G01 X68.4642 Y54.3508
G01 X68.4569 Y54.3519
G01 X68.4497 Y54.3536
G01 X68.4393 Y54.3571
G01 X68.4292 Y54.3618
G01 X68.4208 Y54.3668
G01 X68.4149 Y54.3712
G01 X68.4057 Y54.3793
G01 X67.9976 Y54.7874
G01 X67.9910 Y54.7946
G01 X67.9858 Y54.8015
G01 X67.9801 Y54.8109
G01 X67.9759 Y54.8198
G01 X67.9726 Y54.8291
G01 X67.9705 Y54.8374
G01 X67.9688 Y54.8483
G01 X67.9683 Y54.8569
G01 X67.9687 Y54.8667
G01 X67.9698 Y54.8752
G01 X67.9722 Y54.8860
G01 X67.9754 Y54.8952
G01 X68.0015 Y54.9583
G01 X68.0400 Y55.1515
G01 X68.0400 Y55.3485
G01 X68.0015 Y55.5417
G01 X67.9262 Y55.7237
G01 X67.8167 Y55.8874
G01 X67.6774 Y56.0267
G01 X67.5137 Y56.1362
G01 X67.3317 Y56.2115
G01 X67.1385 Y56.2500
G01 X66.9415 Y56.2500
G01 X66.7728 Y56.2164
G01 X66.7607 Y56.2148
G01 X66.7533 Y56.2145
G01 X66.7459 Y56.2148
G01 X66.7338 Y56.2164
G01 X66.7243 Y56.2188
G01 X66.7173 Y56.2212
G01 X66.7061 Y56.2263
G01 X66.6977 Y56.2314
G01 X66.6918 Y56.2357
G01 X66.6826 Y56.2438
G01 X65.9793 Y56.9471
G01 X65.9712 Y56.9563
G01 X65.9668 Y56.9622
G01 X65.9624 Y56.9696
G01 X65.9576 Y56.9795
G01 X65.9536 Y56.9911
G01 X65.9519 Y56.9983
G01 X65.9508 Y57.0056
G01 X65.9500 Y57.0178
G01 X65.9500 Y59.5730
G01 X65.9504 Y59.5816
G01 X65.9522 Y59.6000
G01 X65.9435 Y59.6882
G01 X65.9177 Y59.7730
G01 X65.8760 Y59.8512
G01 X65.8197 Y59.9197
G01 X65.8054 Y59.9315
G01 X65.7991 Y59.9373
G01 X65.5873 Y60.1491
G01 X65.5815 Y60.1554
G01 X65.5697 Y60.1697
G01 X65.5012 Y60.2260
G01 X65.4530 Y60.2517
G01 X65.4456 Y60.2562
G01 X65.4397 Y60.2605
G01 X65.4288 Y60.2704
G01 X65.4231 Y60.2769
G01 X65.4174 Y60.2848
G01 X65.4119 Y60.2944
G01 X65.4088 Y60.3011
G01 X65.4063 Y60.3080
G01 X65.4034 Y60.3186
G01 X65.4017 Y60.3296
G01 X65.4012 Y60.3394
G01 X65.4012 Y60.4701
G01 X65.3906 Y60.5776
G01 X65.3607 Y60.6762
G01 X65.3121 Y60.7671
G01 X65.2467 Y60.8467
G01 X65.1671 Y60.9121
G01 X65.0762 Y60.9607
G01 X64.9776 Y60.9906
G01 X64.8701 Y61.0012
G01 X64.1299 Y61.0012
G01 X64.0224 Y60.9906
G01 X63.9238 Y60.9607
G01 X63.8329 Y60.9121
G01 X63.7533 Y60.8467
G01 X63.6879 Y60.7671
G01 X63.6393 Y60.6762
G01 X63.6094 Y60.5776
G01 X63.5988 Y60.4701
G01 X63.5988 Y59.2299
G01 X63.6000 Y59.2127
G01 X63.6000 Y58.2049
G01 X63.6014 Y58.1909
G01 X63.6018 Y58.1776
G01 X63.6043 Y58.1613
G01 X63.6079 Y58.1485
G01 X63.6108 Y58.1352
G01 X63.7087 Y57.8414
G01 X63.7147 Y57.8260
G01 X63.7216 Y57.8125
G01 X63.7266 Y57.8013
G01 X63.7327 Y57.7914
G01 X63.7420 Y57.7795
G01 X63.7491 Y57.7695
G01 X63.7598 Y57.7574
G01 X63.9551 Y57.5621
G01 X63.9601 Y57.5579
G01 X63.9677 Y57.5507
G01 X63.9798 Y57.5418
G01 X63.9891 Y57.5342
G01 X63.9992 Y57.5278
G01 X64.0128 Y57.5214
G01 X64.0234 Y57.5158
G01 X64.0346 Y57.5115
G01 X64.0492 Y57.5079
G01 X64.0606 Y57.5044
G01 X64.0768 Y57.5014
G01 X64.4703 Y57.4522
G01 X64.4823 Y57.4512
G01 X64.4976 Y57.4514
G01 X64.5149 Y57.4510
G01 X64.5264 Y57.4518
G01 X64.9199 Y57.5010
G01 X64.9341 Y57.5036
G01 X64.9437 Y57.5045
G01 X64.9535 Y57.5046
G01 X64.9608 Y57.5041
G01 X64.9680 Y57.5030
G01 X64.9787 Y57.5005
G01 X64.9879 Y57.4972
G01 X64.9978 Y57.4925
G01 X65.0061 Y57.4875
G01 X65.0139 Y57.4816
G01 X65.0219 Y57.4741
G01 X65.0276 Y57.4678
G01 X65.0334 Y57.4599
G01 X65.0384 Y57.4515
G01 X65.0425 Y57.4427
G01 X65.0458 Y57.4335
G01 X65.0481 Y57.4241
G01 X65.0496 Y57.4144
G01 X65.0500 Y57.4071
G01 X65.0500 Y56.8170
G01 X65.0496 Y56.8084
G01 X65.0478 Y56.7900
G01 X65.0565 Y56.7018
G01 X65.0823 Y56.6170
G01 X65.1240 Y56.5388
G01 X65.1803 Y56.4703
G01 X65.1946 Y56.4585
G01 X65.2000 Y56.4536
G01 X65.2317 Y56.4219
G01 X65.2391 Y56.4137
G01 X65.2441 Y56.4068
G01 X65.2480 Y56.4005
G01 X65.2534 Y56.3895
G01 X65.2573 Y56.3779
G01 X65.2591 Y56.3707
G01 X65.2604 Y56.3622
G01 X65.2610 Y56.3512
G01 X65.2605 Y56.3414
G01 X65.2591 Y56.3317
G01 X65.2567 Y56.3222
G01 X65.2534 Y56.3129
G01 X65.2492 Y56.3041
G01 X65.2441 Y56.2956
G01 X65.2383 Y56.2878
G01 X65.2317 Y56.2805
G01 X65.2244 Y56.2739
G01 X65.2165 Y56.2680
G01 X65.2070 Y56.2624
G01 X65.1993 Y56.2588
G01 X65.1888 Y56.2551
G01 X65.1793 Y56.2529
G01 X65.1683 Y56.2515
G01 X65.1610 Y56.2512
G01 X64.1766 Y56.2512
G01 X64.1644 Y56.2520
G01 X64.1571 Y56.2531
G01 X64.1499 Y56.2548
G01 X64.1395 Y56.2583
G01 X64.1295 Y56.2630
G01 X64.1210 Y56.2680
G01 X64.1151 Y56.2724
G01 X64.1059 Y56.2805
G01 X62.9793 Y57.4071
G01 X62.9727 Y57.4144
G01 X62.9662 Y57.4233
G01 X62.9618 Y57.4307
G01 X62.9586 Y57.4373
G01 X62.9543 Y57.4488
G01 X62.9515 Y57.4607
G01 X62.9505 Y57.4680
G01 X62.9500 Y57.4766
G01 X62.9500 Y58.9560
G01 X62.9504 Y58.9646
G01 X62.9522 Y58.9830
G01 X62.9435 Y59.0712
G01 X62.9177 Y59.1560
G01 X62.8760 Y59.2342
G01 X62.8197 Y59.3027
G01 X62.8054 Y59.3145
G01 X62.7991 Y59.3203
G01 X62.4305 Y59.6889
G01 X62.4239 Y59.6962
G01 X62.4180 Y59.7040
G01 X62.4130 Y59.7125
G01 X62.4083 Y59.7225
G01 X62.4055 Y59.7306
G01 X62.4031 Y59.7401
G01 X62.4017 Y59.7498
G01 X62.4012 Y59.7596
G01 X62.4012 Y60.4701
G01 X62.3906 Y60.5776
G01 X62.3607 Y60.6762
G01 X62.3121 Y60.7671
G01 X62.2467 Y60.8467
G01 X62.1671 Y60.9121
G01 X62.0762 Y60.9607
G01 X61.9776 Y60.9906
G01 X61.8701 Y61.0012
G01 X61.1299 Y61.0012
G01 X61.0224 Y60.9906
G01 X60.9238 Y60.9607
G01 X60.8329 Y60.9121
G01 X60.7533 Y60.8467
G01 X60.6879 Y60.7671
G01 X60.6393 Y60.6762
G01 X60.6094 Y60.5776
G01 X60.5988 Y60.4701
G01 X60.5988 Y59.2299
G01 X60.6000 Y59.2127
G01 X60.6000 Y58.2049
G01 X60.6014 Y58.1909
G01 X60.6018 Y58.1776
G01 X60.6043 Y58.1613
G01 X60.6079 Y58.1485
G01 X60.6108 Y58.1352
G01 X60.7087 Y57.8414
G01 X60.7147 Y57.8260
G01 X60.7216 Y57.8125
G01 X60.7266 Y57.8013
G01 X60.7327 Y57.7914
G01 X60.7420 Y57.7795
G01 X60.7491 Y57.7695
G01 X60.7598 Y57.7574
G01 X60.9551 Y57.5621
G01 X60.9601 Y57.5579
G01 X60.9677 Y57.5507
G01 X60.9798 Y57.5418
G01 X60.9891 Y57.5342
G01 X60.9992 Y57.5278
G01 X61.0128 Y57.5214
G01 X61.0234 Y57.5158
G01 X61.0346 Y57.5115
G01 X61.0492 Y57.5079
G01 X61.0606 Y57.5044
G01 X61.0768 Y57.5014
G01 X61.4703 Y57.4522
G01 X61.4823 Y57.4512
G01 X61.4976 Y57.4514
G01 X61.5149 Y57.4510
G01 X61.5264 Y57.4518
G01 X61.9199 Y57.5010
G01 X61.9352 Y57.5037
G01 X61.9486 Y57.5047
G01 X61.9596 Y57.5042
G01 X61.9704 Y57.5026
G01 X61.9798 Y57.5001
G01 X61.9901 Y57.4963
G01 X61.9999 Y57.4913
G01 X62.0061 Y57.4875
G01 X62.0120 Y57.4831
G01 X62.0202 Y57.4759
G01 X62.0276 Y57.4678
G01 X62.0347 Y57.4578
G01 X62.0384 Y57.4515
G01 X62.0425 Y57.4427
G01 X62.0458 Y57.4335
G01 X62.0476 Y57.4264
G01 X62.0496 Y57.4144
G01 X62.0500 Y57.4047
G01 X62.0500 Y57.2770
G01 X62.0496 Y57.2684
G01 X62.0478 Y57.2500
G01 X62.0565 Y57.1618
G01 X62.0823 Y57.0770
G01 X62.1240 Y56.9988
G01 X62.1803 Y56.9303
G01 X62.1946 Y56.9185
G01 X62.2009 Y56.9127
G01 X63.4695 Y55.6441
G01 X63.4761 Y55.6368
G01 X63.4813 Y55.6300
G01 X63.4881 Y55.6184
G01 X63.4912 Y55.6117
G01 X63.4937 Y55.6048
G01 X63.4964 Y55.5953
G01 X63.4982 Y55.5844
G01 X63.4988 Y55.5734
G01 X63.4988 Y54.4049
G01 X63.5022 Y54.3706
G01 X63.5108 Y54.3423
G01 X63.5247 Y54.3163
G01 X63.5434 Y54.2934
G01 X63.5663 Y54.2747
G01 X63.5923 Y54.2608
G01 X63.6206 Y54.2522
G01 X63.6549 Y54.2488
G01 X64.0500 Y54.2488
G01 X64.0574 Y54.2485
G01 X64.0707 Y54.2466
G01 X64.0790 Y54.2445
G01 X64.0883 Y54.2412
G01 X64.0972 Y54.2370
G01 X64.1035 Y54.2333
G01 X64.1144 Y54.2253
G01 X64.1207 Y54.2195
G01 X64.1273 Y54.2122
G01 X64.1332 Y54.2044
G01 X64.1382 Y54.1959
G01 X64.1424 Y54.1871
G01 X64.1457 Y54.1778
G01 X64.1481 Y54.1683
G01 X64.1492 Y54.1610
G01 X64.1500 Y54.1488
G01 X64.1500 Y54.0221
G01 X64.1496 Y54.0135
G01 X64.1483 Y54.0000
G01 X64.1551 Y53.9314
G01 X64.1751 Y53.8654
G01 X64.2076 Y53.8046
G01 X64.2513 Y53.7513
G01 X64.2618 Y53.7427
G01 X64.2682 Y53.7369
G01 X65.3869 Y52.6182
G01 X65.3927 Y52.6118
G01 X65.4013 Y52.6013
G01 X65.4546 Y52.5576
G01 X65.5154 Y52.5251
G01 X65.5814 Y52.5051
G01 X65.6500 Y52.4983
G01 X65.6635 Y52.4997
G01 X65.6721 Y52.5000
G01 X69.5136 Y52.5000
G01 X69.5258 Y52.4993
G01 X69.5331 Y52.4981
G01 X69.5426 Y52.4957
G01 X69.5541 Y52.4914
G01 X69.5607 Y52.4882
G01 X69.5681 Y52.4838
G01 X69.5770 Y52.4773
G01 X69.5843 Y52.4707
G01 X71.8081 Y50.2469
G01 X71.8147 Y50.2397
G01 X71.8191 Y50.2338
G01 X71.8256 Y50.2234
G01 X71.8298 Y50.2145
G01 X71.8335 Y50.2041
G01 X71.8357 Y50.1945
G01 X71.8371 Y50.1836
G01 X71.8374 Y50.1762
G01 X71.8371 Y50.1689
G01 X71.8359 Y50.1591
G01 X71.8335 Y50.1484
G01 X71.8298 Y50.1379
G01 X71.8256 Y50.1291
G01 X71.8199 Y50.1196
G01 X71.8139 Y50.1118
G01 X71.8063 Y50.1038
G01 X71.7989 Y50.0974
G01 X71.7930 Y50.0930
G01 X71.7867 Y50.0892
G01 X71.7768 Y50.0843
G01 X71.7676 Y50.0809
G01 X71.7545 Y50.0777
G01 X71.7472 Y50.0767
G01 X71.7374 Y50.0762
G01 X71.3549 Y50.0762
G01 X71.3206 Y50.0728
G01 X71.2923 Y50.0642
G01 X71.2663 Y50.0503
G01 X71.2434 Y50.0316
G01 X71.2247 Y50.0087
G01 X71.2108 Y49.9827
G01 X71.2022 Y49.9544
G01 X71.1988 Y49.9201
G01 X71.1988 Y49.6864
G01 X71.1983 Y49.6778
G01 X71.1973 Y49.6705
G01 X71.1945 Y49.6586
G01 X71.1902 Y49.6471
G01 X71.1870 Y49.6405
G01 X71.1820 Y49.6320
G01 X71.1761 Y49.6241
G01 X71.1712 Y49.6187
G01 X71.1613 Y49.6095
G01 X71.1544 Y49.6044
G01 X71.1481 Y49.6006
G01 X71.1359 Y49.5947
G01 X71.1278 Y49.5919
G01 X71.1195 Y49.5898
G01 X71.1061 Y49.5879
G01 X71.0976 Y49.5876
G01 X71.0866 Y49.5884
G01 X71.0793 Y49.5895
G01 X71.0721 Y49.5912
G01 X71.0628 Y49.5943
G01 X71.0527 Y49.5988
G01 X71.0442 Y49.6038
G01 X71.0353 Y49.6103
G01 X71.0289 Y49.6160
G01 X70.4778 Y50.1671
G01 X70.4712 Y50.1744
G01 X70.4647 Y50.1833
G01 X70.4598 Y50.1918
G01 X70.4552 Y50.2019
G01 X70.4528 Y50.2088
G01 X70.4504 Y50.2184
G01 X70.4490 Y50.2281
G01 X70.4485 Y50.2379
G01 X70.4490 Y50.2477
G01 X70.4504 Y50.2574
G01 X70.4528 Y50.2669
G01 X70.4561 Y50.2761
G01 X70.4603 Y50.2850
G01 X70.4640 Y50.2914
G01 X70.4712 Y50.3013
G01 X70.4778 Y50.3086
G01 X70.5049 Y50.3357
G01 X70.5760 Y50.4421
G01 X70.6250 Y50.5604
G01 X70.6500 Y50.6860
G01 X70.6500 Y50.8140
G01 X70.6250 Y50.9396
G01 X70.5760 Y51.0579
G01 X70.5049 Y51.1643
G01 X70.4143 Y51.2549
G01 X70.3079 Y51.3260
G01 X70.1896 Y51.3750
G01 X70.0640 Y51.4000
G01 X69.9360 Y51.4000
G01 X69.8104 Y51.3750
G01 X69.6921 Y51.3260
G01 X69.5857 Y51.2549
G01 X69.4951 Y51.1643
G01 X69.4240 Y51.0579
G01 X69.3750 Y50.9396
G01 X69.3500 Y50.8140
G01 X69.3500 Y50.6860
G01 X69.3750 Y50.5604
G01 X69.4240 Y50.4421
G01 X69.4951 Y50.3357
G01 X69.5923 Y50.2385
G01 X69.5997 Y50.2303
G01 X69.6054 Y50.2223
G01 X69.6109 Y50.2127
G01 X69.6140 Y50.2060
G01 X69.6165 Y50.1991
G01 X69.6194 Y50.1885
G01 X69.6210 Y50.1788
G01 X69.6215 Y50.1702
G01 X69.6208 Y50.1555
G01 X69.6197 Y50.1482
G01 X69.6173 Y50.1387
G01 X69.6140 Y50.1295
G01 X69.6098 Y50.1206
G01 X69.6047 Y50.1122
G01 X69.5997 Y50.1053
G01 X69.5905 Y50.0953
G01 X69.5850 Y50.0904
G01 X69.5771 Y50.0846
G01 X69.5687 Y50.0795
G01 X69.5610 Y50.0758
G01 X69.5506 Y50.0720
G01 X69.5387 Y50.0692
G01 X69.5314 Y50.0682
G01 X69.5228 Y50.0677
G01 X69.5106 Y50.0684
G01 X69.5021 Y50.0697
G01 X69.4937 Y50.0717
G01 X69.4171 Y50.0949
G01 X69.3485 Y50.1017
G01 X69.3350 Y50.1004
G01 X69.3264 Y50.1000
G01 X67.1864 Y50.1000
G01 X67.1766 Y50.1005
G01 X67.1681 Y50.1017
G01 X67.1550 Y50.1051
G01 X67.1481 Y50.1076
G01 X67.1392 Y50.1118
G01 X67.1308 Y50.1168
G01 X67.1239 Y50.1219
G01 X67.1157 Y50.1293
G01 X59.8793 Y57.3657
G01 X59.8735 Y57.3720
G01 X59.8675 Y57.3798
G01 X59.8630 Y57.3871
G01 X59.8567 Y57.4004
G01 X59.8543 Y57.4074
G01 X59.8519 Y57.4169
G01 X59.8505 Y57.4266
G01 X59.8500 Y57.4352
G01 X59.8500 Y58.8079
G01 X59.8504 Y58.8165
G01 X59.8517 Y58.8300
G01 X59.8449 Y58.8986
G01 X59.8249 Y58.9646
G01 X59.7924 Y59.0254
G01 X59.7487 Y59.0787
G01 X59.7382 Y59.0873
G01 X59.7318 Y59.0931
G01 X58.4576 Y60.3674
G01 X58.4510 Y60.3746
G01 X58.4445 Y60.3836
G01 X58.4401 Y60.3909
G01 X58.4359 Y60.3998
G01 X58.4326 Y60.4091
G01 X58.4307 Y60.4162
G01 X58.4287 Y60.4295
G01 X58.4283 Y60.4381
G01 X58.4288 Y60.4479
G01 X58.4307 Y60.4600
G01 X58.4326 Y60.4671
G01 X58.4350 Y60.4741
G01 X58.4615 Y60.5383
G01 X58.5000 Y60.7315
G01 X58.5000 Y60.9285
G01 X58.4615 Y61.1217
G01 X58.3862 Y61.3037
G01 X58.2767 Y61.4674
G01 X58.1374 Y61.6067
G01 X57.9737 Y61.7162
G01 X57.7917 Y61.7915
G01 X57.5985 Y61.8300
G01 X57.4015 Y61.8300
G01 X57.2083 Y61.7915
G01 X57.0263 Y61.7162
G01 X56.8626 Y61.6067
G01 X56.7233 Y61.4674
G01 X56.6138 Y61.3037
G01 X56.5385 Y61.1217
G01 X56.5000 Y60.9285
G01 X56.5000 Y60.7315
G01 X56.5385 Y60.5383
G01 X56.6138 Y60.3563
G01 X56.7233 Y60.1926
G01 X56.8626 Y60.0533
G01 X57.0263 Y59.9438
G01 X57.2083 Y59.8685
G01 X57.4015 Y59.8300
G01 X57.5985 Y59.8300
G01 X57.7917 Y59.8685
G01 X57.8536 Y59.8941
G00 Z1.0000
G00 X57.9342 Y60.0421
G01 F400.00
G01 Z-0.0400
G01 F2500.00
G01 X59.2499 Y58.7264
G01 X59.2499 Y57.2488
G01 X59.2511 Y57.2255
G01 X59.2547 Y57.2012
G01 X59.2607 Y57.1774
G01 X59.2681 Y57.1566
G01 X59.2806 Y57.1300
G01 X59.2920 Y57.1111
G01 X59.3075 Y57.0904
G01 X59.3232 Y57.0732
G01 X66.8240 Y49.5723
G01 X66.8413 Y49.5567
G01 X66.8611 Y49.5420
G01 X66.8821 Y49.5294
G01 X66.9043 Y49.5189
G01 X66.9274 Y49.5107
G01 X66.9512 Y49.5047
G01 X66.9755 Y49.5011
G01 X66.9988 Y49.4999
G01 X69.2449 Y49.4999
G01 X73.9249 Y44.8199
G01 X73.9249 Y44.0682
G01 X73.9192 Y44.0644
G01 X73.9146 Y44.0604
G01 X73.9106 Y44.0558
G01 X73.9065 Y44.0496
G01 X73.9034 Y44.0430
G01 X73.9015 Y44.0371
G01 X73.9004 Y44.0311
G01 X73.9000 Y44.0250
G01 X73.9000 Y42.5738
G01 X73.9005 Y42.5677
G01 X73.9018 Y42.5617
G01 X73.9038 Y42.5559
G01 X73.9071 Y42.5493
G01 X73.9106 Y42.5442
G01 X73.9146 Y42.5396
G01 X73.9192 Y42.5356
G01 X73.9249 Y42.5318
G01 X73.9249 Y39.7499
G01 X73.8889 Y39.7284
G01 X73.8554 Y39.7035
G01 X73.8245 Y39.6755
G01 X73.7965 Y39.6446
G01 X73.7716 Y39.6111
G01 X73.7502 Y39.5753
G01 X73.7324 Y39.5376
G01 X73.7183 Y39.4984
G01 X73.7077 Y39.4555
G01 X73.7020 Y39.4167
G01 X73.7000 Y39.3762
G01 X73.7000 Y39.0001
G01 X73.0500 Y39.0001
G01 X73.0499 Y39.1275
G01 X73.0480 Y39.1667
G01 X73.0418 Y39.2079
G01 X73.0317 Y39.2484
G01 X73.0176 Y39.2876
G01 X72.9998 Y39.3253
G01 X72.9790 Y39.3601
G01 X72.9535 Y39.3946
G01 X72.9255 Y39.4255
G01 X72.8946 Y39.4535
G01 X72.8611 Y39.4784
G01 X72.8253 Y39.4998
G01 X72.7876 Y39.5176
G01 X72.7484 Y39.5317
G01 X72.7067 Y39.5421
G01 X72.6667 Y39.5480
G01 X72.6250 Y39.5500
G01 X70.3500 Y39.5500
G01 X70.3420 Y39.5497
G01 X70.3300 Y39.5480
G01 X70.3184 Y39.5449
G01 X70.0184 Y39.4449
G01 X70.0092 Y39.4413
G01 X69.9994 Y39.4363
G01 X69.9934 Y39.4325
G01 X69.9875 Y39.4281
G01 X69.9793 Y39.4207
G01 X69.7793 Y39.2207
G01 X69.7722 Y39.2128
G01 X69.7673 Y39.2062
G01 X69.7635 Y39.2002
G01 X69.7582 Y39.1897
G01 X69.7542 Y39.1786
G01 X69.7524 Y39.1717
G01 X69.7509 Y39.1636
G01 X69.7007 Y38.7624
G01 X69.7001 Y38.7548
G01 X69.7000 Y38.7479
G01 X69.7007 Y38.7376
G01 X69.7509 Y38.3364
G01 X69.7524 Y38.3283
G01 X69.7542 Y38.3214
G01 X69.7582 Y38.3103
G01 X69.7623 Y38.3019
G01 X69.7660 Y38.2958
G01 X69.7729 Y38.2863
G01 X69.7793 Y38.2793
G01 X69.9793 Y38.0793
G01 X69.9879 Y38.0716
G01 X69.9935 Y38.0674
G01 X70.0004 Y38.0631
G01 X70.0097 Y38.0584
G01 X70.0184 Y38.0551
G01 X70.3184 Y37.9551
G01 X70.3300 Y37.9520
G01 X70.3420 Y37.9503
G01 X70.3500 Y37.9500
G01 X72.6250 Y37.9500
G01 X72.6667 Y37.9520
G01 X72.7067 Y37.9579
G01 X72.7484 Y37.9683
G01 X72.7876 Y37.9824
G01 X72.8253 Y38.0002
G01 X72.8611 Y38.0216
G01 X72.8946 Y38.0465
G01 X72.9255 Y38.0745
G01 X72.9535 Y38.1054
G01 X72.9790 Y38.1399
G01 X72.9998 Y38.1747
G01 X73.0176 Y38.2124
G01 X73.0317 Y38.2516
G01 X73.0418 Y38.2921
G01 X73.0480 Y38.3333
G01 X73.0499 Y38.3725
G01 X73.0500 Y38.4999
G01 X73.7000 Y38.4999
G01 X73.7000 Y37.1000
G01 X73.7003 Y37.0920
G01 X73.7020 Y37.0800
G01 X73.7051 Y37.0684
G01 X73.8051 Y36.7684
G01 X73.8094 Y36.7576
G01 X73.8126 Y36.7514
G01 X73.8168 Y36.7445
G01 X73.8230 Y36.7361
G01 X73.8293 Y36.7293
G01 X74.0310 Y36.5276
G01 X74.0363 Y36.5229
G01 X74.0428 Y36.5179
G01 X74.0529 Y36.5118
G01 X74.0603 Y36.5082
G01 X74.0670 Y36.5056
G01 X74.0794 Y36.5021
G01 X74.0876 Y36.5007
G01 X74.4876 Y36.4507
G01 X74.4952 Y36.4501
G01 X74.5035 Y36.4500
G01 X74.5124 Y36.4507
G01 X74.9136 Y36.5009
G01 X74.9240 Y36.5029
G01 X74.9308 Y36.5048
G01 X74.9375 Y36.5073
G01 X74.9481 Y36.5123
G01 X74.9572 Y36.5179
G01 X74.9637 Y36.5229
G01 X74.9707 Y36.5293
G01 X75.1707 Y36.7293
G01 X75.1781 Y36.7375
G01 X75.1823 Y36.7432
G01 X75.1863 Y36.7494
G01 X75.1913 Y36.7592
G01 X75.1949 Y36.7684
G01 X75.2949 Y37.0684
G01 X75.2977 Y37.0787
G01 X75.2995 Y37.0893
G01 X75.3000 Y37.1000
G01 X75.3000 Y39.3750
G01 X75.2981 Y39.4154
G01 X75.2913 Y39.4603
G01 X75.2817 Y39.4984
G01 X75.2685 Y39.5354
G01 X75.2498 Y39.5753
G01 X75.2270 Y39.6131
G01 X75.2035 Y39.6446
G01 X75.1772 Y39.6737
G01 X75.1446 Y39.7035
G01 X75.1090 Y39.7297
G01 X75.0753 Y39.7498
G01 X75.0388 Y39.7672
G01 X74.9984 Y39.7817
G01 X74.9603 Y39.7913
G01 X74.9142 Y39.7981
G01 X74.8750 Y39.8000
G01 X74.4251 Y39.8000
G01 X74.4251 Y42.5318
G01 X74.4308 Y42.5356
G01 X74.4354 Y42.5396
G01 X74.4394 Y42.5442
G01 X74.4429 Y42.5493
G01 X74.4457 Y42.5547
G01 X74.4478 Y42.5605
G01 X74.4493 Y42.5665
G01 X74.4500 Y42.5738
G01 X74.4500 Y44.0250
G01 X74.4496 Y44.0311
G01 X74.4482 Y44.0383
G01 X74.4462 Y44.0441
G01 X74.4435 Y44.0496
G01 X74.4394 Y44.0558
G01 X74.4354 Y44.0604
G01 X74.4308 Y44.0644
G01 X74.4251 Y44.0682
G01 X74.4251 Y44.9235
G01 X74.4240 Y44.9468
G01 X74.4198 Y44.9747
G01 X74.4143 Y44.9961
G01 X74.4069 Y45.0170
G01 X74.3956 Y45.0415
G01 X74.3815 Y45.0645
G01 X74.3684 Y45.0822
G01 X74.3518 Y45.1004
G01 X69.5254 Y49.9268
G01 X69.5073 Y49.9432
G01 X69.4874 Y49.9580
G01 X69.4642 Y49.9717
G01 X69.4444 Y49.9810
G01 X69.4213 Y49.9893
G01 X69.3949 Y49.9957
G01 X69.3730 Y49.9989
G01 X69.3499 Y50.0001
G01 X67.1036 Y50.0001
G01 X59.7501 Y57.3536
G01 X59.7501 Y58.8300
G01 X59.7489 Y58.8545
G01 X59.7453 Y58.8788
G01 X59.7393 Y58.9026
G01 X59.7315 Y58.9246
G01 X59.7206 Y58.9479
G01 X59.7080 Y58.9689
G01 X59.6933 Y58.9887
G01 X59.6768 Y59.0068
G01 X58.2879 Y60.3958
G01 X58.2948 Y60.4079
G01 X58.3315 Y60.4856
G01 X58.3619 Y60.5711
G01 X58.3827 Y60.6544
G01 X58.3954 Y60.7393
G01 X58.3999 Y60.8325
G01 X58.3957 Y60.9182
G01 X58.3831 Y61.0032
G01 X58.3612 Y61.0913
G01 X58.3305 Y61.1767
G01 X58.2937 Y61.2543
G01 X58.2490 Y61.3290
G01 X58.1957 Y61.4010
G01 X58.1364 Y61.4664
G01 X58.0710 Y61.5257
G01 X58.0020 Y61.5769
G01 X57.9221 Y61.6248
G01 X57.8444 Y61.6615
G01 X57.7589 Y61.6919
G01 X57.6756 Y61.7127
G01 X57.5882 Y61.7257
G01 X57.5000 Y61.7300
G01 X57.4118 Y61.7257
G01 X57.3244 Y61.7127
G01 X57.2387 Y61.6912
G01 X57.1556 Y61.6615
G01 X57.0757 Y61.6237
G01 X57.0000 Y61.5783
G01 X56.9290 Y61.5257
G01 X56.8636 Y61.4664
G01 X56.8043 Y61.4010
G01 X56.7517 Y61.3300
G01 X56.7063 Y61.2543
G01 X56.6685 Y61.1744
G01 X56.6388 Y61.0913
G01 X56.6173 Y61.0056
G01 X56.6043 Y60.9182
G01 X56.6000 Y60.8300
G01 X56.6043 Y60.7418
G01 X56.6173 Y60.6544
G01 X56.6388 Y60.5687
G01 X56.6685 Y60.4856
G01 X56.7063 Y60.4057
G01 X56.7517 Y60.3300
G01 X56.8043 Y60.2590
G01 X56.8636 Y60.1936
G01 X56.9290 Y60.1343
G01 X57.0000 Y60.0817
G01 X57.0757 Y60.0363
G01 X57.1556 Y59.9985
G01 X57.2387 Y59.9688
G01 X57.3244 Y59.9473
G01 X57.4118 Y59.9343
G01 X57.5000 Y59.9300
G01 X57.5882 Y59.9343
G01 X57.6756 Y59.9473
G01 X57.7613 Y59.9688
G01 X57.8444 Y59.9985
G01 X57.9221 Y60.0352
G01 X57.9342 Y60.0421
G00 Z1.0000
G00 X60.7000 Y59.2515
G01 F400.00
G01 Z-0.0400
G01 F2500.00
G01 X60.7000 Y58.2000
G01 X60.7004 Y58.1906
G01 X60.7023 Y58.1787
G01 X60.7051 Y58.1684
G01 X60.8051 Y57.8684
G01 X60.8087 Y57.8592
G01 X60.8124 Y57.8518
G01 X60.8168 Y57.8444
G01 X60.8227 Y57.8365
G01 X60.8293 Y57.8293
G01 X61.0301 Y57.6284
G01 X61.0363 Y57.6229
G01 X61.0438 Y57.6173
G01 X61.0519 Y57.6123
G01 X61.0603 Y57.6082
G01 X61.0692 Y57.6048
G01 X61.0760 Y57.6029
G01 X61.0876 Y57.6007
G01 X61.4876 Y57.5507
G01 X61.4965 Y57.5500
G01 X61.5048 Y57.5501
G01 X61.5124 Y57.5507
G01 X61.9124 Y57.6007
G01 X61.9240 Y57.6029
G01 X61.9308 Y57.6048
G01 X61.9386 Y57.6077
G01 X61.9481 Y57.6123
G01 X61.9562 Y57.6173
G01 X61.9637 Y57.6229
G01 X61.9699 Y57.6284
G01 X62.1499 Y57.8084
G01 X62.1499 Y57.2500
G01 X62.1514 Y57.2169
G01 X62.1566 Y57.1817
G01 X62.1657 Y57.1460
G01 X62.1765 Y57.1160
G01 X62.1901 Y57.0871
G01 X62.2089 Y57.0555
G01 X62.2293 Y57.0279
G01 X62.2524 Y57.0024
G01 X63.6000 Y55.6548
G01 X63.6000 Y54.3988
G01 X63.6012 Y54.3890
G01 X63.6043 Y54.3797
G01 X63.6071 Y54.3743
G01 X63.6098 Y54.3702
G01 X63.6164 Y54.3630
G01 X63.6233 Y54.3578
G01 X63.6320 Y54.3534
G01 X63.6402 Y54.3510
G01 X63.6488 Y54.3500
G01 X64.2499 Y54.3500
G01 X64.2499 Y54.0000
G01 X64.2511 Y53.9755
G01 X64.2547 Y53.9512
G01 X64.2600 Y53.9298
G01 X64.2689 Y53.9043
G01 X64.2806 Y53.8800
G01 X64.2920 Y53.8611
G01 X64.3059 Y53.8423
G01 X64.3232 Y53.8232
G01 X65.4740 Y52.6723
G01 X65.4933 Y52.6552
G01 X65.5110 Y52.6421
G01 X65.5300 Y52.6307
G01 X65.5543 Y52.6189
G01 X65.5774 Y52.6107
G01 X65.6012 Y52.6047
G01 X65.6230 Y52.6014
G01 X65.6500 Y52.5999
G01 X69.5964 Y52.5999
G01 X71.9749 Y50.2214
G01 X71.9749 Y49.9682
G01 X71.9692 Y49.9644
G01 X71.9646 Y49.9604
G01 X71.9606 Y49.9558
G01 X71.9571 Y49.9507
G01 X71.9543 Y49.9453
G01 X71.9522 Y49.9395
G01 X71.9507 Y49.9335
G01 X71.9500 Y49.9262
G01 X71.9500 Y48.4750
G01 X71.9504 Y48.4689
G01 X71.9518 Y48.4617
G01 X71.9548 Y48.4536
G01 X71.9584 Y48.4472
G01 X71.9630 Y48.4414
G01 X71.9692 Y48.4356
G01 X71.9754 Y48.4315
G01 X71.9832 Y48.4279
G01 X71.9902 Y48.4260
G01 X71.9975 Y48.4251
G01 X72.4512 Y48.4250
G01 X72.4610 Y48.4262
G01 X72.4668 Y48.4279
G01 X72.4714 Y48.4298
G01 X72.4798 Y48.4348
G01 X72.4870 Y48.4414
G01 X72.4922 Y48.4483
G01 X72.4966 Y48.4570
G01 X72.4990 Y48.4652
G01 X72.5000 Y48.4750
G01 X72.5000 Y49.9262
G01 X72.4995 Y49.9323
G01 X72.4982 Y49.9383
G01 X72.4962 Y49.9441
G01 X72.4929 Y49.9507
G01 X72.4894 Y49.9558
G01 X72.4854 Y49.9604
G01 X72.4808 Y49.9644
G01 X72.4751 Y49.9682
G01 X72.4751 Y50.3250
G01 X72.4740 Y50.3483
G01 X72.4703 Y50.3738
G01 X72.4643 Y50.3976
G01 X72.4561 Y50.4207
G01 X72.4450 Y50.4440
G01 X72.4330 Y50.4639
G01 X72.4198 Y50.4817
G01 X72.4018 Y50.5018
G01 X69.8768 Y53.0269
G01 X69.8587 Y53.0433
G01 X69.8409 Y53.0565
G01 X69.8157 Y53.0717
G01 X69.7957 Y53.0811
G01 X69.7726 Y53.0893
G01 X69.7488 Y53.0953
G01 X69.7269 Y53.0986
G01 X69.7000 Y53.1001
G01 X65.7536 Y53.1001
G01 X64.7501 Y54.1036
G01 X64.7501 Y54.3500
G01 X65.3525 Y54.3501
G01 X65.3598 Y54.3510
G01 X65.3668 Y54.3529
G01 X65.3746 Y54.3565
G01 X65.3808 Y54.3606
G01 X65.3862 Y54.3655
G01 X65.3909 Y54.3712
G01 X65.3947 Y54.3775
G01 X65.3975 Y54.3843
G01 X65.3993 Y54.3915
G01 X65.4000 Y54.4000
G01 X65.4000 Y56.1000
G01 X65.3990 Y56.1098
G01 X65.3966 Y56.1180
G01 X65.3935 Y56.1246
G01 X65.3894 Y56.1308
G01 X65.3845 Y56.1362
G01 X65.3788 Y56.1409
G01 X65.3725 Y56.1447
G01 X65.3657 Y56.1475
G01 X65.3585 Y56.1493
G01 X65.3512 Y56.1500
G01 X64.0952 Y56.1500
G01 X62.8501 Y57.3950
G01 X62.8501 Y58.9830
G01 X62.8485 Y59.0173
G01 X62.8434 Y59.0513
G01 X62.8343 Y59.0870
G01 X62.8235 Y59.1170
G01 X62.8099 Y59.1459
G01 X62.7911 Y59.1775
G01 X62.7699 Y59.2061
G01 X62.7476 Y59.2306
G01 X62.3000 Y59.6782
G01 X62.3000 Y60.4750
G01 X62.2978 Y60.5179
G01 X62.2918 Y60.5579
G01 X62.2817 Y60.5984
G01 X62.2676 Y60.6376
G01 X62.2509 Y60.6732
G01 X62.2270 Y60.7131
G01 X62.2035 Y60.7446
G01 X62.1737 Y60.7772
G01 X62.1446 Y60.8035
G01 X62.1111 Y60.8284
G01 X62.0753 Y60.8498
G01 X62.0399 Y60.8667
G01 X61.9960 Y60.8824
G01 X61.9579 Y60.8918
G01 X61.9179 Y60.8978
G01 X61.8750 Y60.9000
G01 X61.1250 Y60.9000
G01 X61.0833 Y60.8980
G01 X61.0421 Y60.8918
G01 X61.0016 Y60.8817
G01 X60.9624 Y60.8676
G01 X60.9247 Y60.8498
G01 X60.8889 Y60.8284
G01 X60.8554 Y60.8035
G01 X60.8236 Y60.7746
G01 X60.7965 Y60.7446
G01 X60.7716 Y60.7111
G01 X60.7502 Y60.6753
G01 X60.7333 Y60.6399
G01 X60.7176 Y60.5960
G01 X60.7082 Y60.5579
G01 X60.7019 Y60.5154
G01 X60.7000 Y60.4750
G01 X60.7000 Y59.2515
G00 Z1.0000
G00 X63.7000 Y59.2515
G01 F400.00
G01 Z-0.0400
G01 F2500.00
G01 X63.7000 Y58.2000
G01 X63.7004 Y58.1906
G01 X63.7023 Y58.1787
G01 X63.7051 Y58.1684
G01 X63.8051 Y57.8684
G01 X63.8087 Y57.8592
G01 X63.8131 Y57.8505
G01 X63.8168 Y57.8444
G01 X63.8219 Y57.8375
G01 X63.8293 Y57.8293
G01 X64.0293 Y57.6293
G01 X64.0363 Y57.6229
G01 X64.0438 Y57.6173
G01 X64.0519 Y57.6123
G01 X64.0603 Y57.6082
G01 X64.0692 Y57.6048
G01 X64.0760 Y57.6029
G01 X64.0876 Y57.6007
G01 X64.4876 Y57.5507
G01 X64.4965 Y57.5500
G01 X64.5048 Y57.5501
G01 X64.5124 Y57.5507
G01 X64.9124 Y57.6007
G01 X64.9240 Y57.6029
G01 X64.9308 Y57.6048
G01 X64.9386 Y57.6077
G01 X64.9481 Y57.6123
G01 X64.9562 Y57.6173
G01 X64.9637 Y57.6229
G01 X64.9699 Y57.6284
G01 X65.1499 Y57.8084
G01 X65.1499 Y56.7888
G01 X65.1515 Y56.7557
G01 X65.1566 Y56.7217
G01 X65.1649 Y56.6884
G01 X65.1760 Y56.6571
G01 X65.1912 Y56.6249
G01 X65.2089 Y56.5955
G01 X65.2293 Y56.5679
G01 X65.2515 Y56.5433
G01 X66.2063 Y55.5885
G01 X66.1788 Y55.5113
G01 X66.1578 Y55.4280
G01 X66.1443 Y55.3382
G01 X66.1400 Y55.2500
G01 X66.1442 Y55.1642
G01 X66.1573 Y55.0744
G01 X66.1795 Y54.9864
G01 X66.2085 Y54.9056
G01 X66.2463 Y54.8257
G01 X66.2917 Y54.7500
G01 X66.3428 Y54.6810
G01 X66.4045 Y54.6127
G01 X66.4690 Y54.5543
G01 X66.5380 Y54.5031
G01 X66.6179 Y54.4552
G01 X66.6956 Y54.4185
G01 X66.7787 Y54.3888
G01 X66.8644 Y54.3673
G01 X66.9493 Y54.3546
G01 X67.0425 Y54.3501
G01 X67.1282 Y54.3543
G01 X67.2156 Y54.3673
G01 X67.3013 Y54.3888
G01 X67.3821 Y54.4176
G01 X67.4621 Y54.4552
G01 X67.4742 Y54.4621
G01 X68.1140 Y53.8223
G01 X68.1333 Y53.8052
G01 X68.1511 Y53.7920
G01 X68.1700 Y53.7806
G01 X68.1943 Y53.7689
G01 X68.2186 Y53.7603
G01 X68.2412 Y53.7547
G01 X68.2631 Y53.7514
G01 X68.2900 Y53.7499
G01 X69.4949 Y53.7499
G01 X72.6249 Y50.6199
G01 X72.6249 Y49.9682
G01 X72.6192 Y49.9644
G01 X72.6146 Y49.9604
G01 X72.6098 Y49.9548
G01 X72.6065 Y49.9496
G01 X72.6038 Y49.9441
G01 X72.6015 Y49.9371
G01 X72.6004 Y49.9311
G01 X72.6000 Y49.9250
G01 X72.6000 Y48.4750
G01 X72.6004 Y48.4689
G01 X72.6012 Y48.4640
G01 X72.6038 Y48.4559
G01 X72.6071 Y48.4493
G01 X72.6113 Y48.4433
G01 X72.6173 Y48.4371
G01 X72.6233 Y48.4328
G01 X72.6309 Y48.4288
G01 X72.6390 Y48.4262
G01 X72.6475 Y48.4251
G01 X73.1012 Y48.4250
G01 X73.1098 Y48.4260
G01 X73.1180 Y48.4284
G01 X73.1257 Y48.4321
G01 X73.1327 Y48.4371
G01 X73.1362 Y48.4405
G01 X73.1402 Y48.4452
G01 X73.1435 Y48.4504
G01 X73.1457 Y48.4547
G01 X73.1475 Y48.4593
G01 X73.1490 Y48.4652
G01 X73.1500 Y48.4750
G01 X73.1500 Y49.9262
G01 X73.1495 Y49.9323
