(G-CODE GENERATED BY FLATCAM v8.992 - www.flatcam.org - Version Date: 2020/05/03)

(Name: MSP430G2553-F_Cu.gbr_iso_cnc)
(Type: G-code from Geometry)
(Units: MM)

(Created on Friday, 29 May 2020 at 10:30)

(This preprocessor is the default preprocessor used by FlatCAM.)
(It is made to work with MACH3 compatible motion controllers.)

(TOOL DIAMETER: 0.1 mm)
(Feedrate_XY: 2500.0 mm/min)
(Feedrate_Z: 400.0 mm/min)
(Feedrate rapids 1500.0 mm/min)

(Z_Cut: -0.04 mm)
(Z_Move: 1.0 mm)
(Z Start: None mm)
(Z End: 15.0 mm)
(Steps per circle: 64)
(Preprocessor Geometry: default)

(X range:   55.0583 ...   84.9250  mm)
(Y range:   35.0750 ...   65.6750  mm)

(Spindle Speed: None RPM)
G21
G90
G94



G01 F2500.00
G00 Z1.0000

M03
G00 X56.6000 Y36.4500
G01 F400.00
G01 Z-0.0400
G01 F2500.00
G01 X57.9012 Y36.4500
G01 X57.9098 Y36.4510
G01 X57.9168 Y36.4529
G01 X57.9236 Y36.4559
G01 X57.9308 Y36.4606
G01 X57.9370 Y36.4664
G01 X57.9416 Y36.4722
G01 X57.9457 Y36.4797
G01 X57.9482 Y36.4867
G01 X57.9496 Y36.4939
G01 X57.9500 Y36.5000
G01 X57.9500 Y38.0500
G01 X57.9496 Y38.0561
G01 X57.9488 Y38.0610
G01 X57.9466 Y38.0680
G01 X57.9429 Y38.0757
G01 X57.9387 Y38.0817
G01 X57.9336 Y38.0870
G01 X57.9278 Y38.0916
G01 X57.9214 Y38.0952
G01 X57.9145 Y38.0978
G01 X57.9061 Y38.0996
G01 X57.9000 Y38.1000
G01 X57.6001 Y38.1000
G01 X57.6002 Y44.4000
G01 X57.9025 Y44.4001
G01 X57.9073 Y44.4005
G01 X57.9133 Y44.4018
G01 X57.9180 Y44.4034
G01 X57.9236 Y44.4059
G01 X57.9278 Y44.4084
G01 X57.9327 Y44.4121
G01 X57.9362 Y44.4155
G01 X57.9402 Y44.4202
G01 X57.9441 Y44.4264
G01 X57.9471 Y44.4332
G01 X57.9490 Y44.4402
G01 X57.9500 Y44.4488
G01 X57.9500 Y44.8749
G01 X58.5000 Y44.8749
G01 X58.5343 Y44.8765
G01 X58.5683 Y44.8816
G01 X58.5993 Y44.8893
G01 X58.6340 Y44.9015
G01 X58.6672 Y44.9174
G01 X58.6945 Y44.9339
G01 X58.7202 Y44.9528
G01 X58.7476 Y44.9774
G01 X59.7476 Y45.9774
G01 X59.7707 Y46.0029
G01 X59.7925 Y46.0325
G01 X59.8099 Y46.0621
G01 X59.8235 Y46.0910
G01 X59.8343 Y46.1210
G01 X59.8434 Y46.1567
G01 X59.8486 Y46.1919
G01 X59.8501 Y46.2250
G01 X59.8502 Y46.8259
G01 X59.8906 Y46.8629
G01 X59.9252 Y46.9011
G01 X59.9559 Y46.9424
G01 X59.9851 Y46.9907
G01 X60.0081 Y47.0395
G01 X60.0263 Y47.0903
G01 X60.0399 Y47.1451
G01 X60.0474 Y47.1961
G01 X60.0499 Y47.2475
G01 X60.0475 Y47.3027
G01 X60.0389 Y47.3597
G01 X60.0263 Y47.4097
G01 X60.0081 Y47.4605
G01 X59.9851 Y47.5093
G01 X59.9586 Y47.5535
G01 X59.9252 Y47.5989
G01 X59.8889 Y47.6389
G01 X59.8508 Y47.6736
G01 X59.8056 Y47.7073
G01 X59.7593 Y47.7351
G01 X59.7127 Y47.7571
G01 X59.6585 Y47.7767
G01 X59.6073 Y47.7894
G01 X59.5539 Y47.7974
G01 X59.5000 Y47.8000
G01 X59.4485 Y47.7975
G01 X59.3903 Y47.7889
G01 X59.3403 Y47.7763
G01 X59.2895 Y47.7581
G01 X59.2407 Y47.7351
G01 X59.1965 Y47.7086
G01 X59.1492 Y47.6736
G01 X59.1111 Y47.6389
G01 X59.0748 Y47.5989
G01 X59.0427 Y47.5556
G01 X59.0162 Y47.5114
G01 X58.9910 Y47.4582
G01 X58.9737 Y47.4097
G01 X58.9606 Y47.3573
G01 X58.9526 Y47.3039
G01 X58.9501 Y47.2525
G01 X58.9528 Y47.1949
G01 X58.9606 Y47.1427
G01 X58.9737 Y47.0903
G01 X58.9919 Y47.0395
G01 X59.0149 Y46.9907
G01 X59.0427 Y46.9444
G01 X59.0748 Y46.9011
G01 X59.1111 Y46.8611
G01 X59.1499 Y46.8259
G01 X59.1498 Y46.3700
G01 X58.3550 Y45.5751
G01 X57.9500 Y45.5752
G01 X57.9499 Y46.0037
G01 X57.9488 Y46.0110
G01 X57.9462 Y46.0191
G01 X57.9429 Y46.0257
G01 X57.9387 Y46.0317
G01 X57.9336 Y46.0370
G01 X57.9267 Y46.0422
G01 X57.9203 Y46.0457
G01 X57.9121 Y46.0485
G01 X57.9061 Y46.0496
G01 X57.9000 Y46.0500
G01 X56.5988 Y46.0500
G01 X56.5915 Y46.0493
G01 X56.5832 Y46.0471
G01 X56.5754 Y46.0435
G01 X56.5692 Y46.0394
G01 X56.5638 Y46.0345
G01 X56.5584 Y46.0278
G01 X56.5548 Y46.0214
G01 X56.5518 Y46.0133
G01 X56.5504 Y46.0061
G01 X56.5500 Y46.0000
G01 X56.5500 Y44.4500
G01 X56.5504 Y44.4439
G01 X56.5512 Y44.4390
G01 X56.5534 Y44.4320
G01 X56.5565 Y44.4254
G01 X56.5606 Y44.4192
G01 X56.5664 Y44.4130
G01 X56.5733 Y44.4078
G01 X56.5797 Y44.4043
G01 X56.5867 Y44.4018
G01 X56.5939 Y44.4004
G01 X56.6000 Y44.4000
G01 X56.8999 Y44.4000
G01 X56.8998 Y38.1000
G01 X56.6000 Y38.1000
G01 X56.5939 Y38.0996
G01 X56.5867 Y38.0982
G01 X56.5786 Y38.0952
G01 X56.5722 Y38.0916
G01 X56.5655 Y38.0862
G01 X56.5606 Y38.0808
G01 X56.5559 Y38.0736
G01 X56.5529 Y38.0668
G01 X56.5507 Y38.0585
G01 X56.5500 Y38.0500
G01 X56.5500 Y36.4988
G01 X56.5512 Y36.4890
G01 X56.5543 Y36.4797
G01 X56.5584 Y36.4722
G01 X56.5646 Y36.4646
G01 X56.5722 Y36.4584
G01 X56.5809 Y36.4538
G01 X56.5902 Y36.4510
G01 X56.6000 Y36.4500
G00 Z1.0000
G00 X64.4000 Y41.5000
G01 F400.00
G01 Z-0.0400
G01 F2500.00
G01 X64.0789 Y41.5000
G01 X63.9999 Y41.4209
G01 X63.9974 Y40.7547
G01 X64.0065 Y40.6618
G01 X64.0323 Y40.5770
G01 X64.0740 Y40.4988
G01 X64.1303 Y40.4303
G01 X64.1988 Y40.3740
G01 X64.2770 Y40.3323
G01 X64.3618 Y40.3065
G01 X64.4547 Y40.2974
G01 X64.9709 Y40.2998
G01 X65.0500 Y40.3789
G01 X65.0500 Y40.7000
G01 X64.4475 Y40.7001
G01 X64.4415 Y40.7007
G01 X64.4343 Y40.7025
G01 X64.4286 Y40.7048
G01 X64.4222 Y40.7084
G01 X64.4164 Y40.7130
G01 X64.4121 Y40.7173
G01 X64.4084 Y40.7222
G01 X64.4048 Y40.7286
G01 X64.4025 Y40.7343
G01 X64.4012 Y40.7390
G01 X64.4004 Y40.7439
G01 X64.4000 Y40.7500
G01 X64.4000 Y41.5000
G00 Z1.0000
G00 X64.4000 Y42.8500
G01 F400.00
G01 Z-0.0400
G01 F2500.00
G01 X64.4010 Y42.8598
G01 X64.4038 Y42.8691
G01 X64.4084 Y42.8778
G01 X64.4146 Y42.8854
G01 X64.4222 Y42.8916
G01 X64.4309 Y42.8962
G01 X64.4402 Y42.8990
G01 X64.4500 Y42.9000
G01 X66.2512 Y42.9000
G01 X66.2585 Y42.8993
G01 X66.2668 Y42.8971
G01 X66.2736 Y42.8941
G01 X66.2798 Y42.8902
G01 X66.2854 Y42.8854
G01 X66.2909 Y42.8788
G01 X66.2947 Y42.8725
G01 X66.2978 Y42.8645
G01 X66.2995 Y42.8573
G01 X66.3000 Y42.8500
G01 X66.3000 Y40.7500
G01 X66.2995 Y40.7427
G01 X66.2982 Y40.7367
G01 X66.2957 Y40.7297
G01 X66.2916 Y40.7222
G01 X66.2862 Y40.7155
G01 X66.2808 Y40.7106
G01 X66.2736 Y40.7059
G01 X66.2668 Y40.7029
G01 X66.2598 Y40.7010
G01 X66.2525 Y40.7001
G01 X65.6500 Y40.7000
G01 X65.6500 Y40.3789
G01 X65.7291 Y40.2998
G01 X65.9505 Y40.2987
G01 X65.9602 Y40.2980
G01 X65.9674 Y40.2968
G01 X65.9745 Y40.2951
G01 X65.9848 Y40.2916
G01 X65.9936 Y40.2876
G01 X66.0050 Y40.2806
G01 X66.0108 Y40.2763
G01 X66.0181 Y40.2698
G01 X66.0246 Y40.2626
G01 X66.0297 Y40.2559
G01 X66.0366 Y40.2444
G01 X66.0397 Y40.2378
G01 X66.0431 Y40.2287
G01 X66.0455 Y40.2193
G01 X66.0467 Y40.2122
G01 X66.0476 Y40.1988
G01 X66.0473 Y40.1904
G01 X66.0460 Y40.1807
G01 X66.0435 Y40.1701
G01 X66.0397 Y40.1599
G01 X66.0367 Y40.1532
G01 X66.0331 Y40.1469
G01 X66.0277 Y40.1389
G01 X66.0207 Y40.1305
G01 X66.0128 Y40.1229
G01 X66.0052 Y40.1170
G01 X65.9959 Y40.1112
G01 X65.9883 Y40.1074
G01 X65.9793 Y40.1039
G01 X65.7914 Y40.0413
G01 X65.7760 Y40.0353
G01 X65.7651 Y40.0296
G01 X65.7513 Y40.0234
G01 X65.7414 Y40.0173
G01 X65.7318 Y40.0097
G01 X65.7195 Y40.0009
G01 X65.7074 Y39.9902
G01 X65.5121 Y39.7949
G01 X65.5079 Y39.7899
G01 X65.5007 Y39.7823
G01 X65.4936 Y39.7726
G01 X65.4842 Y39.7609
G01 X65.4778 Y39.7508
G01 X65.4728 Y39.7399
G01 X65.4658 Y39.7266
G01 X65.4615 Y39.7154
G01 X65.4587 Y39.7038
G01 X65.4544 Y39.6894
G01 X65.4514 Y39.6732
G01 X65.4022 Y39.2797
G01 X65.4012 Y39.2677
G01 X65.4014 Y39.2524
G01 X65.4010 Y39.2351
G01 X65.4018 Y39.2236
G01 X65.4510 Y38.8301
G01 X65.4523 Y38.8237
G01 X65.4539 Y38.8133
G01 X65.4580 Y38.7989
G01 X65.4606 Y38.7872
G01 X65.4648 Y38.7760
G01 X65.4716 Y38.7626
G01 X65.4764 Y38.7516
G01 X65.4827 Y38.7414
G01 X65.4901 Y38.7320
G01 X65.4988 Y38.7198
G01 X65.5098 Y38.7074
G01 X65.7051 Y38.5121
G01 X65.7099 Y38.5081
G01 X65.7174 Y38.5009
G01 X65.7296 Y38.4919
G01 X65.7391 Y38.4842
G01 X65.7489 Y38.4780
G01 X65.7626 Y38.4716
G01 X65.7734 Y38.4658
G01 X65.7883 Y38.4598
G01 X66.0821 Y38.3618
G01 X66.0958 Y38.3587
G01 X66.1085 Y38.3549
G01 X66.1249 Y38.3521
G01 X66.1381 Y38.3515
G01 X66.1517 Y38.3500
G01 X67.1627 Y38.3500
G01 X67.1799 Y38.3488
G01 X68.4201 Y38.3488
G01 X68.5276 Y38.3594
G01 X68.6262 Y38.3893
G01 X68.7171 Y38.4379
G01 X68.7967 Y38.5033
G01 X68.8621 Y38.5829
G01 X68.9107 Y38.6738
G01 X68.9406 Y38.7724
G01 X68.9512 Y38.8799
G01 X68.9512 Y39.6201
G01 X68.9406 Y39.7276
G01 X68.9107 Y39.8262
G01 X68.8621 Y39.9171
G01 X68.7967 Y39.9967
G01 X68.7171 Y40.0621
G01 X68.6262 Y40.1107
G01 X68.5276 Y40.1406
G01 X68.4201 Y40.1512
G01 X68.3488 Y40.1512
G01 X68.3402 Y40.1517
G01 X68.3317 Y40.1529
G01 X68.3221 Y40.1551
G01 X68.3140 Y40.1579
G01 X68.3018 Y40.1636
G01 X68.2944 Y40.1680
G01 X68.2865 Y40.1739
G01 X68.2793 Y40.1805
G01 X68.2743 Y40.1859
G01 X68.2662 Y40.1967
G01 X68.2618 Y40.2041
G01 X68.2576 Y40.2129
G01 X68.2543 Y40.2222
G01 X68.2524 Y40.2293
G01 X68.2504 Y40.2426
G01 X68.2500 Y40.2512
G01 X68.2500 Y40.5000
G01 X68.2505 Y40.5086
G01 X68.2517 Y40.5171
G01 X68.2551 Y40.5302
G01 X68.2576 Y40.5371
G01 X68.2618 Y40.5459
G01 X68.2668 Y40.5544
G01 X68.2712 Y40.5603
G01 X68.2802 Y40.5704
G01 X68.2865 Y40.5761
G01 X68.2934 Y40.5813
G01 X68.3050 Y40.5881
G01 X68.3117 Y40.5912
G01 X68.3210 Y40.5945
G01 X68.3329 Y40.5973
G01 X68.3402 Y40.5983
G01 X68.3488 Y40.5988
G01 X68.5451 Y40.5988
G01 X68.5794 Y40.6022
G01 X68.6077 Y40.6108
G01 X68.6337 Y40.6247
G01 X68.6566 Y40.6434
G01 X68.6753 Y40.6663
G01 X68.6892 Y40.6923
G01 X68.6978 Y40.7206
G01 X68.7012 Y40.7549
G01 X68.7012 Y42.8451
G01 X68.6978 Y42.8794
G01 X68.6892 Y42.9077
G01 X68.6753 Y42.9337
G01 X68.6566 Y42.9566
G01 X68.6337 Y42.9753
G01 X68.6077 Y42.9892
G01 X68.5794 Y42.9978
G01 X68.5525 Y43.0008
G01 X68.5394 Y43.0039
G01 X68.5314 Y43.0069
G01 X68.5225 Y43.0111
G01 X68.5141 Y43.0161
G01 X68.5062 Y43.0220
G01 X68.4972 Y43.0303
G01 X68.4923 Y43.0358
G01 X68.4879 Y43.0417
G01 X68.4820 Y43.0510
G01 X68.4772 Y43.0610
G01 X68.4736 Y43.0714
G01 X68.4711 Y43.0822
G01 X68.4701 Y43.0895
G01 X68.4697 Y43.0968
G01 X68.4700 Y43.1079
G01 X68.4715 Y43.1188
G01 X68.4747 Y43.1306
G01 X68.4772 Y43.1376
G01 X68.4803 Y43.1442
G01 X68.4865 Y43.1548
G01 X68.4939 Y43.1646
G01 X68.4989 Y43.1700
G01 X68.5043 Y43.1750
G01 X68.5141 Y43.1824
G01 X68.5236 Y43.1881
G01 X68.5314 Y43.1917
G01 X68.5383 Y43.1942
G01 X68.5513 Y43.1976
G01 X68.5598 Y43.1988
G01 X68.6382 Y43.2065
G01 X68.7230 Y43.2323
G01 X68.8012 Y43.2740
G01 X68.8697 Y43.3303
G01 X68.9260 Y43.3988
G01 X68.9677 Y43.4770
G01 X68.9935 Y43.5618
G01 X69.0026 Y43.6547
G01 X69.0004 Y44.2544
G01 X68.9050 Y44.3498
G01 X68.6000 Y44.3499
G01 X68.5999 Y43.6475
G01 X68.5988 Y43.6390
G01 X68.5966 Y43.6320
G01 X68.5935 Y43.6254
G01 X68.5887 Y43.6183
G01 X68.5836 Y43.6130
G01 X68.5767 Y43.6078
G01 X68.5703 Y43.6043
G01 X68.5633 Y43.6018
G01 X68.5573 Y43.6005
G01 X68.5500 Y43.6000
G01 X66.7500 Y43.6000
G01 X66.7427 Y43.6005
G01 X66.7355 Y43.6022
G01 X66.7297 Y43.6043
G01 X66.7233 Y43.6078
G01 X66.7183 Y43.6113
G01 X66.7138 Y43.6155
G01 X66.7098 Y43.6202
G01 X66.7059 Y43.6264
G01 X66.7034 Y43.6320
G01 X66.7015 Y43.6379
G01 X66.7004 Y43.6439
G01 X66.7000 Y43.6500
G01 X66.7000 Y45.7500
G01 X66.7010 Y45.7598
G01 X66.7038 Y45.7691
G01 X66.7084 Y45.7778
G01 X66.7146 Y45.7854
G01 X66.7212 Y45.7909
G01 X66.7297 Y45.7957
G01 X66.7390 Y45.7988
G01 X66.7488 Y45.8000
G01 X68.5500 Y45.8000
G01 X68.5573 Y45.7995
G01 X68.5645 Y45.7978
G01 X68.5714 Y45.7952
G01 X68.5788 Y45.7909
G01 X68.5845 Y45.7862
G01 X68.5894 Y45.7808
G01 X68.5941 Y45.7736
G01 X68.5971 Y45.7668
G01 X68.5990 Y45.7598
G01 X68.5999 Y45.7525
G01 X68.6000 Y45.0502
G01 X68.9712 Y45.0501
G01 X69.0001 Y45.0791
G01 X69.0026 Y45.7453
G01 X68.9935 Y45.8382
G01 X68.9677 Y45.9230
G01 X68.9260 Y46.0012
G01 X68.8697 Y46.0697
G01 X68.8012 Y46.1260
G01 X68.7230 Y46.1677
G01 X68.6373 Y46.1937
G01 X68.6313 Y46.1948
G01 X68.6218 Y46.1973
G01 X68.6137 Y46.2002
G01 X68.6070 Y46.2033
G01 X68.5964 Y46.2094
G01 X68.5876 Y46.2161
G01 X68.5796 Y46.2237
G01 X68.5747 Y46.2292
G01 X68.5702 Y46.2350
G01 X68.5650 Y46.2433
G01 X68.5601 Y46.2532
G01 X68.5563 Y46.2636
G01 X68.5539 Y46.2731
G01 X68.5523 Y46.2840
G01 X68.5520 Y46.2938
G01 X68.5527 Y46.3049
G01 X68.5539 Y46.3121
G01 X68.5556 Y46.3193
G01 X68.5587 Y46.3286
G01 X68.5632 Y46.3387
G01 X68.5688 Y46.3482
G01 X68.5747 Y46.3561
G01 X68.5821 Y46.3642
G01 X68.5885 Y46.3699
G01 X68.5944 Y46.3744
G01 X68.6048 Y46.3808
G01 X68.6148 Y46.3855
G01 X68.6262 Y46.3893
G01 X68.7171 Y46.4379
G01 X68.7967 Y46.5033
G01 X68.8621 Y46.5829
G01 X68.9107 Y46.6738
G01 X68.9406 Y46.7724
G01 X68.9512 Y46.8799
G01 X68.9512 Y47.6201
G01 X68.9406 Y47.7276
G01 X68.9107 Y47.8262
G01 X68.8621 Y47.9171
G01 X68.7967 Y47.9967
G01 X68.7171 Y48.0621
G01 X68.6262 Y48.1107
G01 X68.5276 Y48.1406
G01 X68.4201 Y48.1512
G01 X68.2894 Y48.1512
G01 X68.2808 Y48.1516
G01 X68.2699 Y48.1531
G01 X68.2603 Y48.1555
G01 X68.2511 Y48.1588
G01 X68.2422 Y48.1630
G01 X68.2338 Y48.1680
G01 X68.2259 Y48.1739
G01 X68.2186 Y48.1805
G01 X68.2113 Y48.1887
G01 X68.2062 Y48.1956
G01 X68.2017 Y48.2030
G01 X68.1760 Y48.2512
G01 X68.1197 Y48.3197
G01 X68.1054 Y48.3315
G01 X68.0991 Y48.3373
G01 X67.9373 Y48.4991
G01 X67.9315 Y48.5054
G01 X67.9197 Y48.5197
G01 X67.8512 Y48.5760
G01 X67.7730 Y48.6177
G01 X67.6882 Y48.6435
G01 X67.6000 Y48.6522
G01 X67.5816 Y48.6504
G01 X67.5730 Y48.6500
G01 X65.8710 Y48.6500
G01 X65.8624 Y48.6504
G01 X65.8440 Y48.6522
G01 X65.7558 Y48.6435
G01 X65.6710 Y48.6177
G01 X65.5928 Y48.5760
G01 X65.5243 Y48.5197
G01 X65.5125 Y48.5054
G01 X65.5067 Y48.4991
G01 X65.0509 Y48.0433
G01 X65.0446 Y48.0375
G01 X65.0303 Y48.0257
G01 X64.9740 Y47.9572
G01 X64.9323 Y47.8790
G01 X64.9065 Y47.7942
G01 X64.8978 Y47.7060
G01 X64.8996 Y47.6876
G01 X64.9000 Y47.6790
G01 X64.9000 Y46.0012
G01 X64.8995 Y45.9914
G01 X64.8985 Y45.9841
G01 X64.8953 Y45.9710
G01 X64.8924 Y45.9629
G01 X64.8893 Y45.9562
G01 X64.8832 Y45.9456
G01 X64.8757 Y45.9359
G01 X64.8707 Y45.9305
G01 X64.8653 Y45.9255
G01 X64.8556 Y45.9180
G01 X64.8450 Y45.9119
G01 X64.8383 Y45.9088
G01 X64.8302 Y45.9059
G01 X64.8183 Y45.9029
G01 X64.8098 Y45.9017
G01 X64.8000 Y45.9012
G01 X64.4549 Y45.9012
G01 X64.4206 Y45.8978
G01 X64.3923 Y45.8892
G01 X64.3663 Y45.8753
G01 X64.3434 Y45.8566
G01 X64.3247 Y45.8337
G01 X64.3108 Y45.8077
G01 X64.3022 Y45.7794
G01 X64.2988 Y45.7451
G01 X64.2988 Y43.6549
G01 X64.3022 Y43.6206
G01 X64.3108 Y43.5923
G01 X64.3247 Y43.5663
G01 X64.3434 Y43.5434
G01 X64.3663 Y43.5247
G01 X64.3923 Y43.5108
G01 X64.4206 Y43.5022
G01 X64.4475 Y43.4992
G01 X64.4606 Y43.4961
G01 X64.4686 Y43.4931
G01 X64.4775 Y43.4889
G01 X64.4859 Y43.4839
G01 X64.4938 Y43.4780
G01 X64.5028 Y43.4697
G01 X64.5077 Y43.4642
G01 X64.5121 Y43.4583
G01 X64.5180 Y43.4490
G01 X64.5228 Y43.4390
G01 X64.5264 Y43.4286
G01 X64.5289 Y43.4178
G01 X64.5299 Y43.4105
G01 X64.5303 Y43.4032
G01 X64.5301 Y43.3934
G01 X64.5285 Y43.3812
G01 X64.5257 Y43.3705
G01 X64.5228 Y43.3624
G01 X64.5197 Y43.3558
G01 X64.5135 Y43.3452
G01 X64.5061 Y43.3354
G01 X64.5011 Y43.3300
G01 X64.4957 Y43.3250
G01 X64.4859 Y43.3176
G01 X64.4764 Y43.3119
G01 X64.4686 Y43.3083
G01 X64.4617 Y43.3058
G01 X64.4487 Y43.3024
G01 X64.4402 Y43.3012
G01 X64.3618 Y43.2935
G01 X64.2770 Y43.2677
G01 X64.1988 Y43.2260
G01 X64.1303 Y43.1697
G01 X64.0740 Y43.1012
G01 X64.0323 Y43.0230
G01 X64.0065 Y42.9382
G01 X63.9974 Y42.8453
G01 X63.9999 Y42.1791
G01 X64.0789 Y42.1000
G01 X64.4000 Y42.1000
G01 X64.4000 Y42.8500
G00 Z1.0000
G00 X64.4500 Y43.6000
G01 F400.00
G01 Z-0.0400
G01 F2500.00
G01 X66.2500 Y43.6000
G01 X66.2598 Y43.6010
G01 X66.2691 Y43.6038
G01 X66.2778 Y43.6084
G01 X66.2854 Y43.6146
G01 X66.2916 Y43.6222
G01 X66.2962 Y43.6309
G01 X66.2990 Y43.6402
G01 X66.3000 Y43.6500
G01 X66.3000 Y45.7500
G01 X66.2990 Y45.7598
G01 X66.2971 Y45.7668
G01 X66.2935 Y45.7746
G01 X66.2887 Y45.7817
G01 X66.2827 Y45.7879
G01 X66.2757 Y45.7929
G01 X66.2691 Y45.7962
G01 X66.2621 Y45.7985
G01 X66.2537 Y45.7999
G01 X65.7001 Y45.8000
G01 X65.7002 Y46.6584
G01 X65.7835 Y46.5753
G01 X65.7944 Y46.5668
G01 X65.8005 Y46.5631
G01 X65.8081 Y46.5592
G01 X65.8184 Y46.5551
G01 X66.1184 Y46.4551
G01 X66.1300 Y46.4520
G01 X66.1420 Y46.4503
G01 X66.1500 Y46.4500
G01 X68.4262 Y46.4500
G01 X68.4667 Y46.4520
G01 X68.5079 Y46.4582
G01 X68.5484 Y46.4683
G01 X68.5876 Y46.4824
G01 X68.6253 Y46.5002
G01 X68.6590 Y46.5203
G01 X68.6946 Y46.5465
G01 X68.7272 Y46.5763
G01 X68.7535 Y46.6054
G01 X68.7770 Y46.6369
G01 X68.7998 Y46.6747
G01 X68.8185 Y46.7146
G01 X68.8317 Y46.7516
G01 X68.8413 Y46.7897
G01 X68.8480 Y46.8333
G01 X68.8500 Y46.8750
G01 X68.8500 Y47.6250
G01 X68.8478 Y47.6679
G01 X68.8418 Y47.7079
G01 X68.8317 Y47.7484
G01 X68.8176 Y47.7876
G01 X68.8009 Y47.8232
G01 X68.7770 Y47.8631
G01 X68.7535 Y47.8946
G01 X68.7255 Y47.9255
G01 X68.6946 Y47.9535
G01 X68.6631 Y47.9770
G01 X68.6253 Y47.9998
G01 X68.5854 Y48.0185
G01 X68.5484 Y48.0317
G01 X68.5091 Y48.0416
G01 X68.4667 Y48.0480
G01 X68.4262 Y48.0500
G01 X68.1462 Y48.0500
G01 X68.1432 Y48.0695
G01 X68.1354 Y48.1005
G01 X68.1230 Y48.1351
G01 X68.1076 Y48.1672
G01 X68.0911 Y48.1945
G01 X68.0722 Y48.2202
G01 X68.0476 Y48.2476
G01 X67.8458 Y48.4493
G01 X67.8221 Y48.4707
G01 X67.7945 Y48.4911
G01 X67.7651 Y48.5088
G01 X67.7340 Y48.5235
G01 X67.7016 Y48.5351
G01 X67.6683 Y48.5434
G01 X67.6343 Y48.5485
G01 X67.6000 Y48.5502
G01 X65.8440 Y48.5502
G01 X65.8097 Y48.5485
G01 X65.7733 Y48.5429
G01 X65.7400 Y48.5343
G01 X65.7100 Y48.5235
G01 X65.6811 Y48.5099
G01 X65.6495 Y48.4911
G01 X65.6209 Y48.4699
G01 X65.5964 Y48.4476
G01 X65.1024 Y47.9536
G01 X65.0793 Y47.9281
G01 X65.0589 Y47.9005
G01 X65.0412 Y47.8711
G01 X65.0265 Y47.8400
G01 X65.0149 Y47.8076
G01 X65.0066 Y47.7743
G01 X65.0015 Y47.7403
G01 X64.9999 Y47.7085
G01 X64.9998 Y45.8000
G01 X64.4463 Y45.7999
G01 X64.4379 Y45.7985
G01 X64.4297 Y45.7957
G01 X64.4222 Y45.7916
G01 X64.4164 Y45.7870
G01 X64.4106 Y45.7808
G01 X64.4059 Y45.7736
G01 X64.4025 Y45.7657
G01 X64.4005 Y45.7573
G01 X64.4000 Y45.7500
G01 X64.4000 Y43.6488
G01 X64.4012 Y43.6390
G01 X64.4043 Y43.6297
G01 X64.4084 Y43.6222
G01 X64.4146 Y43.6146
G01 X64.4222 Y43.6084
G01 X64.4309 Y43.6038
G01 X64.4402 Y43.6010
G01 X64.4500 Y43.6000
G00 Z1.0000
G00 X65.7855 Y39.9264
G01 F400.00
G01 Z-0.0400
G01 F2500.00
G01 X65.7793 Y39.9207
G01 X65.5784 Y39.7199
G01 X65.5729 Y39.7137
G01 X65.5673 Y39.7062
G01 X65.5623 Y39.6981
G01 X65.5582 Y39.6897
G01 X65.5548 Y39.6808
G01 X65.5529 Y39.6740
G01 X65.5507 Y39.6624
G01 X65.5007 Y39.2624
G01 X65.5001 Y39.2548
G01 X65.5000 Y39.2465
G01 X65.5007 Y39.2376
G01 X65.5507 Y38.8376
G01 X65.5524 Y38.8283
G01 X65.5542 Y38.8214
G01 X65.5587 Y38.8093
G01 X65.5623 Y38.8019
G01 X65.5673 Y38.7938
G01 X65.5729 Y38.7863
G01 X65.5793 Y38.7793
G01 X65.7801 Y38.5785
G01 X65.7861 Y38.5730
G01 X65.7935 Y38.5674
G01 X65.8014 Y38.5626
G01 X65.8087 Y38.5589
G01 X65.8184 Y38.5551
G01 X66.1184 Y38.4551
G01 X66.1313 Y38.4518
G01 X66.1393 Y38.4505
G01 X66.1473 Y38.4500
G01 X68.4250 Y38.4500
G01 X68.4667 Y38.4520
G01 X68.5079 Y38.4582
G01 X68.5484 Y38.4683
G01 X68.5876 Y38.4824
G01 X68.6253 Y38.5002
G01 X68.6611 Y38.5216
G01 X68.6946 Y38.5465
G01 X68.7264 Y38.5754
G01 X68.7535 Y38.6054
G01 X68.7784 Y38.6389
G01 X68.7998 Y38.6747
G01 X68.8167 Y38.7101
G01 X68.8324 Y38.7540
G01 X68.8418 Y38.7921
G01 X68.8481 Y38.8346
G01 X68.8500 Y38.8750
G01 X68.8500 Y39.6262
G01 X68.8480 Y39.6667
G01 X68.8418 Y39.7079
G01 X68.8317 Y39.7484
G01 X68.8181 Y39.7865
G01 X68.7998 Y39.8253
G01 X68.7784 Y39.8611
G01 X68.7535 Y39.8946
G01 X68.7255 Y39.9255
G01 X68.6946 Y39.9535
G01 X68.6611 Y39.9784
G01 X68.6253 Y39.9998
G01 X68.5865 Y40.0181
G01 X68.5484 Y40.0317
G01 X68.5103 Y40.0413
G01 X68.4654 Y40.0481
G01 X68.4250 Y40.0500
G01 X68.1501 Y40.0500
G01 X68.1502 Y40.7000
G01 X68.5549 Y40.7002
G01 X68.5633 Y40.7018
G01 X68.5714 Y40.7048
G01 X68.5788 Y40.7091
G01 X68.5845 Y40.7138
G01 X68.5902 Y40.7202
G01 X68.5941 Y40.7264
G01 X68.5975 Y40.7343
G01 X68.5995 Y40.7427
G01 X68.6000 Y40.7500
G01 X68.6000 Y42.8500
G01 X68.5990 Y42.8598
G01 X68.5962 Y42.8691
G01 X68.5935 Y42.8746
G01 X68.5909 Y42.8788
G01 X68.5845 Y42.8862
G01 X68.5767 Y42.8922
G01 X68.5691 Y42.8962
G01 X68.5598 Y42.8990
G01 X68.5500 Y42.9000
G01 X66.7500 Y42.9000
G01 X66.7439 Y42.8996
G01 X66.7390 Y42.8988
G01 X66.7297 Y42.8957
G01 X66.7212 Y42.8909
G01 X66.7138 Y42.8845
G01 X66.7078 Y42.8767
G01 X66.7034 Y42.8680
G01 X66.7007 Y42.8585
G01 X66.7000 Y42.8500
G01 X66.7000 Y40.7500
G01 X66.7004 Y40.7439
G01 X66.7015 Y40.7379
G01 X66.7038 Y40.7309
G01 X66.7078 Y40.7233
G01 X66.7121 Y40.7173
G01 X66.7183 Y40.7113
G01 X66.7243 Y40.7071
G01 X66.7320 Y40.7034
G01 X66.7402 Y40.7010
G01 X66.7475 Y40.7001
G01 X67.4499 Y40.7000
G01 X67.4498 Y40.0500
G01 X66.1500 Y40.0500
G01 X66.1406 Y40.0496
G01 X66.1287 Y40.0477
G01 X66.1184 Y40.0449
G01 X65.8184 Y39.9449
G01 X65.8092 Y39.9413
G01 X65.8005 Y39.9369
G01 X65.7922 Y39.9316
G01 X65.7855 Y39.9264
G00 Z1.0000
G00 X69.6010 Y38.7351
G01 F400.00
G01 Z-0.0400
G01 F2500.00
G01 X69.6018 Y38.7236
G01 X69.6510 Y38.3301
G01 X69.6523 Y38.3237
G01 X69.6539 Y38.3133
G01 X69.6580 Y38.2989
G01 X69.6606 Y38.2872
G01 X69.6648 Y38.2760
G01 X69.6716 Y38.2626
G01 X69.6764 Y38.2516
G01 X69.6827 Y38.2414
G01 X69.6901 Y38.2320
G01 X69.6988 Y38.2198
G01 X69.7098 Y38.2074
G01 X69.9051 Y38.0121
G01 X69.9099 Y38.0081
G01 X69.9174 Y38.0009
G01 X69.9296 Y37.9919
G01 X69.9391 Y37.9842
G01 X69.9489 Y37.9780
G01 X69.9626 Y37.9716
G01 X69.9734 Y37.9658
G01 X69.9883 Y37.9598
G01 X70.2821 Y37.8618
G01 X70.2958 Y37.8587
G01 X70.3085 Y37.8549
G01 X70.3249 Y37.8521
G01 X70.3381 Y37.8515
G01 X70.3517 Y37.8500
G01 X70.5100 Y37.8500
G01 X70.5173 Y37.8497
G01 X70.5319 Y37.8476
G01 X70.5402 Y37.8453
G01 X70.5494 Y37.8419
G01 X70.5593 Y37.8370
G01 X70.5656 Y37.8332
G01 X70.5715 Y37.8288
G01 X70.5798 Y37.8216
G01 X70.5873 Y37.8135
G01 X70.5932 Y37.8056
G01 X70.5976 Y37.7982
G01 X70.6240 Y37.7488
G01 X70.6803 Y37.6803
G01 X70.7488 Y37.6240
G01 X70.8270 Y37.5823
G01 X70.9118 Y37.5565
G01 X71.0047 Y37.5474
G01 X71.6209 Y37.5499
G01 X71.7000 Y37.6289
G01 X71.7000 Y37.9500
G01 X70.3500 Y37.9500
G01 X70.3420 Y37.9503
G01 X70.3300 Y37.9520
G01 X70.3184 Y37.9551
G01 X70.0184 Y38.0551
G01 X70.0097 Y38.0584
G01 X70.0014 Y38.0626
G01 X69.9916 Y38.0688
G01 X69.9861 Y38.0730
G01 X69.9801 Y38.0785
G01 X69.7793 Y38.2793
G01 X69.7729 Y38.2863
G01 X69.7673 Y38.2938
G01 X69.7623 Y38.3019
G01 X69.7582 Y38.3103
G01 X69.7548 Y38.3192
G01 X69.7529 Y38.3260
G01 X69.7507 Y38.3376
G01 X69.7007 Y38.7376
G01 X69.7000 Y38.7465
G01 X69.7001 Y38.7548
G01 X69.7007 Y38.7624
G01 X69.7507 Y39.1624
G01 X69.7529 Y39.1740
G01 X69.7548 Y39.1808
G01 X69.7582 Y39.1897
G01 X69.7623 Y39.1981
G01 X69.7673 Y39.2062
G01 X69.7729 Y39.2137
G01 X69.7784 Y39.2199
G01 X69.9793 Y39.4207
G01 X69.9865 Y39.4273
G01 X69.9955 Y39.4338
G01 X70.0018 Y39.4376
G01 X70.0081 Y39.4408
G01 X70.0184 Y39.4449
G01 X70.3184 Y39.5449
G01 X70.3287 Y39.5477
G01 X70.3406 Y39.5496
G01 X70.3500 Y39.5500
G01 X71.6498 Y39.5500
G01 X71.6499 Y39.9212
G01 X71.6209 Y39.9501
G01 X71.0047 Y39.9526
G01 X70.9118 Y39.9435
G01 X70.8270 Y39.9177
G01 X70.7488 Y39.8760
G01 X70.6803 Y39.8197
G01 X70.6240 Y39.7512
G01 X70.5976 Y39.7018
G01 X70.5932 Y39.6944
G01 X70.5873 Y39.6865
G01 X70.5798 Y39.6784
G01 X70.5715 Y39.6712
G01 X70.5656 Y39.6668
G01 X70.5593 Y39.6630
G01 X70.5494 Y39.6581
G01 X70.5402 Y39.6547
G01 X70.5319 Y39.6524
G01 X70.5173 Y39.6503
G01 X70.5100 Y39.6500
G01 X70.3549 Y39.6500
G01 X70.3409 Y39.6486
G01 X70.3276 Y39.6482
G01 X70.3113 Y39.6457
G01 X70.2985 Y39.6421
G01 X70.2852 Y39.6392
G01 X69.9914 Y39.5413
G01 X69.9760 Y39.5353
G01 X69.9651 Y39.5296
G01 X69.9513 Y39.5234
G01 X69.9414 Y39.5173
G01 X69.9318 Y39.5097
G01 X69.9195 Y39.5009
G01 X69.9074 Y39.4902
G01 X69.7121 Y39.2949
G01 X69.7079 Y39.2899
G01 X69.7007 Y39.2823
G01 X69.6936 Y39.2726
G01 X69.6842 Y39.2609
G01 X69.6778 Y39.2508
G01 X69.6728 Y39.2399
G01 X69.6658 Y39.2266
G01 X69.6615 Y39.2154
G01 X69.6587 Y39.2038
G01 X69.6544 Y39.1894
G01 X69.6514 Y39.1732
G01 X69.6022 Y38.7797
G01 X69.6012 Y38.7677
G01 X69.6014 Y38.7524
G01 X69.6010 Y38.7351
G00 Z1.0000
G00 X78.7499 Y40.7606
G01 F400.00
G01 Z-0.0400
G01 F2500.00
G01 X78.7500 Y39.8225
G01 X78.7511 Y39.8005
G01 X78.7543 Y39.7786
G01 X78.7607 Y39.7524
G01 X78.7689 Y39.7293
G01 X78.7783 Y39.7093
G01 X78.7927 Y39.6850
G01 X78.8067 Y39.6663
G01 X78.8232 Y39.6482
G01 X81.0982 Y37.3732
G01 X81.1154 Y37.3575
G01 X81.1381 Y37.3407
G01 X81.1571 Y37.3294
G01 X81.1793 Y37.3189
G01 X81.2048 Y37.3100
G01 X81.2262 Y37.3047
G01 X81.2505 Y37.3011
G01 X81.2750 Y37.2999
G01 X81.6359 Y37.2999
G01 X81.6395 Y37.2864
G01 X81.6685 Y37.2056
G01 X81.7075 Y37.1236
G01 X81.7517 Y37.0500
G01 X81.8028 Y36.9810
G01 X81.8654 Y36.9119
G01 X81.9290 Y36.8543
G01 X81.9980 Y36.8031
G01 X82.0757 Y36.7563
G01 X82.1556 Y36.7185
G01 X82.2364 Y36.6895
G01 X82.3256 Y36.6671
G01 X82.4142 Y36.6542
G01 X82.5000 Y36.6500
G01 X82.5858 Y36.6542
G01 X82.6756 Y36.6673
G01 X82.7636 Y36.6895
G01 X82.8444 Y36.7185
G01 X82.9221 Y36.7552
G01 X83.0000 Y36.8017
G01 X83.0728 Y36.8559
G01 X83.1364 Y36.9136
G01 X83.1949 Y36.9781
G01 X83.2483 Y37.0500
G01 X83.2937 Y37.1257
G01 X83.3315 Y37.2056
G01 X83.3612 Y37.2887
G01 X83.3827 Y37.3744
G01 X83.3957 Y37.4618
G01 X83.4000 Y37.5500
G01 X83.3957 Y37.6382
G01 X83.3827 Y37.7256
G01 X83.3612 Y37.8113
G01 X83.3315 Y37.8944
G01 X83.2937 Y37.9743
G01 X83.2483 Y38.0500
G01 X83.1957 Y38.1210
G01 X83.1364 Y38.1864
G01 X83.0690 Y38.2472
G01 X83.0000 Y38.2983
G01 X82.9264 Y38.3425
G01 X82.8467 Y38.3805
G01 X82.7613 Y38.4112
G01 X82.6756 Y38.4327
G01 X82.5882 Y38.4457
G01 X82.4975 Y38.4499
G01 X82.4118 Y38.4457
G01 X82.3268 Y38.4331
G01 X82.2399 Y38.4116
G01 X82.1556 Y38.3815
G01 X82.0736 Y38.3425
G01 X82.0000 Y38.2983
G01 X81.9310 Y38.2472
G01 X81.8636 Y38.1864
G01 X81.8028 Y38.1190
G01 X81.7517 Y38.0500
G01 X81.7075 Y37.9764
G01 X81.6685 Y37.8944
G01 X81.6395 Y37.8136
G01 X81.6359 Y37.8001
G01 X81.3786 Y37.8001
G01 X79.2501 Y39.9286
G01 X79.2501 Y40.7606
G01 X79.2603 Y40.7656
G01 X79.3056 Y40.7927
G01 X79.3508 Y40.8265
G01 X79.3889 Y40.8611
G01 X79.4236 Y40.8992
G01 X79.4586 Y40.9465
G01 X79.4851 Y40.9907
G01 X79.5071 Y41.0373
G01 X79.5263 Y41.0904
G01 X79.5399 Y41.1451
G01 X79.5474 Y41.1961
G01 X79.5500 Y41.2500
G01 X79.5471 Y41.3064
G01 X79.5394 Y41.3573
G01 X79.5270 Y41.4073
G01 X79.5081 Y41.4605
G01 X79.4838 Y41.5114
G01 X79.4573 Y41.5556
G01 X79.4267 Y41.5970
G01 X79.3889 Y41.6389
G01 X79.3470 Y41.6767
G01 X79.3056 Y41.7073
G01 X79.2593 Y41.7351
G01 X79.2105 Y41.7581
G01 X79.1597 Y41.7763
G01 X79.1073 Y41.7894
G01 X79.0539 Y41.7974
G01 X79.0000 Y41.8000
G01 X78.9461 Y41.7974
G01 X78.8927 Y41.7894
G01 X78.8403 Y41.7763
G01 X78.7895 Y41.7581
G01 X78.7407 Y41.7351
G01 X78.6944 Y41.7073
G01 X78.6511 Y41.6752
G01 X78.6111 Y41.6389
G01 X78.5748 Y41.5989
G01 X78.5427 Y41.5556
G01 X78.5149 Y41.5093
G01 X78.4919 Y41.4605
G01 X78.4737 Y41.4097
G01 X78.4606 Y41.3573
G01 X78.4526 Y41.3039
G01 X78.4500 Y41.2500
G01 X78.4526 Y41.1961
G01 X78.4606 Y41.1427
G01 X78.4737 Y41.0904
G01 X78.4919 Y41.0395
G01 X78.5149 Y40.9907
G01 X78.5427 Y40.9445
G01 X78.5748 Y40.9011
G01 X78.6111 Y40.8611
G01 X78.6511 Y40.8249
G01 X78.6944 Y40.7927
G01 X78.7397 Y40.7656
G01 X78.7499 Y40.7606
G00 Z1.0000
G00 X79.0000 Y41.9327
G01 F400.00
G01 Z-0.0400
G01 F2500.00
G01 X78.9905 Y41.9235
G01 X78.9806 Y41.9162
G01 X78.9710 Y41.9107
G01 X78.9643 Y41.9076
G01 X78.9574 Y41.9051
G01 X78.9456 Y41.9019
G01 X78.8104 Y41.8750
G01 X78.6921 Y41.8260
G01 X78.5857 Y41.7549
G01 X78.4951 Y41.6644
G01 X78.4240 Y41.5579
G01 X78.3750 Y41.4396
G01 X78.3500 Y41.3140
G01 X78.3500 Y41.1860
G01 X78.3750 Y41.0604
G01 X78.4240 Y40.9421
G01 X78.4951 Y40.8357
G01 X78.5857 Y40.7451
G01 X78.6115 Y40.7275
G01 X78.6224 Y40.7176
G01 X78.6273 Y40.7121
G01 X78.6318 Y40.7063
G01 X78.6382 Y40.6958
G01 X78.6433 Y40.6847
G01 X78.6457 Y40.6777
G01 X78.6478 Y40.6694
G01 X78.6495 Y40.6585
G01 X78.6500 Y40.6487
G01 X78.6500 Y39.8471
G01 X78.6496 Y39.8385
G01 X78.6483 Y39.8250
G01 X78.6551 Y39.7564
G01 X78.6751 Y39.6904
G01 X78.7076 Y39.6296
G01 X78.7513 Y39.5763
G01 X78.7618 Y39.5677
G01 X78.7682 Y39.5619
G01 X81.0119 Y37.3182
G01 X81.0177 Y37.3118
G01 X81.0263 Y37.3013
G01 X81.0796 Y37.2576
G01 X81.1404 Y37.2251
G01 X81.2064 Y37.2051
G01 X81.2750 Y37.1983
G01 X81.2885 Y37.1996
G01 X81.2971 Y37.2000
G01 X81.4958 Y37.2000
G01 X81.5031 Y37.1997
G01 X81.5141 Y37.1983
G01 X81.5248 Y37.1957
G01 X81.5352 Y37.1919
G01 X81.5451 Y37.1870
G01 X81.5513 Y37.1832
G01 X81.5573 Y37.1788
G01 X81.5656 Y37.1716
G01 X81.5731 Y37.1635
G01 X81.5796 Y37.1545
G01 X81.5840 Y37.1472
G01 X81.5877 Y37.1394
G01 X81.6138 Y37.0763
G01 X81.7233 Y36.9126
G01 X81.8626 Y36.7733
G01 X82.0263 Y36.6638
G01 X82.2083 Y36.5885
G01 X82.4015 Y36.5500
G01 X82.5985 Y36.5500
G01 X82.7917 Y36.5885
G01 X82.9737 Y36.6638
G01 X83.1374 Y36.7733
G01 X83.2767 Y36.9126
G01 X83.3862 Y37.0763
G01 X83.4615 Y37.2583
G01 X83.5000 Y37.4515
G01 X83.5000 Y37.6485
G01 X83.4615 Y37.8417
G01 X83.3862 Y38.0237
G01 X83.2767 Y38.1874
G01 X83.1374 Y38.3267
G01 X82.9737 Y38.4362
G01 X82.7917 Y38.5115
G01 X82.5985 Y38.5500
G01 X82.4015 Y38.5500
G01 X82.2083 Y38.5115
G01 X82.0263 Y38.4362
G01 X81.8626 Y38.3267
G01 X81.7233 Y38.1874
G01 X81.6138 Y38.0237
G01 X81.5882 Y37.9617
G01 X81.5840 Y37.9528
G01 X81.5789 Y37.9444
G01 X81.5731 Y37.9365
G01 X81.5665 Y37.9293
G01 X81.5592 Y37.9227
G01 X81.5503 Y37.9162
G01 X81.5407 Y37.9107
G01 X81.5340 Y37.9076
G01 X81.5271 Y37.9051
G01 X81.5165 Y37.9022
G01 X81.5068 Y37.9006
G01 X81.4982 Y37.9000
G01 X81.4614 Y37.9000
G01 X81.4516 Y37.9005
G01 X81.4419 Y37.9019
G01 X81.4324 Y37.9043
G01 X81.4254 Y37.9067
G01 X81.4121 Y37.9130
G01 X81.4048 Y37.9175
G01 X81.3970 Y37.9235
G01 X81.3907 Y37.9293
G01 X79.3793 Y39.9407
G01 X79.3712 Y39.9499
G01 X79.3668 Y39.9558
G01 X79.3630 Y39.9621
G01 X79.3576 Y39.9731
G01 X79.3539 Y39.9835
G01 X79.3519 Y39.9919
G01 X79.3508 Y39.9992
G01 X79.3500 Y40.0102
G01 X79.3500 Y40.6487
G01 X79.3505 Y40.6585
G01 X79.3522 Y40.6694
G01 X79.3543 Y40.6777
G01 X79.3567 Y40.6847
G01 X79.3618 Y40.6958
G01 X79.3682 Y40.7063
G01 X79.3727 Y40.7121
G01 X79.3776 Y40.7176
G01 X79.3885 Y40.7275
G01 X79.4143 Y40.7451
G01 X79.5049 Y40.8357
G01 X79.5760 Y40.9421
G01 X79.6250 Y41.0604
G01 X79.6500 Y41.1860
G01 X79.6500 Y41.3140
G01 X79.6250 Y41.4396
G01 X79.5760 Y41.5579
G01 X79.5049 Y41.6644
G01 X79.4143 Y41.7549
G01 X79.3079 Y41.8260
G01 X79.1896 Y41.8750
G01 X79.0544 Y41.9019
G01 X79.0426 Y41.9051
G01 X79.0357 Y41.9076
G01 X79.0290 Y41.9107
G01 X79.0194 Y41.9162
G01 X79.0095 Y41.9235
G01 X79.0000 Y41.9327
G00 Z1.0000
G00 X78.3500 Y42.8140
G01 F400.00
G01 Z-0.0400
G01 F2500.00
G01 X78.3500 Y42.6860
G01 X78.3750 Y42.5604
G01 X78.4240 Y42.4421
G01 X78.4951 Y42.3357
G01 X78.5857 Y42.2451
G01 X78.6921 Y42.1740
G01 X78.8104 Y42.1250
G01 X78.9456 Y42.0981
G01 X78.9551 Y42.0957
G01 X78.9666 Y42.0914
G01 X78.9732 Y42.0882
G01 X78.9806 Y42.0838
G01 X78.9905 Y42.0765
G01 X79.0000 Y42.0673
G01 X79.0095 Y42.0765
G01 X79.0194 Y42.0838
G01 X79.0290 Y42.0893
G01 X79.0357 Y42.0924
G01 X79.0426 Y42.0950
G01 X79.0544 Y42.0981
G01 X79.1896 Y42.1250
G01 X79.3079 Y42.1740
G01 X79.4143 Y42.2451
G01 X79.5049 Y42.3357
G01 X79.5196 Y42.3576
G01 X79.5240 Y42.3634
G01 X79.5306 Y42.3707
G01 X79.5379 Y42.3773
G01 X79.5458 Y42.3832
G01 X79.5542 Y42.3882
G01 X79.5631 Y42.3924
G01 X79.5723 Y42.3957
G01 X79.5794 Y42.3976
G01 X79.5928 Y42.3996
G01 X79.6013 Y42.4000
G01 X79.6536 Y42.4000
G01 X79.6646 Y42.3994
G01 X79.6731 Y42.3981
G01 X79.6827 Y42.3957
G01 X79.6919 Y42.3924
G01 X79.6986 Y42.3893
G01 X79.7102 Y42.3825
G01 X79.7171 Y42.3773
G01 X79.7243 Y42.3707
G01 X81.5424 Y40.5526
G01 X81.5490 Y40.5454
G01 X81.5535 Y40.5395
G01 X81.5593 Y40.5301
G01 X81.5636 Y40.5213
G01 X81.5674 Y40.5109
G01 X81.5695 Y40.5026
G01 X81.5712 Y40.4917
G01 X81.5717 Y40.4831
G01 X81.5713 Y40.4733
G01 X81.5702 Y40.4648
G01 X81.5678 Y40.4540
G01 X81.5646 Y40.4448
G01 X81.5385 Y40.3817
G01 X81.5000 Y40.1885
G01 X81.5000 Y39.9915
G01 X81.5385 Y39.7983
G01 X81.6138 Y39.6163
G01 X81.7233 Y39.4526
G01 X81.8626 Y39.3133
G01 X82.0263 Y39.2038
G01 X82.2083 Y39.1285
G01 X82.4015 Y39.0900
G01 X82.5985 Y39.0900
G01 X82.7917 Y39.1285
G01 X82.9737 Y39.2038
G01 X83.1374 Y39.3133
G01 X83.2767 Y39.4526
G01 X83.3862 Y39.6163
G01 X83.4615 Y39.7983
G01 X83.5000 Y39.9915
G01 X83.5000 Y40.1885
G01 X83.4615 Y40.3817
G01 X83.3862 Y40.5637
G01 X83.2767 Y40.7274
G01 X83.1374 Y40.8667
G01 X82.9737 Y40.9762
G01 X82.7917 Y41.0515
G01 X82.5985 Y41.0900
G01 X82.4015 Y41.0900
G01 X82.2083 Y41.0515
G01 X82.1452 Y41.0254
G01 X82.1360 Y41.0222
G01 X82.1252 Y41.0198
G01 X82.1167 Y41.0187
G01 X82.1069 Y41.0183
G01 X82.0983 Y41.0188
G01 X82.0874 Y41.0205
G01 X82.0791 Y41.0226
G01 X82.0698 Y41.0259
G01 X82.0609 Y41.0301
G01 X82.0515 Y41.0358
G01 X82.0446 Y41.0410
G01 X82.0374 Y41.0476
G01 X80.1031 Y42.9818
G01 X80.0973 Y42.9882
G01 X80.0887 Y42.9987
G01 X80.0354 Y43.0424
G01 X79.9746 Y43.0749
G01 X79.9086 Y43.0949
G01 X79.8400 Y43.1017
G01 X79.8265 Y43.1003
G01 X79.8179 Y43.1000
G01 X79.6013 Y43.1000
G01 X79.5915 Y43.1004
G01 X79.5842 Y43.1015
G01 X79.5711 Y43.1046
G01 X79.5608 Y43.1086
G01 X79.5542 Y43.1118
G01 X79.5478 Y43.1155
G01 X79.5388 Y43.1219
G01 X79.5315 Y43.1284
G01 X79.5248 Y43.1356
G01 X79.5196 Y43.1424
G01 X79.5049 Y43.1643
G01 X79.4143 Y43.2549
G01 X79.3079 Y43.3260
G01 X79.1896 Y43.3750
G01 X79.0640 Y43.4000
G01 X78.9360 Y43.4000
G01 X78.8104 Y43.3750
G01 X78.6921 Y43.3260
G01 X78.5857 Y43.2549
G01 X78.4951 Y43.1643
G01 X78.4240 Y43.0579
G01 X78.3750 Y42.9396
G01 X78.3500 Y42.8140
G00 Z1.0000
G00 X79.4895 Y43.0001
G01 F400.00
G01 Z-0.0400
G01 F2500.00
G01 X79.4845 Y43.0103
G01 X79.4573 Y43.0556
G01 X79.4252 Y43.0989
G01 X79.3889 Y43.1389
G01 X79.3489 Y43.1751
G01 X79.3056 Y43.2073
G01 X79.2593 Y43.2350
G01 X79.2105 Y43.2581
G01 X79.1597 Y43.2763
G01 X79.1073 Y43.2894
G01 X79.0539 Y43.2973
G01 X79.0000 Y43.3000
G01 X78.9461 Y43.2973
G01 X78.8927 Y43.2894
G01 X78.8403 Y43.2763
G01 X78.7895 Y43.2581
G01 X78.7407 Y43.2350
G01 X78.6944 Y43.2073
G01 X78.6511 Y43.1751
G01 X78.6111 Y43.1389
G01 X78.5748 Y43.0989
G01 X78.5427 Y43.0556
G01 X78.5149 Y43.0093
G01 X78.4919 Y42.9605
G01 X78.4737 Y42.9096
G01 X78.4606 Y42.8573
G01 X78.4526 Y42.8039
G01 X78.4500 Y42.7500
G01 X78.4526 Y42.6961
G01 X78.4606 Y42.6427
G01 X78.4737 Y42.5903
G01 X78.4919 Y42.5395
G01 X78.5149 Y42.4907
G01 X78.5427 Y42.4444
G01 X78.5733 Y42.4030
G01 X78.6111 Y42.3611
G01 X78.6530 Y42.3233
G01 X78.6944 Y42.2927
G01 X78.7386 Y42.2661
G01 X78.7895 Y42.2419
G01 X78.8427 Y42.2230
G01 X78.8927 Y42.2106
G01 X78.9437 Y42.2029
G01 X79.0000 Y42.2000
G01 X79.0539 Y42.2026
G01 X79.1049 Y42.2101
G01 X79.1597 Y42.2237
G01 X79.2127 Y42.2429
G01 X79.2593 Y42.2649
G01 X79.3035 Y42.2914
G01 X79.3508 Y42.3264
G01 X79.3889 Y42.3611
G01 X79.4236 Y42.3992
G01 X79.4573 Y42.4444
G01 X79.4845 Y42.4896
G01 X79.4895 Y42.4999
G01 X79.7364 Y42.4999
G01 X81.7121 Y40.5242
G01 X81.7052 Y40.5121
G01 X81.6676 Y40.4321
G01 X81.6388 Y40.3513
G01 X81.6169 Y40.2632
G01 X81.6043 Y40.1782
G01 X81.6000 Y40.0900
G01 X81.6043 Y40.0018
G01 X81.6178 Y39.9120
G01 X81.6388 Y39.8287
G01 X81.6685 Y39.7456
G01 X81.7063 Y39.6657
G01 X81.7517 Y39.5900
G01 X81.8043 Y39.5190
G01 X81.8636 Y39.4536
G01 X81.9290 Y39.3943
G01 X82.0000 Y39.3417
G01 X82.0757 Y39.2963
G01 X82.1556 Y39.2585
G01 X82.2387 Y39.2288
G01 X82.3220 Y39.2078
G01 X82.4142 Y39.1942
G01 X82.5000 Y39.1900
G01 X82.5882 Y39.1943
G01 X82.6756 Y39.2073
G01 X82.7613 Y39.2288
G01 X82.8444 Y39.2585
G01 X82.9221 Y39.2952
G01 X83.0020 Y39.3431
G01 X83.0710 Y39.3943
G01 X83.1373 Y39.4545
G01 X83.1957 Y39.5190
G01 X83.2483 Y39.5900
G01 X83.2937 Y39.6657
G01 X83.3315 Y39.7456
G01 X83.3612 Y39.8287
G01 X83.3827 Y39.9144
G01 X83.3957 Y40.0018
G01 X83.4000 Y40.0900
G01 X83.3957 Y40.1782
G01 X83.3827 Y40.2656
G01 X83.3612 Y40.3513
G01 X83.3315 Y40.4344
G01 X83.2937 Y40.5143
G01 X83.2483 Y40.5900
G01 X83.1957 Y40.6610
G01 X83.1355 Y40.7273
G01 X83.0710 Y40.7857
G01 X83.0020 Y40.8369
G01 X82.9221 Y40.8848
G01 X82.8444 Y40.9215
G01 X82.7613 Y40.9512
G01 X82.6756 Y40.9727
G01 X82.5907 Y40.9854
G01 X82.4975 Y40.9899
G01 X82.4118 Y40.9857
G01 X82.3244 Y40.9727
G01 X82.2387 Y40.9512
G01 X82.1579 Y40.9224
G01 X82.0779 Y40.8848
G01 X82.0658 Y40.8779
G01 X80.0169 Y42.9268
G01 X79.9987 Y42.9433
G01 X79.9790 Y42.9579
G01 X79.9600 Y42.9693
G01 X79.9357 Y42.9811
G01 X79.9102 Y42.9900
G01 X79.8888 Y42.9953
G01 X79.8657 Y42.9988
G01 X79.8400 Y43.0001
G01 X79.4895 Y43.0001
G00 Z1.0000
G00 X79.4895 Y45.5001
G01 F400.00
G01 Z-0.0400
G01 F2500.00
G01 X79.4845 Y45.5103
G01 X79.4573 Y45.5556
G01 X79.4252 Y45.5989
G01 X79.3889 Y45.6389
G01 X79.3489 Y45.6752
G01 X79.3056 Y45.7073
G01 X79.2593 Y45.7351
G01 X79.2105 Y45.7581
G01 X79.1597 Y45.7763
G01 X79.1073 Y45.7894
G01 X79.0539 Y45.7974
G01 X79.0000 Y45.8000
G01 X78.9461 Y45.7974
G01 X78.8927 Y45.7894
G01 X78.8403 Y45.7763
G01 X78.7895 Y45.7581
G01 X78.7407 Y45.7351
G01 X78.6944 Y45.7073
G01 X78.6511 Y45.6752
G01 X78.6111 Y45.6389
G01 X78.5748 Y45.5989
G01 X78.5427 Y45.5556
G01 X78.5149 Y45.5093
G01 X78.4919 Y45.4605
G01 X78.4737 Y45.4097
G01 X78.4606 Y45.3573
G01 X78.4526 Y45.3039
G01 X78.4500 Y45.2500
G01 X78.4526 Y45.1961
G01 X78.4606 Y45.1427
G01 X78.4737 Y45.0903
G01 X78.4919 Y45.0395
G01 X78.5149 Y44.9907
G01 X78.5427 Y44.9444
G01 X78.5733 Y44.9030
G01 X78.6111 Y44.8611
G01 X78.6530 Y44.8233
G01 X78.6944 Y44.7927
G01 X78.7386 Y44.7662
G01 X78.7895 Y44.7419
G01 X78.8427 Y44.7230
G01 X78.8927 Y44.7106
G01 X78.9437 Y44.7029
G01 X79.0000 Y44.7000
G01 X79.0563 Y44.7029
G01 X79.1073 Y44.7106
G01 X79.1597 Y44.7237
G01 X79.2127 Y44.7429
G01 X79.2593 Y44.7649
G01 X79.3035 Y44.7914
G01 X79.3508 Y44.8264
G01 X79.3889 Y44.8611
G01 X79.4236 Y44.8992
G01 X79.4573 Y44.9444
G01 X79.4845 Y44.9897
G01 X79.4895 Y44.9999
G01 X79.7764 Y44.9999
G01 X81.7121 Y43.0642
G01 X81.7052 Y43.0521
G01 X81.6676 Y42.9721
G01 X81.6388 Y42.8913
G01 X81.6169 Y42.8032
G01 X81.6043 Y42.7182
G01 X81.6000 Y42.6300
G01 X81.6043 Y42.5418
G01 X81.6178 Y42.4520
G01 X81.6388 Y42.3687
G01 X81.6685 Y42.2856
G01 X81.7063 Y42.2057
G01 X81.7517 Y42.1300
G01 X81.8043 Y42.0590
G01 X81.8636 Y41.9936
G01 X81.9290 Y41.9343
G01 X82.0010 Y41.8810
G01 X82.0757 Y41.8363
G01 X82.1556 Y41.7985
G01 X82.2387 Y41.7688
G01 X82.3220 Y41.7478
G01 X82.4142 Y41.7342
G01 X82.5000 Y41.7300
G01 X82.5882 Y41.7343
G01 X82.6756 Y41.7473
G01 X82.7613 Y41.7688
G01 X82.8444 Y41.7985
G01 X82.9221 Y41.8352
G01 X83.0020 Y41.8831
G01 X83.0710 Y41.9343
G01 X83.1373 Y41.9945
G01 X83.1957 Y42.0590
G01 X83.2483 Y42.1300
G01 X83.2937 Y42.2057
G01 X83.3315 Y42.2856
G01 X83.3612 Y42.3687
G01 X83.3827 Y42.4544
G01 X83.3957 Y42.5418
G01 X83.4000 Y42.6300
G01 X83.3957 Y42.7182
G01 X83.3827 Y42.8056
G01 X83.3612 Y42.8913
G01 X83.3315 Y42.9744
G01 X83.2937 Y43.0543
G01 X83.2483 Y43.1300
G01 X83.1957 Y43.2010
G01 X83.1355 Y43.2673
G01 X83.0710 Y43.3257
G01 X83.0020 Y43.3769
G01 X82.9221 Y43.4248
G01 X82.8444 Y43.4615
G01 X82.7613 Y43.4912
G01 X82.6756 Y43.5127
G01 X82.5907 Y43.5254
G01 X82.4975 Y43.5299
G01 X82.4118 Y43.5257
G01 X82.3244 Y43.5127
G01 X82.2387 Y43.4912
G01 X82.1579 Y43.4624
G01 X82.0779 Y43.4248
G01 X82.0658 Y43.4179
G01 X80.0568 Y45.4268
G01 X80.0387 Y45.4433
G01 X80.0189 Y45.4580
G01 X80.0000 Y45.4694
G01 X79.9757 Y45.4811
G01 X79.9502 Y45.4900
G01 X79.9288 Y45.4953
G01 X79.9045 Y45.4989
G01 X79.8800 Y45.5001
G01 X79.4895 Y45.5001
G00 Z1.0000
G00 X78.3500 Y45.3140
G01 F400.00
G01 Z-0.0400
G01 F2500.00
G01 X78.3500 Y45.1860
G01 X78.3750 Y45.0604
G01 X78.4240 Y44.9421
G01 X78.4951 Y44.8357
G01 X78.5857 Y44.7451
G01 X78.6921 Y44.6740
G01 X78.8104 Y44.6250
G01 X78.9360 Y44.6000
G01 X79.0640 Y44.6000
G01 X79.1896 Y44.6250
G01 X79.3079 Y44.6740
G01 X79.4143 Y44.7451
G01 X79.5049 Y44.8357
G01 X79.5196 Y44.8576
G01 X79.5240 Y44.8635
G01 X79.5306 Y44.8707
G01 X79.5379 Y44.8773
G01 X79.5458 Y44.8832
G01 X79.5542 Y44.8882
G01 X79.5619 Y44.8919
G01 X79.5711 Y44.8953
G01 X79.5794 Y44.8976
G01 X79.5940 Y44.8997
G01 X79.6013 Y44.9000
G01 X79.6936 Y44.9000
G01 X79.7034 Y44.8995
G01 X79.7131 Y44.8981
G01 X79.7215 Y44.8961
G01 X79.7341 Y44.8914
G01 X79.7408 Y44.8882
G01 X79.7492 Y44.8832
G01 X79.7571 Y44.8773
G01 X79.7635 Y44.8716
G01 X81.5424 Y43.0926
G01 X81.5490 Y43.0854
G01 X81.5535 Y43.0795
G01 X81.5593 Y43.0701
G01 X81.5636 Y43.0613
G01 X81.5674 Y43.0509
G01 X81.5695 Y43.0426
G01 X81.5712 Y43.0317
G01 X81.5717 Y43.0231
G01 X81.5713 Y43.0133
G01 X81.5702 Y43.0048
G01 X81.5678 Y42.9940
G01 X81.5646 Y42.9848
G01 X81.5385 Y42.9217
G01 X81.5000 Y42.7285
G01 X81.5000 Y42.5315
G01 X81.5385 Y42.3383
G01 X81.6138 Y42.1563
G01 X81.7233 Y41.9926
G01 X81.8626 Y41.8533
G01 X82.0263 Y41.7438
G01 X82.2083 Y41.6685
G01 X82.4015 Y41.6300
G01 X82.5985 Y41.6300
G01 X82.7917 Y41.6685
G01 X82.9737 Y41.7438
G01 X83.1374 Y41.8533
G01 X83.2767 Y41.9926
G01 X83.3862 Y42.1563
G01 X83.4615 Y42.3383
G01 X83.5000 Y42.5315
G01 X83.5000 Y42.7285
G01 X83.4615 Y42.9217
G01 X83.3862 Y43.1037
G01 X83.2767 Y43.2674
G01 X83.1374 Y43.4067
G01 X82.9737 Y43.5162
G01 X82.7917 Y43.5915
G01 X82.5985 Y43.6300
G01 X82.4015 Y43.6300
G01 X82.2083 Y43.5915
G01 X82.1452 Y43.5654
G01 X82.1360 Y43.5622
G01 X82.1252 Y43.5598
G01 X82.1167 Y43.5587
G01 X82.1069 Y43.5583
G01 X82.0983 Y43.5588
G01 X82.0874 Y43.5605
G01 X82.0791 Y43.5626
G01 X82.0698 Y43.5659
G01 X82.0609 Y43.5701
G01 X82.0515 Y43.5758
G01 X82.0446 Y43.5810
G01 X82.0374 Y43.5876
G01 X80.1431 Y45.4818
G01 X80.1373 Y45.4882
G01 X80.1287 Y45.4987
G01 X80.0754 Y45.5424
G01 X80.0146 Y45.5749
G01 X79.9486 Y45.5949
G01 X79.8800 Y45.6017
G01 X79.8665 Y45.6004
G01 X79.8579 Y45.6000
G01 X79.6013 Y45.6000
G01 X79.5891 Y45.6008
G01 X79.5818 Y45.6019
G01 X79.5723 Y45.6043
G01 X79.5619 Y45.6081
G01 X79.5521 Y45.6130
G01 X79.5458 Y45.6168
G01 X79.5398 Y45.6212
G01 X79.5315 Y45.6284
G01 X79.5248 Y45.6356
G01 X79.5196 Y45.6424
G01 X79.5049 Y45.6643
G01 X79.4143 Y45.7549
G01 X79.3079 Y45.8260
G01 X79.1896 Y45.8750
G01 X79.0640 Y45.9000
G01 X78.9360 Y45.9000
G01 X78.8104 Y45.8750
G01 X78.6921 Y45.8260
G01 X78.5857 Y45.7549
G01 X78.4951 Y45.6643
G01 X78.4240 Y45.5579
G01 X78.3750 Y45.4396
G01 X78.3500 Y45.3140
G00 Z1.0000
G00 X78.2499 Y49.7605
G01 F400.00
G01 Z-0.0400
G01 F2500.00
G01 X78.2499 Y49.1700
G01 X78.2510 Y49.1467
G01 X78.2552 Y49.1188
G01 X78.2607 Y49.0974
G01 X78.2689 Y49.0743
G01 X78.2806 Y49.0500
G01 X78.2920 Y49.0311
G01 X78.3067 Y49.0113
G01 X78.3232 Y48.9932
G01 X81.7121 Y45.6042
G01 X81.7052 Y45.5921
G01 X81.6676 Y45.5121
G01 X81.6388 Y45.4313
G01 X81.6173 Y45.3456
G01 X81.6043 Y45.2582
G01 X81.6001 Y45.1725
G01 X81.6046 Y45.0793
G01 X81.6173 Y44.9944
G01 X81.6388 Y44.9087
G01 X81.6685 Y44.8256
G01 X81.7052 Y44.7479
G01 X81.7531 Y44.6680
G01 X81.8043 Y44.5990
G01 X81.8627 Y44.5345
G01 X81.9290 Y44.4743
G01 X82.0000 Y44.4217
G01 X82.0757 Y44.3763
G01 X82.1556 Y44.3385
G01 X82.2387 Y44.3088
G01 X82.3244 Y44.2873
G01 X82.4118 Y44.2743
G01 X82.5000 Y44.2700
G01 X82.5882 Y44.2743
G01 X82.6756 Y44.2873
G01 X82.7613 Y44.3088
G01 X82.8444 Y44.3385
G01 X82.9243 Y44.3763
G01 X83.0000 Y44.4217
G01 X83.0710 Y44.4743
G01 X83.1355 Y44.5327
G01 X83.1957 Y44.5990
G01 X83.2483 Y44.6700
G01 X83.2937 Y44.7457
G01 X83.3315 Y44.8256
G01 X83.3612 Y44.9087
G01 X83.3827 Y44.9944
G01 X83.3957 Y45.0818
G01 X83.4000 Y45.1700
G01 X83.3957 Y45.2582
G01 X83.3827 Y45.3456
G01 X83.3612 Y45.4313
G01 X83.3315 Y45.5144
G01 X83.2937 Y45.5943
G01 X83.2483 Y45.6700
G01 X83.1957 Y45.7410
G01 X83.1381 Y45.8046
G01 X83.0710 Y45.8657
G01 X83.0020 Y45.9169
G01 X82.9221 Y45.9648
G01 X82.8444 Y46.0015
G01 X82.7613 Y46.0312
G01 X82.6756 Y46.0527
G01 X82.5907 Y46.0654
G01 X82.4975 Y46.0699
G01 X82.4118 Y46.0657
G01 X82.3244 Y46.0527
G01 X82.2387 Y46.0312
G01 X82.1579 Y46.0024
G01 X82.0779 Y45.9648
G01 X82.0658 Y45.9579
G01 X78.7501 Y49.2736
G01 X78.7501 Y49.7605
G01 X78.7603 Y49.7655
G01 X78.8056 Y49.7927
G01 X78.8508 Y49.8264
G01 X78.8889 Y49.8611
G01 X78.9236 Y49.8992
G01 X78.9586 Y49.9465
G01 X78.9851 Y49.9907
G01 X79.0071 Y50.0373
G01 X79.0263 Y50.0903
G01 X79.0399 Y50.1451
G01 X79.0474 Y50.1961
G01 X79.0500 Y50.2500
G01 X79.0471 Y50.3063
G01 X79.0394 Y50.3573
G01 X79.0270 Y50.4073
G01 X79.0081 Y50.4605
G01 X78.9838 Y50.5114
G01 X78.9573 Y50.5556
G01 X78.9267 Y50.5970
G01 X78.8889 Y50.6389
G01 X78.8489 Y50.6752
G01 X78.8076 Y50.7059
G01 X78.7593 Y50.7351
G01 X78.7105 Y50.7581
G01 X78.6597 Y50.7763
G01 X78.6073 Y50.7894
G01 X78.5539 Y50.7973
G01 X78.5000 Y50.8000
G01 X78.4461 Y50.7973
G01 X78.3927 Y50.7894
G01 X78.3403 Y50.7763
G01 X78.2895 Y50.7581
G01 X78.2407 Y50.7351
G01 X78.1944 Y50.7073
G01 X78.1511 Y50.6752
G01 X78.1111 Y50.6389
G01 X78.0748 Y50.5989
G01 X78.0427 Y50.5556
G01 X78.0149 Y50.5093
G01 X77.9919 Y50.4605
G01 X77.9737 Y50.4097
G01 X77.9606 Y50.3573
G01 X77.9526 Y50.3039
G01 X77.9500 Y50.2500
G01 X77.9526 Y50.1961
G01 X77.9606 Y50.1427
G01 X77.9737 Y50.0903
G01 X77.9919 Y50.0395
G01 X78.0149 Y49.9907
G01 X78.0427 Y49.9444
G01 X78.0748 Y49.9011
G01 X78.1111 Y49.8611
G01 X78.1511 Y49.8248
G01 X78.1944 Y49.7927
G01 X78.2397 Y49.7655
G01 X78.2499 Y49.7605
G00 Z1.0000
G00 X78.6381 Y51.2182
G01 F400.00
G01 Z-0.0400
G01 F2500.00
G01 X81.7121 Y48.1442
G01 X81.7052 Y48.1321
G01 X81.6676 Y48.0521
G01 X81.6388 Y47.9713
G01 X81.6173 Y47.8856
G01 X81.6043 Y47.7982
G01 X81.6001 Y47.7125
G01 X81.6046 Y47.6193
G01 X81.6173 Y47.5344
G01 X81.6388 Y47.4487
G01 X81.6685 Y47.3656
G01 X81.7052 Y47.2879
G01 X81.7517 Y47.2100
G01 X81.8028 Y47.1410
G01 X81.8654 Y47.0719
G01 X81.9290 Y47.0143
G01 X82.0000 Y46.9617
G01 X82.0757 Y46.9163
G01 X82.1556 Y46.8785
G01 X82.2387 Y46.8488
G01 X82.3244 Y46.8273
G01 X82.4118 Y46.8143
G01 X82.5000 Y46.8100
G01 X82.5882 Y46.8143
G01 X82.6756 Y46.8273
G01 X82.7613 Y46.8488
G01 X82.8444 Y46.8785
G01 X82.9243 Y46.9163
G01 X83.0000 Y46.9617
G01 X83.0710 Y47.0143
G01 X83.1381 Y47.0754
G01 X83.1957 Y47.1390
G01 X83.2483 Y47.2100
G01 X83.2937 Y47.2857
G01 X83.3315 Y47.3656
G01 X83.3612 Y47.4487
G01 X83.3827 Y47.5344
G01 X83.3957 Y47.6218
G01 X83.4000 Y47.7100
G01 X83.3957 Y47.7982
G01 X83.3827 Y47.8856
G01 X83.3612 Y47.9713
G01 X83.3315 Y48.0544
G01 X83.2937 Y48.1343
G01 X83.2483 Y48.2100
G01 X83.1957 Y48.2810
G01 X83.1381 Y48.3446
G01 X83.0690 Y48.4072
G01 X83.0000 Y48.4583
G01 X82.9221 Y48.5048
G01 X82.8444 Y48.5415
G01 X82.7613 Y48.5712
G01 X82.6756 Y48.5927
G01 X82.5907 Y48.6054
G01 X82.4975 Y48.6099
G01 X82.4118 Y48.6057
G01 X82.3244 Y48.5927
G01 X82.2387 Y48.5712
G01 X82.1579 Y48.5424
G01 X82.0779 Y48.5048
G01 X82.0658 Y48.4979
G01 X79.0124 Y51.5513
G01 X79.0263 Y51.5903
G01 X79.0389 Y51.6403
G01 X79.0474 Y51.6961
G01 X79.0499 Y51.7525
G01 X79.0474 Y51.8039
G01 X79.0394 Y51.8573
G01 X79.0263 Y51.9097
G01 X79.0090 Y51.9582
G01 X78.9851 Y52.0093
G01 X78.9559 Y52.0576
G01 X78.9252 Y52.0989
G01 X78.8889 Y52.1389
G01 X78.8470 Y52.1767
G01 X78.8056 Y52.2073
G01 X78.7614 Y52.2338
G01 X78.7105 Y52.2581
G01 X78.6573 Y52.2770
G01 X78.6073 Y52.2894
G01 X78.5563 Y52.2971
G01 X78.5000 Y52.3000
G01 X78.4437 Y52.2971
G01 X78.3927 Y52.2894
G01 X78.3415 Y52.2767
G01 X78.2895 Y52.2581
G01 X78.2407 Y52.2351
G01 X78.1944 Y52.2073
G01 X78.1511 Y52.1752
G01 X78.1111 Y52.1389
G01 X78.0748 Y52.0989
G01 X78.0427 Y52.0556
G01 X78.0149 Y52.0093
G01 X77.9919 Y51.9605
G01 X77.9737 Y51.9097
G01 X77.9606 Y51.8573
G01 X77.9526 Y51.8039
G01 X77.9500 Y51.7500
G01 X77.9526 Y51.6961
G01 X77.9606 Y51.6427
G01 X77.9733 Y51.5915
G01 X77.9919 Y51.5395
G01 X78.0149 Y51.4907
G01 X78.0427 Y51.4444
G01 X78.0748 Y51.4011
G01 X78.1111 Y51.3611
G01 X78.1511 Y51.3248
G01 X78.1944 Y51.2927
G01 X78.2397 Y51.2655
G01 X78.2895 Y51.2419
G01 X78.3403 Y51.2237
G01 X78.3927 Y51.2106
G01 X78.4449 Y51.2028
G01 X78.5000 Y51.2000
G01 X78.5527 Y51.2025
G01 X78.6061 Y51.2103
G01 X78.6381 Y51.2182
G00 Z1.0000
G00 X77.8500 Y51.8140
G01 F400.00
G01 Z-0.0400
G01 F2500.00
G01 X77.8500 Y51.6860
G01 X77.8750 Y51.5604
G01 X77.9240 Y51.4421
G01 X77.9951 Y51.3357
G01 X78.0857 Y51.2451
G01 X78.1921 Y51.1740
G01 X78.3104 Y51.1250
G01 X78.4360 Y51.1000
G01 X78.5761 Y51.1000
G01 X78.5834 Y51.0995
G01 X78.5931 Y51.0981
G01 X78.6026 Y51.0957
G01 X78.6107 Y51.0929
G01 X78.6218 Y51.0876
G01 X78.6292 Y51.0832
G01 X78.6351 Y51.0788
G01 X78.6443 Y51.0707
G01 X78.6517 Y51.0625
G01 X78.6568 Y51.0556
G01 X78.6606 Y51.0493
G01 X78.6660 Y51.0383
G01 X78.6700 Y51.0267
G01 X78.6717 Y51.0195
G01 X78.6730 Y51.0110
G01 X78.6736 Y50.9975
G01 X78.6732 Y50.9902
G01 X78.6717 Y50.9805
G01 X78.6693 Y50.9710
G01 X78.6665 Y50.9629
G01 X78.6606 Y50.9507
G01 X78.6568 Y50.9444
G01 X78.6509 Y50.9365
G01 X78.6443 Y50.9293
G01 X78.6389 Y50.9243
G01 X78.6282 Y50.9162
G01 X78.6208 Y50.9118
G01 X78.6130 Y50.9081
G01 X78.6026 Y50.9043
G01 X78.5943 Y50.9021
G01 X78.5846 Y50.9006
G01 X78.5761 Y50.9000
G01 X78.4360 Y50.9000
G01 X78.3104 Y50.8750
G01 X78.1921 Y50.8260
G01 X78.0857 Y50.7549
G01 X77.9951 Y50.6643
G01 X77.9240 Y50.5579
G01 X77.8750 Y50.4396
G01 X77.8500 Y50.3140
G01 X77.8500 Y50.1860
G01 X77.8750 Y50.0604
G01 X77.9240 Y49.9421
G01 X77.9951 Y49.8357
G01 X78.0857 Y49.7451
G01 X78.1115 Y49.7275
G01 X78.1224 Y49.7176
G01 X78.1273 Y49.7121
G01 X78.1318 Y49.7062
G01 X78.1382 Y49.6958
G01 X78.1433 Y49.6846
G01 X78.1457 Y49.6777
G01 X78.1478 Y49.6694
G01 X78.1495 Y49.6585
G01 X78.1500 Y49.6487
G01 X78.1500 Y49.1921
G01 X78.1496 Y49.1835
G01 X78.1483 Y49.1700
G01 X78.1551 Y49.1014
G01 X78.1751 Y49.0354
G01 X78.2076 Y48.9746
G01 X78.2513 Y48.9213
G01 X78.2618 Y48.9127
G01 X78.2682 Y48.9069
G01 X81.5424 Y45.6326
G01 X81.5498 Y45.6244
G01 X81.5549 Y45.6175
G01 X81.5599 Y45.6091
G01 X81.5641 Y45.6002
G01 X81.5678 Y45.5898
G01 X81.5698 Y45.5814
G01 X81.5713 Y45.5705
G01 X81.5717 Y45.5607
G01 X81.5709 Y45.5497
G01 X81.5698 Y45.5424
G01 X81.5681 Y45.5352
G01 X81.5650 Y45.5259
G01 X81.5385 Y45.4617
G01 X81.5000 Y45.2685
G01 X81.5000 Y45.0715
G01 X81.5385 Y44.8783
G01 X81.6138 Y44.6963
G01 X81.7233 Y44.5326
G01 X81.8626 Y44.3933
G01 X82.0263 Y44.2838
G01 X82.2083 Y44.2085
G01 X82.4015 Y44.1700
G01 X82.5985 Y44.1700
G01 X82.7917 Y44.2085
G01 X82.9737 Y44.2838
G01 X83.1374 Y44.3933
G01 X83.2767 Y44.5326
G01 X83.3862 Y44.6963
G01 X83.4615 Y44.8783
G01 X83.5000 Y45.0715
G01 X83.5000 Y45.2685
G01 X83.4615 Y45.4617
G01 X83.3862 Y45.6437
G01 X83.2767 Y45.8074
G01 X83.1374 Y45.9467
G01 X82.9737 Y46.0562
G01 X82.7917 Y46.1315
G01 X82.5985 Y46.1700
G01 X82.4015 Y46.1700
G01 X82.2083 Y46.1315
G01 X82.1441 Y46.1050
G01 X82.1371 Y46.1026
G01 X82.1300 Y46.1007
G01 X82.1191 Y46.0989
G01 X82.1081 Y46.0983
G01 X82.0983 Y46.0988
G01 X82.0886 Y46.1002
G01 X82.0791 Y46.1026
G01 X82.0698 Y46.1059
G01 X82.0609 Y46.1101
G01 X82.0525 Y46.1151
G01 X82.0437 Y46.1218
G01 X82.0374 Y46.1276
G01 X78.8793 Y49.2857
G01 X78.8743 Y49.2911
G01 X78.8662 Y49.3019
G01 X78.8618 Y49.3092
G01 X78.8576 Y49.3181
G01 X78.8543 Y49.3274
G01 X78.8524 Y49.3345
G01 X78.8504 Y49.3478
G01 X78.8500 Y49.3564
G01 X78.8500 Y49.6487
G01 X78.8503 Y49.6560
G01 X78.8522 Y49.6694
G01 X78.8543 Y49.6777
G01 X78.8571 Y49.6858
G01 X78.8630 Y49.6979
G01 X78.8668 Y49.7042
G01 X78.8719 Y49.7112
G01 X78.8793 Y49.7194
G01 X78.8865 Y49.7260
G01 X78.8934 Y49.7311
G01 X78.9143 Y49.7451
G01 X79.0049 Y49.8357
G01 X79.0760 Y49.9421
G01 X79.1250 Y50.0604
G01 X79.1500 Y50.1860
G01 X79.1500 Y50.3236
G01 X79.1504 Y50.3322
G01 X79.1519 Y50.3431
G01 X79.1543 Y50.3526
G01 X79.1581 Y50.3630
G01 X79.1630 Y50.3729
G01 X79.1675 Y50.3802
G01 X79.1735 Y50.3880
G01 X79.1793 Y50.3943
G01 X79.1875 Y50.4017
G01 X79.1944 Y50.4068
G01 X79.2028 Y50.4118
G01 X79.2117 Y50.4160
G01 X79.2221 Y50.4197
G01 X79.2305 Y50.4217
G01 X79.2402 Y50.4231
G01 X79.2500 Y50.4236
G01 X79.2610 Y50.4230
G01 X79.2695 Y50.4217
G01 X79.2802 Y50.4190
G01 X79.2894 Y50.4155
G01 X79.2993 Y50.4106
G01 X79.3056 Y50.4068
G01 X79.3115 Y50.4024
G01 X79.3207 Y50.3943
G01 X81.5424 Y48.1726
G01 X81.5490 Y48.1654
G01 X81.5535 Y48.1595
G01 X81.5610 Y48.1469
G01 X81.5646 Y48.1390
G01 X81.5678 Y48.1298
G01 X81.5698 Y48.1214
G01 X81.5712 Y48.1117
G01 X81.5717 Y48.1019
G01 X81.5712 Y48.0921
G01 X81.5693 Y48.0800
G01 X81.5674 Y48.0729
G01 X81.5650 Y48.0659
G01 X81.5385 Y48.0017
G01 X81.5000 Y47.8085
G01 X81.5000 Y47.6115
G01 X81.5385 Y47.4183
G01 X81.6138 Y47.2363
G01 X81.7233 Y47.0726
G01 X81.8626 Y46.9333
G01 X82.0263 Y46.8238
G01 X82.2083 Y46.7485
G01 X82.4015 Y46.7100
G01 X82.5985 Y46.7100
G01 X82.7917 Y46.7485
G01 X82.9737 Y46.8238
G01 X83.1374 Y46.9333
G01 X83.2767 Y47.0726
G01 X83.3862 Y47.2363
G01 X83.4615 Y47.4183
G01 X83.5000 Y47.6115
G01 X83.5000 Y47.8085
G01 X83.4615 Y48.0017
G01 X83.3862 Y48.1837
G01 X83.2767 Y48.3474
G01 X83.1374 Y48.4867
G01 X82.9737 Y48.5962
G01 X82.7917 Y48.6715
G01 X82.5985 Y48.7100
G01 X82.4015 Y48.7100
G01 X82.2083 Y48.6715
G01 X82.1452 Y48.6454
G01 X82.1371 Y48.6426
G01 X82.1264 Y48.6400
G01 X82.1179 Y48.6388
G01 X82.1081 Y48.6383
G01 X82.0983 Y48.6388
G01 X82.0910 Y48.6398
G01 X82.0779 Y48.6430
G01 X82.0698 Y48.6459
G01 X82.0609 Y48.6501
G01 X82.0525 Y48.6551
G01 X82.0466 Y48.6595
G01 X82.0374 Y48.6676
G01 X81.6269 Y49.0781
G01 X81.6219 Y49.0835
G01 X81.6151 Y49.0922
G01 X81.6094 Y49.1016
G01 X81.6052 Y49.1105
G01 X81.6015 Y49.1209
G01 X81.5993 Y49.1305
G01 X81.5979 Y49.1414
G01 X81.5976 Y49.1488
G01 X81.5979 Y49.1561
G01 X81.5991 Y49.1659
G01 X81.6023 Y49.1790
G01 X81.6052 Y49.1871
G01 X81.6094 Y49.1959
G01 X81.6144 Y49.2044
G01 X81.6195 Y49.2113
G01 X81.6287 Y49.2212
G01 X81.6341 Y49.2261
G01 X81.6420 Y49.2320
G01 X81.6505 Y49.2370
G01 X81.6582 Y49.2407
G01 X81.6674 Y49.2441
G01 X81.6757 Y49.2464
G01 X81.6890 Y49.2484
G01 X81.6976 Y49.2488
G01 X83.3451 Y49.2488
G01 X83.3794 Y49.2522
G01 X83.4077 Y49.2608
G01 X83.4337 Y49.2747
G01 X83.4566 Y49.2934
G01 X83.4753 Y49.3163
G01 X83.4892 Y49.3423
G01 X83.4978 Y49.3706
G01 X83.5012 Y49.4049
G01 X83.5012 Y51.0951
G01 X83.4978 Y51.1294
G01 X83.4892 Y51.1577
G01 X83.4753 Y51.1837
G01 X83.4566 Y51.2066
G01 X83.4337 Y51.2253
G01 X83.4077 Y51.2392
G01 X83.3794 Y51.2478
G01 X83.3451 Y51.2512
G01 X82.9500 Y51.2512
G01 X82.9414 Y51.2516
G01 X82.9317 Y51.2529
G01 X82.9233 Y51.2548
G01 X82.9095 Y51.2598
G01 X82.9028 Y51.2630
G01 X82.8944 Y51.2680
G01 X82.8865 Y51.2739
G01 X82.8802 Y51.2796
G01 X82.8735 Y51.2868
G01 X82.8682 Y51.2936
G01 X82.8607 Y51.3062
G01 X82.8576 Y51.3129
G01 X82.8543 Y51.3222
G01 X82.8519 Y51.3317
G01 X82.8506 Y51.3402
G01 X82.8500 Y51.3512
G01 X82.8500 Y51.4779
G01 X82.8504 Y51.4865
G01 X82.8517 Y51.5000
G01 X82.8449 Y51.5686
G01 X82.8249 Y51.6346
G01 X82.7924 Y51.6954
G01 X82.7487 Y51.7487
G01 X82.7382 Y51.7573
G01 X82.7318 Y51.7631
G01 X81.0131 Y53.4818
G01 X81.0073 Y53.4882
G01 X80.9987 Y53.4987
G01 X80.9454 Y53.5424
G01 X80.8846 Y53.5749
G01 X80.8186 Y53.5949
G01 X80.7500 Y53.6017
G01 X80.7365 Y53.6003
G01 X80.7279 Y53.6000
G01 X79.1013 Y53.6000
G01 X79.0915 Y53.6004
G01 X79.0842 Y53.6015
G01 X79.0723 Y53.6043
G01 X79.0619 Y53.6081
G01 X79.0542 Y53.6118
G01 X79.0478 Y53.6155
G01 X79.0379 Y53.6227
G01 X79.0306 Y53.6293
G01 X79.0233 Y53.6375
G01 X79.0182 Y53.6444
G01 X79.0049 Y53.6643
G01 X78.9143 Y53.7549
G01 X78.8079 Y53.8260
G01 X78.6896 Y53.8750
G01 X78.5640 Y53.9000
G01 X78.4360 Y53.9000
G01 X78.3104 Y53.8750
G01 X78.1921 Y53.8260
G01 X78.0857 Y53.7549
G01 X77.9951 Y53.6643
G01 X77.9240 Y53.5579
G01 X77.8750 Y53.4396
G01 X77.8500 Y53.3140
G01 X77.8500 Y53.1860
G01 X77.8750 Y53.0604
G01 X77.9240 Y52.9421
G01 X77.9951 Y52.8357
G01 X78.0857 Y52.7451
G01 X78.1921 Y52.6740
G01 X78.3104 Y52.6250
G01 X78.4480 Y52.5976
G01 X78.4551 Y52.5957
G01 X78.4644 Y52.5924
G01 X78.4733 Y52.5882
G01 X78.4806 Y52.5838
G01 X78.4896 Y52.5773
G01 X78.4985 Y52.5689
G01 X78.5034 Y52.5635
G01 X78.5079 Y52.5576
G01 X78.5143 Y52.5471
G01 X78.5194 Y52.5360
G01 X78.5218 Y52.5290
G01 X78.5237 Y52.5219
G01 X78.5256 Y52.5098
G01 X78.5261 Y52.4988
G01 X78.5253 Y52.4878
G01 X78.5242 Y52.4805
G01 X78.5225 Y52.4733
G01 X78.5190 Y52.4629
G01 X78.5143 Y52.4528
G01 X78.5079 Y52.4424
G01 X78.5034 Y52.4365
G01 X78.4985 Y52.4310
G01 X78.4896 Y52.4227
G01 X78.4806 Y52.4162
G01 X78.4733 Y52.4118
G01 X78.4644 Y52.4076
G01 X78.4551 Y52.4043
G01 X78.4480 Y52.4024
G01 X78.3104 Y52.3750
G01 X78.1921 Y52.3260
G01 X78.0857 Y52.2549
G01 X77.9951 Y52.1643
G01 X77.9240 Y52.0579
G01 X77.8750 Y51.9396
G01 X77.8500 Y51.8140
G00 Z1.0000
G00 X78.9895 Y53.5001
G01 F400.00
G01 Z-0.0400
G01 F2500.00
G01 X78.9845 Y53.5103
G01 X78.9573 Y53.5556
G01 X78.9252 Y53.5989
G01 X78.8889 Y53.6389
G01 X78.8489 Y53.6751
G01 X78.8056 Y53.7073
G01 X78.7593 Y53.7350
G01 X78.7105 Y53.7581
G01 X78.6597 Y53.7763
G01 X78.6073 Y53.7894
G01 X78.5539 Y53.7973
G01 X78.5000 Y53.8000
G01 X78.4461 Y53.7973
G01 X78.3927 Y53.7894
G01 X78.3403 Y53.7763
G01 X78.2895 Y53.7581
G01 X78.2407 Y53.7350
G01 X78.1944 Y53.7073
G01 X78.1511 Y53.6751
G01 X78.1111 Y53.6389
G01 X78.0748 Y53.5989
G01 X78.0427 Y53.5556
G01 X78.0149 Y53.5093
G01 X77.9919 Y53.4605
G01 X77.9737 Y53.4096
G01 X77.9606 Y53.3573
G01 X77.9526 Y53.3039
G01 X77.9500 Y53.2500
G01 X77.9526 Y53.1961
G01 X77.9606 Y53.1427
G01 X77.9737 Y53.0903
G01 X77.9919 Y53.0395
G01 X78.0149 Y52.9907
G01 X78.0427 Y52.9444
G01 X78.0733 Y52.9030
G01 X78.1111 Y52.8611
G01 X78.1530 Y52.8233
G01 X78.1944 Y52.7927
G01 X78.2386 Y52.7661
G01 X78.2895 Y52.7419
G01 X78.3427 Y52.7230
G01 X78.3927 Y52.7106
G01 X78.4437 Y52.7029
G01 X78.5000 Y52.7000
G01 X78.5563 Y52.7029
G01 X78.6073 Y52.7106
G01 X78.6597 Y52.7237
G01 X78.7127 Y52.7429
G01 X78.7593 Y52.7649
G01 X78.8035 Y52.7914
G01 X78.8508 Y52.8264
G01 X78.8889 Y52.8611
G01 X78.9236 Y52.8992
G01 X78.9573 Y52.9444
G01 X78.9845 Y52.9896
G01 X78.9895 Y52.9999
G01 X80.6464 Y52.9999
G01 X82.2499 Y51.3964
G01 X82.2499 Y51.1500
G01 X81.6475 Y51.1499
G01 X81.6402 Y51.1490
G01 X81.6332 Y51.1471
G01 X81.6264 Y51.1441
G01 X81.6192 Y51.1394
G01 X81.6138 Y51.1345
G01 X81.6091 Y51.1288
G01 X81.6053 Y51.1225
G01 X81.6022 Y51.1145
G01 X81.6005 Y51.1073
G01 X81.6000 Y51.1000
G01 X81.6000 Y49.4000
G01 X81.6010 Y49.3902
G01 X81.6038 Y49.3809
G01 X81.6084 Y49.3722
G01 X81.6121 Y49.3673
G01 X81.6155 Y49.3638
G01 X81.6233 Y49.3578
G01 X81.6320 Y49.3534
G01 X81.6415 Y49.3507
G01 X81.6500 Y49.3500
G01 X83.3500 Y49.3500
G01 X83.3598 Y49.3510
G01 X83.3691 Y49.3538
G01 X83.3736 Y49.3559
G01 X83.3788 Y49.3591
G01 X83.3862 Y49.3655
G01 X83.3922 Y49.3733
G01 X83.3962 Y49.3809
G01 X83.3990 Y49.3902
G01 X83.4000 Y49.4000
G01 X83.4000 Y51.1000
G01 X83.3996 Y51.1061
G01 X83.3988 Y51.1110
G01 X83.3957 Y51.1203
G01 X83.3909 Y51.1288
G01 X83.3845 Y51.1362
G01 X83.3778 Y51.1416
G01 X83.3691 Y51.1462
G01 X83.3598 Y51.1490
G01 X83.3512 Y51.1500
G01 X82.7501 Y51.1500
G01 X82.7501 Y51.5000
G01 X82.7488 Y51.5257
G01 X82.7453 Y51.5488
G01 X82.7400 Y51.5702
G01 X82.7311 Y51.5957
G01 X82.7194 Y51.6200
G01 X82.7080 Y51.6389
G01 X82.6933 Y51.6587
G01 X82.6768 Y51.6768
G01 X80.9269 Y53.4268
G01 X80.9067 Y53.4448
G01 X80.8890 Y53.4579
G01 X80.8679 Y53.4706
G01 X80.8457 Y53.4811
G01 X80.8202 Y53.4900
G01 X80.7988 Y53.4953
G01 X80.7770 Y53.4986
G01 X80.7512 Y53.5001
G01 X78.9895 Y53.5001
G00 Z1.0000
G00 X79.7425 Y54.3501
G01 F400.00
G01 Z-0.0400
G01 F2500.00
G01 X79.8282 Y54.3543
G01 X79.9156 Y54.3673
G01 X80.0013 Y54.3888
G01 X80.0844 Y54.4185
G01 X80.1643 Y54.4563
G01 X80.2400 Y54.5017
G01 X80.3110 Y54.5543
G01 X80.3764 Y54.6136
G01 X80.4357 Y54.6790
G01 X80.4883 Y54.7500
G01 X80.5337 Y54.8257
G01 X80.5715 Y54.9056
G01 X80.6012 Y54.9887
G01 X80.6227 Y55.0744
G01 X80.6357 Y55.1618
G01 X80.6400 Y55.2500
G01 X80.6357 Y55.3382
G01 X80.6227 Y55.4256
G01 X80.6012 Y55.5113
G01 X80.5715 Y55.5944
G01 X80.5337 Y55.6743
G01 X80.4883 Y55.7500
G01 X80.4357 Y55.8210
G01 X80.3764 Y55.8864
G01 X80.3110 Y55.9457
G01 X80.2400 Y55.9983
G01 X80.1643 Y56.0437
G01 X80.0844 Y56.0815
G01 X80.0013 Y56.1112
G01 X79.9156 Y56.1327
G01 X79.8282 Y56.1457
G01 X79.7400 Y56.1500
G01 X79.6518 Y56.1457
G01 X79.5644 Y56.1327
G01 X79.4787 Y56.1112
G01 X79.3956 Y56.0815
G01 X79.3157 Y56.0437
G01 X79.2400 Y55.9983
G01 X79.1690 Y55.9457
G01 X79.1036 Y55.8864
G01 X79.0443 Y55.8210
G01 X78.9917 Y55.7500
G01 X78.9463 Y55.6743
G01 X78.9085 Y55.5944
G01 X78.8788 Y55.5113
G01 X78.8573 Y55.4256
G01 X78.8443 Y55.3382
G01 X78.8400 Y55.2500
G01 X78.8443 Y55.1618
G01 X78.8573 Y55.0744
G01 X78.8788 Y54.9887
G01 X78.9085 Y54.9056
G01 X78.9463 Y54.8257
G01 X78.9917 Y54.7500
G01 X79.0443 Y54.6790
G01 X79.1036 Y54.6136
G01 X79.1690 Y54.5543
G01 X79.2400 Y54.5017
G01 X79.3157 Y54.4563
G01 X79.3956 Y54.4185
G01 X79.4787 Y54.3888
G01 X79.5644 Y54.3673
G01 X79.6518 Y54.3543
G01 X79.7425 Y54.3501
G00 Z1.0000
G00 X80.7400 Y55.3485
G01 F400.00
G01 Z-0.0400
G01 F2500.00
G01 X80.7015 Y55.5417
G01 X80.6262 Y55.7237
G01 X80.5167 Y55.8874
G01 X80.3774 Y56.0267
G01 X80.2137 Y56.1362
G01 X80.0317 Y56.2115
G01 X79.8385 Y56.2500
G01 X79.6415 Y56.2500
G01 X79.4483 Y56.2115
G01 X79.2663 Y56.1362
G01 X79.1026 Y56.0267
G01 X78.9633 Y55.8874
G01 X78.8538 Y55.7237
G01 X78.7785 Y55.5417
G01 X78.7400 Y55.3485
G01 X78.7400 Y55.1515
G01 X78.7785 Y54.9583
G01 X78.8538 Y54.7763
G01 X78.9633 Y54.6126
G01 X79.1026 Y54.4733
G01 X79.2663 Y54.3638
G01 X79.4483 Y54.2885
G01 X79.6415 Y54.2500
G01 X79.8385 Y54.2500
G01 X80.0317 Y54.2885
G01 X80.2137 Y54.3638
G01 X80.3774 Y54.4733
G01 X80.5167 Y54.6126
G01 X80.6262 Y54.7763
G01 X80.7015 Y54.9583
G01 X80.7400 Y55.1515
G01 X80.7400 Y55.3485
G00 Z1.0000
G00 X81.2800 Y55.3485
G01 F400.00
G01 Z-0.0400
G01 F2500.00
G01 X81.2800 Y55.1515
G01 X81.3185 Y54.9583
G01 X81.3938 Y54.7763
G01 X81.5033 Y54.6126
G01 X81.6426 Y54.4733
G01 X81.8063 Y54.3638
G01 X81.9883 Y54.2885
G01 X82.1815 Y54.2500
G01 X82.3785 Y54.2500
G01 X82.5717 Y54.2885
G01 X82.7537 Y54.3638
G01 X82.9174 Y54.4733
G01 X83.0567 Y54.6126
G01 X83.1662 Y54.7763
G01 X83.2415 Y54.9583
G01 X83.2800 Y55.1515
G01 X83.2800 Y55.3485
G01 X83.2415 Y55.5417
G01 X83.1662 Y55.7237
G01 X83.0567 Y55.8874
G01 X82.9174 Y56.0267
G01 X82.7537 Y56.1362
G01 X82.5717 Y56.2115
G01 X82.3785 Y56.2500
G01 X82.1815 Y56.2500
G01 X81.9883 Y56.2115
G01 X81.8063 Y56.1362
G01 X81.6426 Y56.0267
G01 X81.5033 Y55.8874
G01 X81.3938 Y55.7237
G01 X81.3185 Y55.5417
G01 X81.2800 Y55.3485
G00 Z1.0000
G00 X82.2825 Y54.3501
G01 F400.00
G01 Z-0.0400
G01 F2500.00
G01 X82.3682 Y54.3543
G01 X82.4556 Y54.3673
G01 X82.5413 Y54.3888
G01 X82.6244 Y54.4185
G01 X82.7043 Y54.4563
G01 X82.7800 Y54.5017
G01 X82.8510 Y54.5543
G01 X82.9164 Y54.6136
G01 X82.9757 Y54.6790
G01 X83.0283 Y54.7500
G01 X83.0737 Y54.8257
G01 X83.1115 Y54.9056
G01 X83.1412 Y54.9887
G01 X83.1627 Y55.0744
G01 X83.1757 Y55.1618
G01 X83.1800 Y55.2500
G01 X83.1757 Y55.3382
G01 X83.1627 Y55.4256
G01 X83.1412 Y55.5113
G01 X83.1115 Y55.5944
G01 X83.0737 Y55.6743
G01 X83.0283 Y55.7500
G01 X82.9757 Y55.8210
G01 X82.9164 Y55.8864
G01 X82.8510 Y55.9457
G01 X82.7800 Y55.9983
G01 X82.7043 Y56.0437
G01 X82.6244 Y56.0815
G01 X82.5413 Y56.1112
G01 X82.4556 Y56.1327
G01 X82.3682 Y56.1457
G01 X82.2800 Y56.1500
G01 X82.1918 Y56.1457
G01 X82.1044 Y56.1327
G01 X82.0187 Y56.1112
G01 X81.9356 Y56.0815
G01 X81.8557 Y56.0437
G01 X81.7800 Y55.9983
G01 X81.7090 Y55.9457
G01 X81.6436 Y55.8864
G01 X81.5843 Y55.8210
G01 X81.5317 Y55.7500
G01 X81.4863 Y55.6743
G01 X81.4485 Y55.5944
G01 X81.4188 Y55.5113
G01 X81.3973 Y55.4256
G01 X81.3843 Y55.3382
G01 X81.3800 Y55.2500
G01 X81.3843 Y55.1618
G01 X81.3973 Y55.0744
G01 X81.4188 Y54.9887
G01 X81.4485 Y54.9056
G01 X81.4863 Y54.8257
G01 X81.5317 Y54.7500
G01 X81.5843 Y54.6790
G01 X81.6436 Y54.6136
G01 X81.7090 Y54.5543
G01 X81.7800 Y54.5017
G01 X81.8557 Y54.4563
G01 X81.9356 Y54.4185
G01 X82.0187 Y54.3888
G01 X82.1044 Y54.3673
G01 X82.1918 Y54.3543
G01 X82.2825 Y54.3501
G00 Z1.0000
G00 X78.2000 Y55.3485
G01 F400.00
G01 Z-0.0400
G01 F2500.00
G01 X78.1615 Y55.5417
G01 X78.0862 Y55.7237
G01 X77.9767 Y55.8874
G01 X77.8374 Y56.0267
G01 X77.6737 Y56.1362
G01 X77.4917 Y56.2115
G01 X77.2985 Y56.2500
G01 X77.1015 Y56.2500
G01 X76.9083 Y56.2115
G01 X76.7263 Y56.1362
G01 X76.5626 Y56.0267
G01 X76.4233 Y55.8874
G01 X76.3138 Y55.7237
G01 X76.2385 Y55.5417
G01 X76.2000 Y55.3485
G01 X76.2000 Y55.1515
G01 X76.2385 Y54.9583
G01 X76.3138 Y54.7763
G01 X76.4233 Y54.6126
G01 X76.5626 Y54.4733
G01 X76.7263 Y54.3638
G01 X76.9083 Y54.2885
G01 X77.1015 Y54.2500
G01 X77.2985 Y54.2500
G01 X77.4917 Y54.2885
G01 X77.6737 Y54.3638
G01 X77.8374 Y54.4733
G01 X77.9767 Y54.6126
G01 X78.0862 Y54.7763
G01 X78.1615 Y54.9583
G01 X78.2000 Y55.1515
G01 X78.2000 Y55.3485
G00 Z1.0000
G00 X77.2025 Y54.3501
G01 F400.00
G01 Z-0.0400
G01 F2500.00
G01 X77.2882 Y54.3543
G01 X77.3756 Y54.3673
G01 X77.4613 Y54.3888
G01 X77.5444 Y54.4185
G01 X77.6243 Y54.4563
G01 X77.7000 Y54.5017
G01 X77.7710 Y54.5543
G01 X77.8364 Y54.6136
G01 X77.8957 Y54.6790
G01 X77.9483 Y54.7500
G01 X77.9937 Y54.8257
G01 X78.0315 Y54.9056
G01 X78.0612 Y54.9887
G01 X78.0827 Y55.0744
G01 X78.0957 Y55.1618
G01 X78.1000 Y55.2500
G01 X78.0957 Y55.3382
G01 X78.0827 Y55.4256
G01 X78.0612 Y55.5113
G01 X78.0315 Y55.5944
G01 X77.9937 Y55.6743
G01 X77.9483 Y55.7500
G01 X77.8957 Y55.8210
G01 X77.8364 Y55.8864
G01 X77.7710 Y55.9457
G01 X77.7000 Y55.9983
G01 X77.6243 Y56.0437
G01 X77.5444 Y56.0815
G01 X77.4613 Y56.1112
G01 X77.3756 Y56.1327
G01 X77.2882 Y56.1457
G01 X77.2000 Y56.1500
G01 X77.1118 Y56.1457
G01 X77.0244 Y56.1327
G01 X76.9387 Y56.1112
G01 X76.8556 Y56.0815
G01 X76.7757 Y56.0437
G01 X76.7000 Y55.9983
G01 X76.6290 Y55.9457
G01 X76.5636 Y55.8864
G01 X76.5043 Y55.8210
G01 X76.4517 Y55.7500
G01 X76.4063 Y55.6743
G01 X76.3685 Y55.5944
G01 X76.3388 Y55.5113
G01 X76.3173 Y55.4256
G01 X76.3043 Y55.3382
G01 X76.3000 Y55.2500
G01 X76.3043 Y55.1618
G01 X76.3173 Y55.0744
G01 X76.3388 Y54.9887
G01 X76.3685 Y54.9056
G01 X76.4063 Y54.8257
G01 X76.4517 Y54.7500
G01 X76.5043 Y54.6790
G01 X76.5636 Y54.6136
G01 X76.6290 Y54.5543
G01 X76.7000 Y54.5017
G01 X76.7757 Y54.4563
G01 X76.8556 Y54.4185
G01 X76.9387 Y54.3888
G01 X77.0244 Y54.3673
G01 X77.1118 Y54.3543
G01 X77.2025 Y54.3501
G00 Z1.0000
G00 X75.6600 Y55.3485
G01 F400.00
G01 Z-0.0400
G01 F2500.00
G01 X75.6215 Y55.5417
G01 X75.5462 Y55.7237
G01 X75.4367 Y55.8874
G01 X75.2974 Y56.0267
G01 X75.1337 Y56.1362
G01 X74.9517 Y56.2115
G01 X74.7585 Y56.2500
G01 X74.5615 Y56.2500
G01 X74.3683 Y56.2115
G01 X74.1863 Y56.1362
G01 X74.0226 Y56.0267
G01 X73.8833 Y55.8874
G01 X73.7738 Y55.7237
G01 X73.6985 Y55.5417
G01 X73.6600 Y55.3485
G01 X73.6600 Y55.1515
G01 X73.6985 Y54.9583
G01 X73.7738 Y54.7763
G01 X73.8833 Y54.6126
G01 X74.0226 Y54.4733
G01 X74.1863 Y54.3638
G01 X74.3683 Y54.2885
G01 X74.5615 Y54.2500
G01 X74.7585 Y54.2500
G01 X74.9517 Y54.2885
G01 X75.1337 Y54.3638
G01 X75.2974 Y54.4733
G01 X75.4367 Y54.6126
G01 X75.5462 Y54.7763
G01 X75.6215 Y54.9583
G01 X75.6600 Y55.1515
G01 X75.6600 Y55.3485
G00 Z1.0000
G00 X74.6625 Y54.3501
G01 F400.00
G01 Z-0.0400
G01 F2500.00
G01 X74.7482 Y54.3543
G01 X74.8356 Y54.3673
G01 X74.9213 Y54.3888
G01 X75.0044 Y54.4185
G01 X75.0843 Y54.4563
G01 X75.1600 Y54.5017
G01 X75.2310 Y54.5543
G01 X75.2964 Y54.6136
G01 X75.3557 Y54.6790
G01 X75.4083 Y54.7500
G01 X75.4537 Y54.8257
G01 X75.4915 Y54.9056
G01 X75.5212 Y54.9887
G01 X75.5427 Y55.0744
G01 X75.5557 Y55.1618
G01 X75.5600 Y55.2500
G01 X75.5557 Y55.3382
G01 X75.5427 Y55.4256
G01 X75.5212 Y55.5113
G01 X75.4915 Y55.5944
G01 X75.4537 Y55.6743
G01 X75.4083 Y55.7500
G01 X75.3557 Y55.8210
G01 X75.2964 Y55.8864
G01 X75.2310 Y55.9457
G01 X75.1600 Y55.9983
G01 X75.0843 Y56.0437
G01 X75.0044 Y56.0815
G01 X74.9213 Y56.1112
G01 X74.8356 Y56.1327
G01 X74.7482 Y56.1457
G01 X74.6600 Y56.1500
G01 X74.5718 Y56.1457
G01 X74.4844 Y56.1327
G01 X74.3987 Y56.1112
G01 X74.3156 Y56.0815
G01 X74.2357 Y56.0437
G01 X74.1600 Y55.9983
G01 X74.0890 Y55.9457
G01 X74.0236 Y55.8864
G01 X73.9643 Y55.8210
G01 X73.9117 Y55.7500
G01 X73.8663 Y55.6743
G01 X73.8285 Y55.5944
G01 X73.7988 Y55.5113
G01 X73.7773 Y55.4256
G01 X73.7643 Y55.3382
G01 X73.7600 Y55.2500
G01 X73.7643 Y55.1618
G01 X73.7773 Y55.0744
G01 X73.7988 Y54.9887
G01 X73.8285 Y54.9056
G01 X73.8663 Y54.8257
G01 X73.9117 Y54.7500
G01 X73.9643 Y54.6790
G01 X74.0236 Y54.6136
G01 X74.0890 Y54.5543
G01 X74.1600 Y54.5017
G01 X74.2357 Y54.4563
G01 X74.3156 Y54.4185
G01 X74.3987 Y54.3888
G01 X74.4844 Y54.3673
G01 X74.5718 Y54.3543
G01 X74.6625 Y54.3501
G00 Z1.0000
G00 X73.1200 Y55.3485
G01 F400.00
G01 Z-0.0400
G01 F2500.00
G01 X73.0815 Y55.5417
G01 X73.0062 Y55.7237
G01 X72.8967 Y55.8874
G01 X72.7574 Y56.0267
G01 X72.5937 Y56.1362
G01 X72.4117 Y56.2115
G01 X72.2185 Y56.2500
G01 X72.0215 Y56.2500
G01 X71.8283 Y56.2115
G01 X71.6463 Y56.1362
G01 X71.4826 Y56.0267
G01 X71.3433 Y55.8874
G01 X71.2338 Y55.7237
G01 X71.1585 Y55.5417
G01 X71.1200 Y55.3485
G01 X71.1200 Y55.1515
G01 X71.1585 Y54.9583
G01 X71.2338 Y54.7763
G01 X71.3433 Y54.6126
G01 X71.4826 Y54.4733
G01 X71.6463 Y54.3638
G01 X71.8283 Y54.2885
G01 X72.0215 Y54.2500
G01 X72.2185 Y54.2500
G01 X72.4117 Y54.2885
G01 X72.5937 Y54.3638
G01 X72.7574 Y54.4733
G01 X72.8967 Y54.6126
G01 X73.0062 Y54.7763
G01 X73.0815 Y54.9583
G01 X73.1200 Y55.1515
G01 X73.1200 Y55.3485
G00 Z1.0000
G00 X72.1225 Y54.3501
G01 F400.00
G01 Z-0.0400
G01 F2500.00
G01 X72.2082 Y54.3543
G01 X72.2956 Y54.3673
G01 X72.3813 Y54.3888
G01 X72.4644 Y54.4185
G01 X72.5443 Y54.4563
G01 X72.6200 Y54.5017
G01 X72.6910 Y54.5543
G01 X72.7564 Y54.6136
G01 X72.8157 Y54.6790
G01 X72.8683 Y54.7500
G01 X72.9137 Y54.8257
G01 X72.9515 Y54.9056
G01 X72.9812 Y54.9887
G01 X73.0027 Y55.0744
G01 X73.0157 Y55.1618
G01 X73.0200 Y55.2500
G01 X73.0157 Y55.3382
G01 X73.0027 Y55.4256
G01 X72.9812 Y55.5113
G01 X72.9515 Y55.5944
G01 X72.9137 Y55.6743
G01 X72.8683 Y55.7500
G01 X72.8157 Y55.8210
G01 X72.7564 Y55.8864
G01 X72.6910 Y55.9457
G01 X72.6200 Y55.9983
G01 X72.5443 Y56.0437
G01 X72.4644 Y56.0815
G01 X72.3813 Y56.1112
G01 X72.2956 Y56.1327
G01 X72.2082 Y56.1457
G01 X72.1200 Y56.1500
G01 X72.0318 Y56.1457
G01 X71.9444 Y56.1327
G01 X71.8587 Y56.1112
G01 X71.7756 Y56.0815
G01 X71.6957 Y56.0437
G01 X71.6200 Y55.9983
G01 X71.5490 Y55.9457
G01 X71.4836 Y55.8864
G01 X71.4243 Y55.8210
G01 X71.3717 Y55.7500
G01 X71.3263 Y55.6743
G01 X71.2885 Y55.5944
G01 X71.2588 Y55.5113
G01 X71.2373 Y55.4256
G01 X71.2243 Y55.3382
G01 X71.2200 Y55.2500
G01 X71.2243 Y55.1618
G01 X71.2373 Y55.0744
G01 X71.2588 Y54.9887
G01 X71.2885 Y54.9056
G01 X71.3263 Y54.8257
G01 X71.3717 Y54.7500
G01 X71.4243 Y54.6790
G01 X71.4836 Y54.6136
G01 X71.5490 Y54.5543
G01 X71.6200 Y54.5017
G01 X71.6957 Y54.4563
G01 X71.7756 Y54.4185
G01 X71.8587 Y54.3888
G01 X71.9444 Y54.3673
G01 X72.0318 Y54.3543
G01 X72.1225 Y54.3501
G00 Z1.0000
G00 X70.5800 Y55.3485
G01 F400.00
G01 Z-0.0400
G01 F2500.00
G01 X70.5415 Y55.5417
G01 X70.4662 Y55.7237
G01 X70.3567 Y55.8874
G01 X70.2174 Y56.0267
G01 X70.0537 Y56.1362
G01 X69.8717 Y56.2115
G01 X69.6785 Y56.2500
G01 X69.4815 Y56.2500
G01 X69.2883 Y56.2115
G01 X69.1063 Y56.1362
G01 X68.9426 Y56.0267
G01 X68.8033 Y55.8874
G01 X68.6938 Y55.7237
G01 X68.6185 Y55.5417
G01 X68.5800 Y55.3485
G01 X68.5800 Y55.1515
G01 X68.6185 Y54.9583
G01 X68.6938 Y54.7763
G01 X68.8033 Y54.6126
G01 X68.9426 Y54.4733
G01 X69.1063 Y54.3638
G01 X69.2883 Y54.2885
G01 X69.4815 Y54.2500
G01 X69.6785 Y54.2500
G01 X69.8717 Y54.2885
G01 X70.0537 Y54.3638
G01 X70.2174 Y54.4733
G01 X70.3567 Y54.6126
G01 X70.4662 Y54.7763
G01 X70.5415 Y54.9583
G01 X70.5800 Y55.1515
G01 X70.5800 Y55.3485
G00 Z1.0000
G00 X69.5825 Y54.3501
G01 F400.00
G01 Z-0.0400
G01 F2500.00
G01 X69.6682 Y54.3543
G01 X69.7556 Y54.3673
G01 X69.8413 Y54.3888
G01 X69.9244 Y54.4185
G01 X70.0043 Y54.4563
G01 X70.0800 Y54.5017
G01 X70.1510 Y54.5543
G01 X70.2164 Y54.6136
G01 X70.2757 Y54.6790
G01 X70.3283 Y54.7500
G01 X70.3737 Y54.8257
G01 X70.4115 Y54.9056
G01 X70.4412 Y54.9887
G01 X70.4627 Y55.0744
G01 X70.4757 Y55.1618
G01 X70.4800 Y55.2500
G01 X70.4757 Y55.3382
G01 X70.4627 Y55.4256
G01 X70.4412 Y55.5113
G01 X70.4115 Y55.5944
G01 X70.3737 Y55.6743
G01 X70.3283 Y55.7500
G01 X70.2757 Y55.8210
G01 X70.2164 Y55.8864
G01 X70.1510 Y55.9457
G01 X70.0800 Y55.9983
G01 X70.0043 Y56.0437
G01 X69.9244 Y56.0815
G01 X69.8413 Y56.1112
G01 X69.7556 Y56.1327
G01 X69.6682 Y56.1457
G01 X69.5800 Y56.1500
G01 X69.4918 Y56.1457
G01 X69.4044 Y56.1327
G01 X69.3187 Y56.1112
G01 X69.2356 Y56.0815
G01 X69.1557 Y56.0437
G01 X69.0800 Y55.9983
G01 X69.0090 Y55.9457
G01 X68.9436 Y55.8864
G01 X68.8843 Y55.8210
G01 X68.8317 Y55.7500
G01 X68.7863 Y55.6743
G01 X68.7485 Y55.5944
G01 X68.7188 Y55.5113
G01 X68.6973 Y55.4256
G01 X68.6843 Y55.3382
G01 X68.6800 Y55.2500
G01 X68.6843 Y55.1618
G01 X68.6973 Y55.0744
G01 X68.7188 Y54.9887
G01 X68.7485 Y54.9056
G01 X68.7863 Y54.8257
G01 X68.8317 Y54.7500
G01 X68.8843 Y54.6790
G01 X68.9436 Y54.6136
G01 X69.0090 Y54.5543
G01 X69.0800 Y54.5017
G01 X69.1557 Y54.4563
G01 X69.2356 Y54.4185
G01 X69.3187 Y54.3888
G01 X69.4044 Y54.3673
G01 X69.4918 Y54.3543
G01 X69.5825 Y54.3501
G00 Z1.0000
G00 X68.0400 Y55.3485
G01 F400.00
G01 Z-0.0400
G01 F2500.00
G01 X68.0015 Y55.5417
G01 X67.9262 Y55.7237
G01 X67.8167 Y55.8874
G01 X67.6774 Y56.0267
G01 X67.5137 Y56.1362
G01 X67.3317 Y56.2115
G01 X67.1385 Y56.2500
G01 X66.9415 Y56.2500
G01 X66.7483 Y56.2115
G01 X66.5663 Y56.1362
G01 X66.4026 Y56.0267
G01 X66.2633 Y55.8874
G01 X66.1538 Y55.7237
G01 X66.0785 Y55.5417
G01 X66.0400 Y55.3485
G01 X66.0400 Y55.1515
G01 X66.0785 Y54.9583
G01 X66.1538 Y54.7763
G01 X66.2633 Y54.6126
G01 X66.4026 Y54.4733
G01 X66.5663 Y54.3638
G01 X66.7483 Y54.2885
G01 X66.9415 Y54.2500
G01 X67.1385 Y54.2500
G01 X67.3317 Y54.2885
G01 X67.5137 Y54.3638
G01 X67.6774 Y54.4733
G01 X67.8167 Y54.6126
G01 X67.9262 Y54.7763
G01 X68.0015 Y54.9583
G01 X68.0400 Y55.1515
G01 X68.0400 Y55.3485
G00 Z1.0000
G00 X67.0425 Y54.3501
G01 F400.00
G01 Z-0.0400
G01 F2500.00
G01 X67.1282 Y54.3543
G01 X67.2156 Y54.3673
G01 X67.3013 Y54.3888
G01 X67.3844 Y54.4185
G01 X67.4643 Y54.4563
G01 X67.5400 Y54.5017
G01 X67.6110 Y54.5543
G01 X67.6764 Y54.6136
G01 X67.7357 Y54.6790
G01 X67.7883 Y54.7500
G01 X67.8337 Y54.8257
G01 X67.8715 Y54.9056
G01 X67.9012 Y54.9887
G01 X67.9227 Y55.0744
G01 X67.9357 Y55.1618
G01 X67.9400 Y55.2500
G01 X67.9357 Y55.3382
G01 X67.9227 Y55.4256
G01 X67.9012 Y55.5113
G01 X67.8715 Y55.5944
G01 X67.8337 Y55.6743
G01 X67.7883 Y55.7500
G01 X67.7357 Y55.8210
G01 X67.6764 Y55.8864
G01 X67.6110 Y55.9457
G01 X67.5400 Y55.9983
G01 X67.4643 Y56.0437
G01 X67.3844 Y56.0815
G01 X67.3013 Y56.1112
G01 X67.2156 Y56.1327
G01 X67.1282 Y56.1457
G01 X67.0400 Y56.1500
G01 X66.9518 Y56.1457
G01 X66.8644 Y56.1327
G01 X66.7787 Y56.1112
G01 X66.6956 Y56.0815
G01 X66.6157 Y56.0437
G01 X66.5400 Y55.9983
G01 X66.4690 Y55.9457
G01 X66.4036 Y55.8864
G01 X66.3443 Y55.8210
G01 X66.2917 Y55.7500
G01 X66.2463 Y55.6743
G01 X66.2085 Y55.5944
G01 X66.1788 Y55.5113
G01 X66.1573 Y55.4256
G01 X66.1443 Y55.3382
G01 X66.1400 Y55.2500
G01 X66.1443 Y55.1618
G01 X66.1573 Y55.0744
G01 X66.1788 Y54.9887
G01 X66.2085 Y54.9056
G01 X66.2463 Y54.8257
G01 X66.2917 Y54.7500
G01 X66.3443 Y54.6790
G01 X66.4036 Y54.6136
G01 X66.4690 Y54.5543
G01 X66.5400 Y54.5017
G01 X66.6157 Y54.4563
G01 X66.6956 Y54.4185
G01 X66.7787 Y54.3888
G01 X66.8644 Y54.3673
G01 X66.9518 Y54.3543
G01 X67.0425 Y54.3501
G00 Z1.0000
G00 X65.5012 Y56.0951
G01 F400.00
G01 Z-0.0400
G01 F2500.00
G01 X65.4978 Y56.1294
G01 X65.4892 Y56.1577
G01 X65.4753 Y56.1837
G01 X65.4566 Y56.2066
G01 X65.4337 Y56.2253
G01 X65.4077 Y56.2392
G01 X65.3794 Y56.2478
G01 X65.3451 Y56.2512
G01 X63.6549 Y56.2512
G01 X63.6206 Y56.2478
G01 X63.5923 Y56.2392
G01 X63.5663 Y56.2253
G01 X63.5434 Y56.2066
G01 X63.5247 Y56.1837
G01 X63.5108 Y56.1577
G01 X63.5022 Y56.1294
G01 X63.4988 Y56.0951
G01 X63.4988 Y54.4049
G01 X63.5022 Y54.3706
G01 X63.5108 Y54.3423
G01 X63.5247 Y54.3163
G01 X63.5434 Y54.2934
G01 X63.5663 Y54.2747
G01 X63.5923 Y54.2608
G01 X63.6206 Y54.2522
G01 X63.6549 Y54.2488
G01 X65.3451 Y54.2488
G01 X65.3794 Y54.2522
G01 X65.4077 Y54.2608
G01 X65.4337 Y54.2747
G01 X65.4566 Y54.2934
G01 X65.4753 Y54.3163
G01 X65.4892 Y54.3423
G01 X65.4978 Y54.3706
G01 X65.5012 Y54.4049
G01 X65.5012 Y56.0951
G00 Z1.0000
G00 X63.6500 Y54.3500
G01 F400.00
G01 Z-0.0400
G01 F2500.00
G01 X65.3500 Y54.3500
G01 X65.3598 Y54.3510
G01 X65.3691 Y54.3538
G01 X65.3736 Y54.3559
G01 X65.3788 Y54.3591
G01 X65.3862 Y54.3655
G01 X65.3922 Y54.3733
G01 X65.3962 Y54.3809
G01 X65.3990 Y54.3902
G01 X65.4000 Y54.4000
G01 X65.4000 Y56.1000
G01 X65.3990 Y56.1098
G01 X65.3962 Y56.1191
G01 X65.3916 Y56.1278
G01 X65.3879 Y56.1327
G01 X65.3845 Y56.1362
G01 X65.3767 Y56.1422
G01 X65.3680 Y56.1466
G01 X65.3585 Y56.1493
G01 X65.3500 Y56.1500
G01 X63.6500 Y56.1500
G01 X63.6402 Y56.1490
G01 X63.6309 Y56.1462
G01 X63.6254 Y56.1435
G01 X63.6212 Y56.1409
G01 X63.6138 Y56.1345
G01 X63.6078 Y56.1267
G01 X63.6038 Y56.1191
G01 X63.6010 Y56.1098
G01 X63.6000 Y56.1000
G01 X63.6000 Y54.3988
G01 X63.6010 Y54.3902
G01 X63.6038 Y54.3809
G01 X63.6084 Y54.3722
G01 X63.6146 Y54.3646
G01 X63.6222 Y54.3584
G01 X63.6309 Y54.3538
G01 X63.6402 Y54.3510
G01 X63.6500 Y54.3500
G00 Z1.0000
G00 X63.6108 Y58.1352
G01 F400.00
G01 Z-0.0400
G01 F2500.00
G01 X63.7087 Y57.8414
G01 X63.7147 Y57.8260
G01 X63.7216 Y57.8125
G01 X63.7266 Y57.8013
G01 X63.7327 Y57.7914
G01 X63.7420 Y57.7795
G01 X63.7491 Y57.7695
G01 X63.7598 Y57.7574
G01 X63.9551 Y57.5621
G01 X63.9601 Y57.5579
G01 X63.9677 Y57.5507
G01 X63.9798 Y57.5418
G01 X63.9891 Y57.5342
G01 X63.9992 Y57.5278
G01 X64.0128 Y57.5214
G01 X64.0234 Y57.5158
G01 X64.0346 Y57.5115
G01 X64.0492 Y57.5079
G01 X64.0606 Y57.5044
G01 X64.0768 Y57.5014
G01 X64.4703 Y57.4522
G01 X64.4823 Y57.4512
G01 X64.4976 Y57.4514
G01 X64.5149 Y57.4510
G01 X64.5264 Y57.4518
G01 X64.9199 Y57.5010
G01 X64.9263 Y57.5023
G01 X64.9367 Y57.5039
G01 X64.9511 Y57.5080
G01 X64.9628 Y57.5106
G01 X64.9740 Y57.5148
G01 X64.9874 Y57.5216
G01 X64.9984 Y57.5264
G01 X65.0086 Y57.5327
G01 X65.0180 Y57.5401
G01 X65.0302 Y57.5488
G01 X65.0426 Y57.5598
G01 X65.2379 Y57.7551
G01 X65.2419 Y57.7599
G01 X65.2491 Y57.7674
G01 X65.2581 Y57.7796
G01 X65.2658 Y57.7891
G01 X65.2720 Y57.7989
G01 X65.2784 Y57.8126
G01 X65.2842 Y57.8234
G01 X65.2902 Y57.8383
G01 X65.3882 Y58.1321
G01 X65.3913 Y58.1458
G01 X65.3951 Y58.1585
G01 X65.3979 Y58.1749
G01 X65.3985 Y58.1881
G01 X65.4000 Y58.2017
G01 X65.4000 Y59.2127
G01 X65.4012 Y59.2299
G01 X65.4012 Y60.4701
G01 X65.3906 Y60.5776
G01 X65.3607 Y60.6762
G01 X65.3121 Y60.7671
G01 X65.2467 Y60.8467
G01 X65.1671 Y60.9121
G01 X65.0762 Y60.9607
G01 X65.0210 Y60.9774
G01 X65.0129 Y60.9803
G01 X65.0007 Y60.9861
G01 X64.9944 Y60.9900
G01 X64.9875 Y60.9951
G01 X64.9793 Y61.0024
G01 X64.9727 Y61.0097
G01 X64.9662 Y61.0186
G01 X64.9607 Y61.0282
G01 X64.9576 Y61.0349
G01 X64.9551 Y61.0418
G01 X64.9524 Y61.0512
G01 X64.9506 Y61.0621
G01 X64.9500 Y61.0732
G01 X64.9500 Y61.4103
G01 X64.9508 Y61.4213
G01 X64.9519 Y61.4286
G01 X64.9536 Y61.4358
G01 X64.9571 Y61.4462
G01 X64.9618 Y61.4562
G01 X64.9668 Y61.4647
G01 X64.9712 Y61.4706
G01 X64.9793 Y61.4798
G01 X64.9885 Y61.4879
G01 X64.9944 Y61.4923
G01 X65.0007 Y61.4961
G01 X65.0106 Y61.5010
G01 X65.0198 Y61.5044
G01 X65.1033 Y61.5298
G01 X65.1726 Y61.5668
G01 X65.2333 Y61.6167
G01 X65.2832 Y61.6774
G01 X65.3202 Y61.7467
G01 X65.3430 Y61.8218
G01 X65.3512 Y61.9049
G01 X65.3512 Y62.5451
G01 X65.3430 Y62.6282
G01 X65.3202 Y62.7033
G01 X65.2832 Y62.7726
G01 X65.2333 Y62.8333
G01 X65.1726 Y62.8832
G01 X65.1033 Y62.9202
G01 X65.0282 Y62.9430
G01 X64.9451 Y62.9512
G01 X64.0549 Y62.9512
G01 X63.9718 Y62.9430
G01 X63.8967 Y62.9202
G01 X63.8274 Y62.8832
G01 X63.7667 Y62.8333
G01 X63.7168 Y62.7726
G01 X63.6798 Y62.7033
G01 X63.6570 Y62.6282
G01 X63.6488 Y62.5451
G01 X63.6488 Y61.9049
G01 X63.6570 Y61.8218
G01 X63.6798 Y61.7467
G01 X63.7168 Y61.6774
G01 X63.7667 Y61.6167
G01 X63.8274 Y61.5668
G01 X63.8967 Y61.5298
G01 X63.9802 Y61.5044
G01 X63.9894 Y61.5010
G01 X63.9993 Y61.4961
G01 X64.0056 Y61.4923
G01 X64.0115 Y61.4879
G01 X64.0207 Y61.4798
G01 X64.0288 Y61.4706
G01 X64.0332 Y61.4647
G01 X64.0382 Y61.4562
G01 X64.0429 Y61.4462
G01 X64.0464 Y61.4358
G01 X64.0481 Y61.4286
G01 X64.0492 Y61.4213
G01 X64.0500 Y61.4103
G01 X64.0500 Y61.0732
G01 X64.0494 Y61.0621
G01 X64.0476 Y61.0512
G01 X64.0449 Y61.0418
G01 X64.0424 Y61.0349
G01 X64.0393 Y61.0282
G01 X64.0338 Y61.0186
G01 X64.0273 Y61.0097
G01 X64.0207 Y61.0024
G01 X64.0125 Y60.9951
G01 X64.0056 Y60.9900
G01 X63.9993 Y60.9861
G01 X63.9871 Y60.9803
G01 X63.9790 Y60.9774
G01 X63.9238 Y60.9607
G01 X63.8329 Y60.9121
G01 X63.7533 Y60.8467
G01 X63.6879 Y60.7671
G01 X63.6393 Y60.6762
G01 X63.6094 Y60.5776
G01 X63.5988 Y60.4701
G01 X63.5988 Y59.2299
G01 X63.6000 Y59.2127
G01 X63.6000 Y58.2049
G01 X63.6014 Y58.1909
G01 X63.6018 Y58.1776
G01 X63.6043 Y58.1613
G01 X63.6079 Y58.1485
G01 X63.6108 Y58.1352
G00 Z1.0000
G00 X63.7000 Y59.2515
G01 F400.00
G01 Z-0.0400
G01 F2500.00
G01 X63.7000 Y58.2000
G01 X63.7004 Y58.1906
G01 X63.7023 Y58.1787
G01 X63.7051 Y58.1684
G01 X63.8051 Y57.8684
G01 X63.8081 Y57.8606
G01 X63.8118 Y57.8528
G01 X63.8168 Y57.8444
G01 X63.8219 Y57.8375
G01 X63.8293 Y57.8293
G01 X64.0310 Y57.6276
G01 X64.0363 Y57.6229
G01 X64.0428 Y57.6179
G01 X64.0529 Y57.6118
G01 X64.0603 Y57.6082
G01 X64.0670 Y57.6056
G01 X64.0794 Y57.6021
G01 X64.0876 Y57.6007
G01 X64.4876 Y57.5507
G01 X64.4952 Y57.5501
G01 X64.5035 Y57.5500
G01 X64.5124 Y57.5507
G01 X64.9136 Y57.6009
G01 X64.9217 Y57.6024
G01 X64.9286 Y57.6042
G01 X64.9397 Y57.6082
G01 X64.9502 Y57.6135
G01 X64.9562 Y57.6173
G01 X64.9628 Y57.6222
G01 X64.9707 Y57.6293
G01 X65.1707 Y57.8293
G01 X65.1784 Y57.8379
G01 X65.1826 Y57.8435
G01 X65.1869 Y57.8504
G01 X65.1916 Y57.8597
G01 X65.1949 Y57.8684
G01 X65.2949 Y58.1684
G01 X65.2982 Y58.1813
G01 X65.2995 Y58.1893
G01 X65.3000 Y58.1987
G01 X65.3000 Y60.4750
G01 X65.2980 Y60.5167
G01 X65.2921 Y60.5567
G01 X65.2817 Y60.5984
G01 X65.2676 Y60.6376
G01 X65.2498 Y60.6753
G01 X65.2297 Y60.7090
G01 X65.2019 Y60.7465
G01 X65.1755 Y60.7755
G01 X65.1437 Y60.8043
G01 X65.1111 Y60.8284
G01 X65.0753 Y60.8498
G01 X65.0376 Y60.8676
G01 X64.9995 Y60.8813
G01 X64.9579 Y60.8918
G01 X64.9179 Y60.8978
G01 X64.8762 Y60.9000
G01 X64.8501 Y60.9000
G01 X64.8502 Y61.6000
G01 X64.9512 Y61.6000
G01 X64.9794 Y61.6014
G01 X65.0085 Y61.6058
G01 X65.0371 Y61.6129
G01 X65.0648 Y61.6228
G01 X65.0914 Y61.6354
G01 X65.1167 Y61.6506
G01 X65.1403 Y61.6681
G01 X65.1621 Y61.6879
G01 X65.1819 Y61.7097
G01 X65.2008 Y61.7354
G01 X65.2146 Y61.7586
G01 X65.2262 Y61.7830
G01 X65.2363 Y61.8106
G01 X65.2442 Y61.8415
G01 X65.2486 Y61.8706
G01 X65.2500 Y61.9000
G01 X65.2500 Y62.5500
G01 X65.2486 Y62.5794
G01 X65.2442 Y62.6085
G01 X65.2371 Y62.6371
G01 X65.2262 Y62.6670
G01 X65.2146 Y62.6914
G01 X65.2008 Y62.7146
G01 X65.1819 Y62.7403
G01 X65.1604 Y62.7638
G01 X65.1403 Y62.7819
G01 X65.1187 Y62.7980
G01 X65.0914 Y62.8146
G01 X65.0637 Y62.8276
G01 X65.0371 Y62.8371
G01 X65.0085 Y62.8442
G01 X64.9794 Y62.8486
G01 X64.9512 Y62.8500
G01 X64.0500 Y62.8500
G01 X64.0194 Y62.8484
G01 X63.9915 Y62.8442
G01 X63.9653 Y62.8377
G01 X63.9352 Y62.8272
G01 X63.9064 Y62.8134
G01 X63.8833 Y62.7994
G01 X63.8616 Y62.7834
G01 X63.8379 Y62.7621
G01 X63.8166 Y62.7384
G01 X63.8006 Y62.7167
G01 X63.7866 Y62.6936
G01 X63.7724 Y62.6637
G01 X63.7629 Y62.6371
G01 X63.7558 Y62.6085
G01 X63.7514 Y62.5794
G01 X63.7500 Y62.5512
G01 X63.7500 Y61.9000
G01 X63.7514 Y61.8706
G01 X63.7560 Y61.8403
G01 X63.7629 Y61.8129
G01 X63.7728 Y61.7852
G01 X63.7854 Y61.7586
G01 X63.8006 Y61.7333
G01 X63.8181 Y61.7097
G01 X63.8379 Y61.6879
G01 X63.8597 Y61.6681
G01 X63.8854 Y61.6492
G01 X63.9086 Y61.6354
G01 X63.9352 Y61.6228
G01 X63.9629 Y61.6129
G01 X63.9915 Y61.6058
G01 X64.0206 Y61.6014
G01 X64.0488 Y61.6000
G01 X64.1499 Y61.6000
G01 X64.1498 Y60.9000
G01 X64.1238 Y60.9000
G01 X64.0821 Y60.8978
G01 X64.0421 Y60.8918
G01 X64.0028 Y60.8820
G01 X63.9601 Y60.8667
G01 X63.9247 Y60.8498
G01 X63.8879 Y60.8277
G01 X63.8554 Y60.8035
G01 X63.8245 Y60.7755
G01 X63.7965 Y60.7446
G01 X63.7730 Y60.7131
G01 X63.7491 Y60.6732
G01 X63.7324 Y60.6376
G01 X63.7180 Y60.5972
G01 X63.7082 Y60.5579
G01 X63.7023 Y60.5191
G01 X63.7000 Y60.4762
G01 X63.7000 Y59.2515
G00 Z1.0000
G00 X66.7000 Y59.2515
G01 F400.00
G01 Z-0.0400
G01 F2500.00
G01 X66.7000 Y58.2000
G01 X66.7004 Y58.1906
G01 X66.7023 Y58.1787
G01 X66.7051 Y58.1684
G01 X66.8051 Y57.8684
G01 X66.8081 Y57.8606
G01 X66.8118 Y57.8528
G01 X66.8168 Y57.8444
G01 X66.8219 Y57.8375
G01 X66.8293 Y57.8293
G01 X67.0310 Y57.6276
G01 X67.0363 Y57.6229
G01 X67.0428 Y57.6179
G01 X67.0529 Y57.6118
G01 X67.0603 Y57.6082
G01 X67.0670 Y57.6056
G01 X67.0794 Y57.6021
G01 X67.0876 Y57.6007
G01 X67.4876 Y57.5507
G01 X67.4952 Y57.5501
G01 X67.5035 Y57.5500
G01 X67.5124 Y57.5507
G01 X67.9136 Y57.6009
G01 X67.9217 Y57.6024
G01 X67.9286 Y57.6042
G01 X67.9397 Y57.6082
G01 X67.9502 Y57.6135
G01 X67.9562 Y57.6173
G01 X67.9628 Y57.6222
G01 X67.9707 Y57.6293
G01 X68.1707 Y57.8293
G01 X68.1784 Y57.8379
G01 X68.1826 Y57.8435
G01 X68.1869 Y57.8504
G01 X68.1916 Y57.8597
G01 X68.1949 Y57.8684
G01 X68.2949 Y58.1684
G01 X68.2982 Y58.1813
G01 X68.2995 Y58.1893
G01 X68.3000 Y58.1987
G01 X68.3000 Y60.4750
G01 X68.2980 Y60.5167
G01 X68.2921 Y60.5567
G01 X68.2817 Y60.5984
G01 X68.2676 Y60.6376
G01 X68.2498 Y60.6753
G01 X68.2297 Y60.7090
G01 X68.2019 Y60.7465
G01 X68.1755 Y60.7755
G01 X68.1437 Y60.8043
G01 X68.1111 Y60.8284
G01 X68.0753 Y60.8498
G01 X68.0376 Y60.8676
G01 X67.9995 Y60.8813
G01 X67.9579 Y60.8918
G01 X67.9179 Y60.8978
G01 X67.8762 Y60.9000
G01 X67.8501 Y60.9000
G01 X67.8502 Y61.5750
G01 X67.9512 Y61.5750
G01 X67.9794 Y61.5764
G01 X68.0085 Y61.5808
G01 X68.0371 Y61.5879
G01 X68.0648 Y61.5978
G01 X68.0914 Y61.6104
G01 X68.1167 Y61.6256
G01 X68.1403 Y61.6431
G01 X68.1621 Y61.6629
G01 X68.1819 Y61.6847
G01 X68.2008 Y61.7104
G01 X68.2146 Y61.7336
G01 X68.2262 Y61.7580
G01 X68.2363 Y61.7856
G01 X68.2442 Y61.8165
G01 X68.2484 Y61.8444
G01 X68.2500 Y61.8750
G01 X68.2500 Y62.5250
G01 X68.2486 Y62.5544
G01 X68.2442 Y62.5835
G01 X68.2371 Y62.6121
G01 X68.2262 Y62.6420
G01 X68.2146 Y62.6664
G01 X68.2008 Y62.6896
G01 X68.1819 Y62.7153
G01 X68.1604 Y62.7388
G01 X68.1403 Y62.7569
G01 X68.1187 Y62.7730
G01 X68.0914 Y62.7896
G01 X68.0637 Y62.8026
G01 X68.0371 Y62.8121
G01 X68.0085 Y62.8192
G01 X67.9794 Y62.8236
G01 X67.9512 Y62.8250
G01 X67.0500 Y62.8250
G01 X67.0194 Y62.8234
G01 X66.9915 Y62.8192
G01 X66.9653 Y62.8127
G01 X66.9352 Y62.8022
G01 X66.9064 Y62.7884
G01 X66.8833 Y62.7744
G01 X66.8616 Y62.7584
G01 X66.8379 Y62.7371
G01 X66.8166 Y62.7134
G01 X66.8006 Y62.6917
G01 X66.7866 Y62.6686
G01 X66.7724 Y62.6387
G01 X66.7629 Y62.6121
G01 X66.7558 Y62.5835
G01 X66.7514 Y62.5544
G01 X66.7500 Y62.5262
G01 X66.7500 Y61.8750
G01 X66.7514 Y61.8456
G01 X66.7560 Y61.8153
G01 X66.7629 Y61.7879
G01 X66.7728 Y61.7602
G01 X66.7854 Y61.7336
G01 X66.8006 Y61.7083
G01 X66.8181 Y61.6847
G01 X66.8379 Y61.6629
G01 X66.8597 Y61.6431
G01 X66.8854 Y61.6242
G01 X66.9086 Y61.6104
G01 X66.9352 Y61.5978
G01 X66.9629 Y61.5879
G01 X66.9915 Y61.5808
G01 X67.0206 Y61.5764
G01 X67.0488 Y61.5750
G01 X67.1499 Y61.5750
G01 X67.1498 Y60.9000
G01 X67.1238 Y60.9000
G01 X67.0821 Y60.8978
G01 X67.0421 Y60.8918
G01 X67.0028 Y60.8820
G01 X66.9601 Y60.8667
G01 X66.9247 Y60.8498
G01 X66.8879 Y60.8277
G01 X66.8554 Y60.8035
G01 X66.8245 Y60.7755
G01 X66.7965 Y60.7446
G01 X66.7730 Y60.7131
G01 X66.7491 Y60.6732
G01 X66.7324 Y60.6376
G01 X66.7180 Y60.5972
G01 X66.7082 Y60.5579
G01 X66.7023 Y60.5191
G01 X66.7000 Y60.4762
G01 X66.7000 Y59.2515
G00 Z1.0000
G00 X66.5988 Y60.4701
G01 F400.00
G01 Z-0.0400
G01 F2500.00
G01 X66.5988 Y59.2299
G01 X66.6000 Y59.2127
G01 X66.6000 Y58.2049
G01 X66.6014 Y58.1909
G01 X66.6018 Y58.1776
G01 X66.6043 Y58.1613
G01 X66.6079 Y58.1485
G01 X66.6108 Y58.1352
G01 X66.7087 Y57.8414
G01 X66.7147 Y57.8260
G01 X66.7216 Y57.8125
G01 X66.7266 Y57.8013
G01 X66.7327 Y57.7914
G01 X66.7420 Y57.7795
G01 X66.7491 Y57.7695
G01 X66.7598 Y57.7574
G01 X66.9551 Y57.5621
G01 X66.9601 Y57.5579
G01 X66.9677 Y57.5507
G01 X66.9798 Y57.5418
G01 X66.9891 Y57.5342
G01 X66.9992 Y57.5278
G01 X67.0128 Y57.5214
G01 X67.0234 Y57.5158
G01 X67.0346 Y57.5115
G01 X67.0492 Y57.5079
G01 X67.0606 Y57.5044
G01 X67.0768 Y57.5014
G01 X67.4703 Y57.4522
G01 X67.4823 Y57.4512
G01 X67.4976 Y57.4514
G01 X67.5149 Y57.4510
G01 X67.5264 Y57.4518
G01 X67.9199 Y57.5010
G01 X67.9263 Y57.5023
G01 X67.9367 Y57.5039
G01 X67.9511 Y57.5080
G01 X67.9628 Y57.5106
G01 X67.9740 Y57.5148
G01 X67.9874 Y57.5216
G01 X67.9984 Y57.5264
G01 X68.0086 Y57.5327
G01 X68.0180 Y57.5401
G01 X68.0302 Y57.5488
G01 X68.0426 Y57.5598
G01 X68.2379 Y57.7551
G01 X68.2419 Y57.7599
G01 X68.2491 Y57.7674
G01 X68.2581 Y57.7796
G01 X68.2658 Y57.7891
G01 X68.2720 Y57.7989
G01 X68.2784 Y57.8126
G01 X68.2842 Y57.8234
G01 X68.2902 Y57.8383
G01 X68.3882 Y58.1321
G01 X68.3913 Y58.1458
G01 X68.3951 Y58.1585
G01 X68.3979 Y58.1749
G01 X68.3985 Y58.1881
G01 X68.4000 Y58.2017
G01 X68.4000 Y59.2127
G01 X68.4012 Y59.2299
G01 X68.4012 Y60.4701
G01 X68.3906 Y60.5776
G01 X68.3607 Y60.6762
G01 X68.3121 Y60.7671
G01 X68.2467 Y60.8467
G01 X68.1671 Y60.9121
G01 X68.0762 Y60.9607
G01 X68.0210 Y60.9774
G01 X68.0129 Y60.9803
G01 X68.0018 Y60.9855
G01 X67.9944 Y60.9900
G01 X67.9885 Y60.9943
G01 X67.9802 Y61.0016
G01 X67.9727 Y61.0097
G01 X67.9668 Y61.0176
G01 X67.9612 Y61.0271
G01 X67.9571 Y61.0360
G01 X67.9536 Y61.0465
G01 X67.9519 Y61.0536
G01 X67.9508 Y61.0609
G01 X67.9500 Y61.0707
G01 X67.9500 Y61.3853
G01 X67.9508 Y61.3963
G01 X67.9519 Y61.4036
G01 X67.9536 Y61.4108
G01 X67.9571 Y61.4212
G01 X67.9618 Y61.4312
G01 X67.9668 Y61.4397
G01 X67.9712 Y61.4456
G01 X67.9793 Y61.4548
G01 X67.9885 Y61.4629
G01 X67.9944 Y61.4673
G01 X68.0007 Y61.4711
G01 X68.0106 Y61.4760
G01 X68.0198 Y61.4794
G01 X68.1033 Y61.5048
G01 X68.1726 Y61.5418
G01 X68.2333 Y61.5917
G01 X68.2832 Y61.6524
G01 X68.3202 Y61.7217
G01 X68.3430 Y61.7968
G01 X68.3512 Y61.8799
G01 X68.3512 Y62.5201
G01 X68.3430 Y62.6032
G01 X68.3202 Y62.6783
G01 X68.2832 Y62.7476
G01 X68.2333 Y62.8083
G01 X68.1726 Y62.8582
G01 X68.1033 Y62.8952
G01 X68.0282 Y62.9180
G01 X67.9451 Y62.9262
G01 X67.0549 Y62.9262
G01 X66.9718 Y62.9180
G01 X66.8967 Y62.8952
G01 X66.8274 Y62.8582
G01 X66.7667 Y62.8083
G01 X66.7168 Y62.7476
G01 X66.6798 Y62.6783
G01 X66.6570 Y62.6032
G01 X66.6488 Y62.5201
G01 X66.6488 Y61.8799
G01 X66.6570 Y61.7968
G01 X66.6798 Y61.7217
G01 X66.7168 Y61.6524
G01 X66.7667 Y61.5917
G01 X66.8274 Y61.5418
G01 X66.8967 Y61.5048
G01 X66.9802 Y61.4794
G01 X66.9894 Y61.4760
G01 X66.9993 Y61.4711
G01 X67.0056 Y61.4673
G01 X67.0115 Y61.4629
G01 X67.0207 Y61.4548
G01 X67.0273 Y61.4476
G01 X67.0318 Y61.4417
G01 X67.0382 Y61.4312
G01 X67.0429 Y61.4212
G01 X67.0464 Y61.4108
G01 X67.0481 Y61.4036
G01 X67.0492 Y61.3963
G01 X67.0500 Y61.3853
G01 X67.0500 Y61.0732
G01 X67.0497 Y61.0658
G01 X67.0483 Y61.0548
G01 X67.0461 Y61.0453
G01 X67.0424 Y61.0349
G01 X67.0388 Y61.0271
G01 X67.0332 Y61.0176
G01 X67.0273 Y61.0097
G01 X67.0207 Y61.0024
G01 X67.0135 Y60.9958
G01 X67.0056 Y60.9900
G01 X66.9993 Y60.9861
G01 X66.9871 Y60.9803
G01 X66.9790 Y60.9774
G01 X66.9238 Y60.9607
G01 X66.8329 Y60.9121
G01 X66.7533 Y60.8467
G01 X66.6879 Y60.7671
G01 X66.6393 Y60.6762
G01 X66.6094 Y60.5776
G01 X66.5988 Y60.4701
G00 Z1.0000
G00 X69.7000 Y59.2515
G01 F400.00
G01 Z-0.0400
G01 F2500.00
G01 X69.7000 Y58.2000
G01 X69.7004 Y58.1906
G01 X69.7023 Y58.1787
G01 X69.7051 Y58.1684
G01 X69.8051 Y57.8684
G01 X69.8081 Y57.8606
G01 X69.8118 Y57.8528
G01 X69.8168 Y57.8444
G01 X69.8219 Y57.8375
G01 X69.8293 Y57.8293
G01 X70.0310 Y57.6276
G01 X70.0363 Y57.6229
G01 X70.0428 Y57.6179
G01 X70.0529 Y57.6118
G01 X70.0603 Y57.6082
G01 X70.0670 Y57.6056
G01 X70.0794 Y57.6021
G01 X70.0876 Y57.6007
G01 X70.4876 Y57.5507
G01 X70.4952 Y57.5501
G01 X70.5035 Y57.5500
G01 X70.5124 Y57.5507
G01 X70.9136 Y57.6009
G01 X70.9217 Y57.6024
G01 X70.9286 Y57.6042
G01 X70.9397 Y57.6082
G01 X70.9502 Y57.6135
G01 X70.9562 Y57.6173
G01 X70.9628 Y57.6222
G01 X70.9707 Y57.6293
G01 X71.1707 Y57.8293
G01 X71.1784 Y57.8379
G01 X71.1826 Y57.8435
G01 X71.1869 Y57.8504
G01 X71.1916 Y57.8597
G01 X71.1949 Y57.8684
G01 X71.2949 Y58.1684
G01 X71.2982 Y58.1813
G01 X71.2995 Y58.1893
G01 X71.3000 Y58.1987
G01 X71.3000 Y60.4750
G01 X71.2980 Y60.5167
G01 X71.2921 Y60.5567
G01 X71.2817 Y60.5984
G01 X71.2676 Y60.6376
G01 X71.2498 Y60.6753
G01 X71.2297 Y60.7090
G01 X71.2019 Y60.7465
G01 X71.1755 Y60.7755
G01 X71.1437 Y60.8043
G01 X71.1111 Y60.8284
G01 X71.0753 Y60.8498
G01 X71.0376 Y60.8676
G01 X70.9995 Y60.8813
G01 X70.9579 Y60.8918
G01 X70.9179 Y60.8978
G01 X70.8762 Y60.9000
G01 X70.8501 Y60.9000
G01 X70.8502 Y61.6000
G01 X70.9512 Y61.6000
G01 X70.9794 Y61.6014
G01 X71.0085 Y61.6058
G01 X71.0371 Y61.6129
G01 X71.0648 Y61.6228
G01 X71.0914 Y61.6354
G01 X71.1167 Y61.6506
G01 X71.1403 Y61.6681
G01 X71.1621 Y61.6879
G01 X71.1819 Y61.7097
G01 X71.2008 Y61.7354
G01 X71.2146 Y61.7586
G01 X71.2262 Y61.7830
G01 X71.2363 Y61.8106
G01 X71.2442 Y61.8415
G01 X71.2486 Y61.8706
G01 X71.2500 Y61.9000
G01 X71.2500 Y62.5500
G01 X71.2486 Y62.5794
G01 X71.2442 Y62.6085
G01 X71.2371 Y62.6371
G01 X71.2262 Y62.6670
G01 X71.2146 Y62.6914
G01 X71.2008 Y62.7146
G01 X71.1819 Y62.7403
G01 X71.1604 Y62.7638
G01 X71.1403 Y62.7819
G01 X71.1187 Y62.7980
G01 X71.0914 Y62.8146
G01 X71.0637 Y62.8276
G01 X71.0371 Y62.8371
G01 X71.0085 Y62.8442
G01 X70.9794 Y62.8486
G01 X70.9512 Y62.8500
G01 X70.0500 Y62.8500
G01 X70.0194 Y62.8484
G01 X69.9915 Y62.8442
G01 X69.9653 Y62.8377
G01 X69.9352 Y62.8272
G01 X69.9064 Y62.8134
G01 X69.8833 Y62.7994
G01 X69.8616 Y62.7834
G01 X69.8379 Y62.7621
G01 X69.8166 Y62.7384
G01 X69.8006 Y62.7167
G01 X69.7866 Y62.6936
G01 X69.7724 Y62.6637
G01 X69.7629 Y62.6371
G01 X69.7558 Y62.6085
G01 X69.7514 Y62.5794
G01 X69.7500 Y62.5512
G01 X69.7500 Y61.9000
G01 X69.7514 Y61.8706
G01 X69.7560 Y61.8403
G01 X69.7629 Y61.8129
G01 X69.7728 Y61.7852
G01 X69.7854 Y61.7586
G01 X69.8006 Y61.7333
G01 X69.8181 Y61.7097
G01 X69.8379 Y61.6879
G01 X69.8597 Y61.6681
G01 X69.8854 Y61.6492
G01 X69.9086 Y61.6354
G01 X69.9352 Y61.6228
G01 X69.9629 Y61.6129
G01 X69.9915 Y61.6058
G01 X70.0206 Y61.6014
G01 X70.0488 Y61.6000
G01 X70.1499 Y61.6000
G01 X70.1498 Y60.9000
G01 X70.1238 Y60.9000
G01 X70.0821 Y60.8978
G01 X70.0421 Y60.8918
G01 X70.0028 Y60.8820
G01 X69.9601 Y60.8667
G01 X69.9247 Y60.8498
G01 X69.8879 Y60.8277
G01 X69.8554 Y60.8035
G01 X69.8245 Y60.7755
G01 X69.7965 Y60.7446
G01 X69.7730 Y60.7131
G01 X69.7491 Y60.6732
G01 X69.7324 Y60.6376
G01 X69.7180 Y60.5972
G01 X69.7082 Y60.5579
G01 X69.7023 Y60.5191
G01 X69.7000 Y60.4762
G01 X69.7000 Y59.2515
G00 Z1.0000
G00 X69.6108 Y58.1352
G01 F400.00
G01 Z-0.0400
G01 F2500.00
G01 X69.7087 Y57.8414
G01 X69.7147 Y57.8260
G01 X69.7216 Y57.8125
G01 X69.7266 Y57.8013
G01 X69.7327 Y57.7914
G01 X69.7420 Y57.7795
G01 X69.7491 Y57.7695
G01 X69.7598 Y57.7574
G01 X69.9551 Y57.5621
G01 X69.9601 Y57.5579
G01 X69.9677 Y57.5507
G01 X69.9798 Y57.5418
G01 X69.9891 Y57.5342
G01 X69.9992 Y57.5278
G01 X70.0128 Y57.5214
G01 X70.0234 Y57.5158
G01 X70.0346 Y57.5115
G01 X70.0492 Y57.5079
G01 X70.0606 Y57.5044
G01 X70.0768 Y57.5014
G01 X70.4703 Y57.4522
G01 X70.4823 Y57.4512
G01 X70.4976 Y57.4514
G01 X70.5149 Y57.4510
G01 X70.5264 Y57.4518
G01 X70.9199 Y57.5010
G01 X70.9263 Y57.5023
G01 X70.9367 Y57.5039
G01 X70.9511 Y57.5080
G01 X70.9628 Y57.5106
G01 X70.9740 Y57.5148
G01 X70.9874 Y57.5216
G01 X70.9984 Y57.5264
G01 X71.0086 Y57.5327
G01 X71.0180 Y57.5401
G01 X71.0302 Y57.5488
G01 X71.0426 Y57.5598
G01 X71.2379 Y57.7551
G01 X71.2419 Y57.7599
G01 X71.2491 Y57.7674
G01 X71.2581 Y57.7796
G01 X71.2658 Y57.7891
G01 X71.2720 Y57.7989
G01 X71.2784 Y57.8126
G01 X71.2842 Y57.8234
G01 X71.2902 Y57.8383
G01 X71.3882 Y58.1321
G01 X71.3913 Y58.1458
G01 X71.3951 Y58.1585
G01 X71.3979 Y58.1749
G01 X71.3985 Y58.1881
G01 X71.4000 Y58.2017
G01 X71.4000 Y59.2127
G01 X71.4012 Y59.2299
G01 X71.4012 Y60.4701
G01 X71.3906 Y60.5776
G01 X71.3607 Y60.6762
G01 X71.3121 Y60.7671
G01 X71.2467 Y60.8467
G01 X71.1671 Y60.9121
G01 X71.0762 Y60.9607
G01 X71.0210 Y60.9774
G01 X71.0129 Y60.9803
G01 X71.0007 Y60.9861
G01 X70.9944 Y60.9900
G01 X70.9875 Y60.9951
G01 X70.9793 Y61.0024
G01 X70.9727 Y61.0097
G01 X70.9662 Y61.0186
G01 X70.9607 Y61.0282
G01 X70.9567 Y61.0372
G01 X70.9543 Y61.0441
G01 X70.9524 Y61.0512
G01 X70.9506 Y61.0621
G01 X70.9500 Y61.0732
G01 X70.9500 Y61.4103
G01 X70.9508 Y61.4213
G01 X70.9519 Y61.4286
G01 X70.9536 Y61.4358
G01 X70.9571 Y61.4462
G01 X70.9618 Y61.4562
G01 X70.9668 Y61.4647
G01 X70.9712 Y61.4706
G01 X70.9793 Y61.4798
G01 X70.9885 Y61.4879
G01 X70.9944 Y61.4923
G01 X71.0007 Y61.4961
G01 X71.0106 Y61.5010
G01 X71.0198 Y61.5044
G01 X71.1033 Y61.5298
G01 X71.1726 Y61.5668
G01 X71.2333 Y61.6167
G01 X71.2832 Y61.6774
G01 X71.3202 Y61.7467
G01 X71.3430 Y61.8218
G01 X71.3512 Y61.9049
G01 X71.3512 Y62.5451
G01 X71.3430 Y62.6282
G01 X71.3202 Y62.7033
G01 X71.2832 Y62.7726
G01 X71.2333 Y62.8333
G01 X71.1726 Y62.8832
G01 X71.1033 Y62.9202
G01 X71.0282 Y62.9430
G01 X70.9451 Y62.9512
G01 X70.0549 Y62.9512
G01 X69.9718 Y62.9430
G01 X69.8967 Y62.9202
G01 X69.8274 Y62.8832
G01 X69.7667 Y62.8333
G01 X69.7168 Y62.7726
G01 X69.6798 Y62.7033
G01 X69.6570 Y62.6282
G01 X69.6488 Y62.5451
G01 X69.6488 Y61.9049
G01 X69.6570 Y61.8218
G01 X69.6798 Y61.7467
G01 X69.7168 Y61.6774
G01 X69.7667 Y61.6167
G01 X69.8274 Y61.5668
G01 X69.8967 Y61.5298
G01 X69.9802 Y61.5044
G01 X69.9894 Y61.5010
G01 X69.9993 Y61.4961
G01 X70.0056 Y61.4923
G01 X70.0115 Y61.4879
G01 X70.0207 Y61.4798
G01 X70.0273 Y61.4726
G01 X70.0318 Y61.4667
G01 X70.0382 Y61.4562
G01 X70.0429 Y61.4462
G01 X70.0464 Y61.4358
G01 X70.0481 Y61.4286
G01 X70.0492 Y61.4213
G01 X70.0500 Y61.4103
G01 X70.0500 Y61.0732
G01 X70.0494 Y61.0621
G01 X70.0476 Y61.0512
G01 X70.0449 Y61.0418
G01 X70.0424 Y61.0349
G01 X70.0393 Y61.0282
G01 X70.0338 Y61.0186
G01 X70.0273 Y61.0097
G01 X70.0207 Y61.0024
G01 X70.0125 Y60.9951
G01 X70.0056 Y60.9900
G01 X69.9993 Y60.9861
G01 X69.9871 Y60.9803
G01 X69.9790 Y60.9774
G01 X69.9238 Y60.9607
G01 X69.8329 Y60.9121
G01 X69.7533 Y60.8467
G01 X69.6879 Y60.7671
G01 X69.6393 Y60.6762
G01 X69.6094 Y60.5776
G01 X69.5988 Y60.4701
G01 X69.5988 Y59.2299
G01 X69.6000 Y59.2127
G01 X69.6000 Y58.2049
G01 X69.6014 Y58.1909
G01 X69.6018 Y58.1776
G01 X69.6043 Y58.1613
G01 X69.6079 Y58.1485
G01 X69.6108 Y58.1352
G00 Z1.0000
G00 X72.7000 Y59.2515
G01 F400.00
G01 Z-0.0400
G01 F2500.00
G01 X72.7000 Y58.2000
G01 X72.7004 Y58.1906
G01 X72.7023 Y58.1787
G01 X72.7051 Y58.1684
G01 X72.8051 Y57.8684
G01 X72.8081 Y57.8606
G01 X72.8118 Y57.8528
G01 X72.8168 Y57.8444
G01 X72.8219 Y57.8375
G01 X72.8293 Y57.8293
G01 X73.0310 Y57.6276
G01 X73.0363 Y57.6229
G01 X73.0428 Y57.6179
G01 X73.0529 Y57.6118
G01 X73.0603 Y57.6082
G01 X73.0670 Y57.6056
G01 X73.0794 Y57.6021
G01 X73.0876 Y57.6007
G01 X73.4876 Y57.5507
G01 X73.4952 Y57.5501
G01 X73.5035 Y57.5500
G01 X73.5124 Y57.5507
G01 X73.9136 Y57.6009
G01 X73.9217 Y57.6024
G01 X73.9286 Y57.6042
G01 X73.9397 Y57.6082
G01 X73.9502 Y57.6135
G01 X73.9562 Y57.6173
G01 X73.9628 Y57.6222
G01 X73.9707 Y57.6293
G01 X74.1707 Y57.8293
G01 X74.1784 Y57.8379
G01 X74.1826 Y57.8435
G01 X74.1869 Y57.8504
G01 X74.1916 Y57.8597
G01 X74.1949 Y57.8684
G01 X74.2949 Y58.1684
G01 X74.2982 Y58.1813
G01 X74.2995 Y58.1893
G01 X74.3000 Y58.1987
G01 X74.3000 Y60.4750
G01 X74.2980 Y60.5167
G01 X74.2921 Y60.5567
G01 X74.2817 Y60.5984
G01 X74.2676 Y60.6376
G01 X74.2498 Y60.6753
G01 X74.2297 Y60.7090
G01 X74.2019 Y60.7465
G01 X74.1755 Y60.7755
G01 X74.1437 Y60.8043
G01 X74.1111 Y60.8284
G01 X74.0753 Y60.8498
G01 X74.0376 Y60.8676
G01 X73.9995 Y60.8813
G01 X73.9579 Y60.8918
G01 X73.9179 Y60.8978
G01 X73.8762 Y60.9000
G01 X73.8501 Y60.9000
G01 X73.8502 Y61.6000
G01 X73.9512 Y61.6000
G01 X73.9794 Y61.6014
G01 X74.0085 Y61.6058
G01 X74.0371 Y61.6129
G01 X74.0648 Y61.6228
G01 X74.0914 Y61.6354
G01 X74.1167 Y61.6506
G01 X74.1403 Y61.6681
G01 X74.1621 Y61.6879
G01 X74.1819 Y61.7097
G01 X74.2008 Y61.7354
G01 X74.2146 Y61.7586
G01 X74.2262 Y61.7830
G01 X74.2363 Y61.8106
G01 X74.2442 Y61.8415
G01 X74.2486 Y61.8706
G01 X74.2500 Y61.9000
G01 X74.2500 Y62.5500
G01 X74.2486 Y62.5794
G01 X74.2442 Y62.6085
G01 X74.2371 Y62.6371
G01 X74.2262 Y62.6670
G01 X74.2146 Y62.6914
G01 X74.2008 Y62.7146
G01 X74.1819 Y62.7403
G01 X74.1604 Y62.7638
G01 X74.1403 Y62.7819
G01 X74.1187 Y62.7980
G01 X74.0914 Y62.8146
G01 X74.0637 Y62.8276
G01 X74.0371 Y62.8371
G01 X74.0085 Y62.8442
G01 X73.9794 Y62.8486
G01 X73.9512 Y62.8500
G01 X73.0500 Y62.8500
G01 X73.0194 Y62.8484
G01 X72.9915 Y62.8442
G01 X72.9653 Y62.8377
G01 X72.9352 Y62.8272
G01 X72.9064 Y62.8134
G01 X72.8833 Y62.7994
G01 X72.8616 Y62.7834
G01 X72.8379 Y62.7621
G01 X72.8166 Y62.7384
G01 X72.8006 Y62.7167
G01 X72.7866 Y62.6936
G01 X72.7724 Y62.6637
G01 X72.7629 Y62.6371
G01 X72.7558 Y62.6085
G01 X72.7514 Y62.5794
G01 X72.7500 Y62.5512
G01 X72.7500 Y61.9000
G01 X72.7514 Y61.8706
G01 X72.7560 Y61.8403
G01 X72.7629 Y61.8129
G01 X72.7728 Y61.7852
G01 X72.7854 Y61.7586
G01 X72.8006 Y61.7333
G01 X72.8181 Y61.7097
G01 X72.8379 Y61.6879
G01 X72.8597 Y61.6681
G01 X72.8854 Y61.6492
G01 X72.9086 Y61.6354
G01 X72.9352 Y61.6228
G01 X72.9629 Y61.6129
G01 X72.9915 Y61.6058
G01 X73.0206 Y61.6014
G01 X73.0488 Y61.6000
G01 X73.1499 Y61.6000
G01 X73.1498 Y60.9000
G01 X73.1238 Y60.9000
G01 X73.0821 Y60.8978
G01 X73.0421 Y60.8918
G01 X73.0028 Y60.8820
G01 X72.9601 Y60.8667
G01 X72.9247 Y60.8498
G01 X72.8879 Y60.8277
G01 X72.8554 Y60.8035
G01 X72.8245 Y60.7755
G01 X72.7965 Y60.7446
G01 X72.7730 Y60.7131
G01 X72.7491 Y60.6732
G01 X72.7324 Y60.6376
G01 X72.7180 Y60.5972
G01 X72.7082 Y60.5579
G01 X72.7023 Y60.5191
G01 X72.7000 Y60.4762
G01 X72.7000 Y59.2515
G00 Z1.0000
G00 X72.5988 Y60.4701
G01 F400.00
G01 Z-0.0400
G01 F2500.00
G01 X72.5988 Y59.2299
G01 X72.6000 Y59.2127
G01 X72.6000 Y58.2049
G01 X72.6014 Y58.1909
G01 X72.6018 Y58.1776
