(G-CODE GENERATED BY FLATCAM v8.992 - www.flatcam.org - Version Date: 2020/05/03)

(Name: MSP430G2553.drl_10_cnc)
(Type: G-code from Excellon)
(Units: MM)

(Created on Friday, 29 May 2020 at 10:31)

(This preprocessor is the default preprocessor used by FlatCAM.)
(It is made to work with MACH3 compatible motion controllers.)


(TOOLS DIAMETER: )
(Tool: 1 -> Dia: 0.7)
(Tool: 2 -> Dia: 1.0)
(Tool: 3 -> Dia: 0.7)
(Tool: 4 -> Dia: 0.9)

(FEEDRATE Z: )
(Tool: 1 -> Feedrate: 150.0)
(Tool: 2 -> Feedrate: 150.0)
(Tool: 3 -> Feedrate: 150.0)
(Tool: 4 -> Feedrate: 150.0)

(FEEDRATE RAPIDS: )
(Tool: 1 -> Feedrate Rapids: 1500)
(Tool: 2 -> Feedrate Rapids: 1500)
(Tool: 3 -> Feedrate Rapids: 1500)
(Tool: 4 -> Feedrate Rapids: 1500)

(Z_CUT: )
(Tool: 1 -> Z_Cut: -2.0)
(Tool: 2 -> Z_Cut: -2.0)
(Tool: 3 -> Z_Cut: -2.0)
(Tool: 4 -> Z_Cut: -2.0)

(Tools Offset: )
(Tool: 2 -> Offset Z: -0.0)

(Z_MOVE: )
(Tool: 1 -> Z_Move: 1.0)
(Tool: 2 -> Z_Move: 1.0)
(Tool: 3 -> Z_Move: 1.0)
(Tool: 4 -> Z_Move: 1.0)

(Z Start: None mm)
(Z End: 2.0 mm)
(Steps per circle: 64)
(Preprocessor Excellon: default)

(X range:   56.6500 ...   83.8500  mm)
(Y range:   36.4000 ...   64.6250  mm)

(Spindle Speed: None RPM)
G21
G90
G94



G00 Z1.0000

G01 F150.00
M03
G4 P2.0
G00 X64.5000 Y55.2500
G01 Z-2.0000
G01 Z0
G00 Z1.0000
G00 X67.0400 Y55.2500
G01 Z-2.0000
G01 Z0
G00 Z1.0000
G00 X69.5800 Y55.2500
G01 Z-2.0000
G01 Z0
G00 Z1.0000
G00 X72.1200 Y55.2500
G01 Z-2.0000
G01 Z0
G00 Z1.0000
G00 X74.6600 Y55.2500
G01 Z-2.0000
G01 Z0
G00 Z1.0000
G00 X77.2000 Y55.2500
G01 Z-2.0000
G01 Z0
G00 Z1.0000
G00 X79.7400 Y55.2500
G01 Z-2.0000
G01 Z0
G00 Z1.0000
G00 X82.2800 Y55.2500
G01 Z-2.0000
G01 Z0
G00 Z1.0000
G00 X82.5000 Y50.2500
G01 Z-2.0000
G01 Z0
G00 Z1.0000
G00 X82.5000 Y47.7100
G01 Z-2.0000
G01 Z0
G00 Z1.0000
G00 X82.5000 Y45.1700
G01 Z-2.0000
G01 Z0
G00 Z1.0000
G00 X82.5000 Y42.6300
G01 Z-2.0000
G01 Z0
G00 Z1.0000
G00 X82.5000 Y40.0900
G01 Z-2.0000
G01 Z0
G00 Z1.0000
G00 X82.5000 Y37.5500
G01 Z-2.0000
G01 Z0
G00 Z1.0000
G00 X57.5000 Y48.7100
G01 Z-2.0000
G01 Z0
G00 Z1.0000
G00 X57.5000 Y51.2500
G01 Z-2.0000
G01 Z0
G00 Z1.0000
G00 X57.5000 Y55.7500
G01 Z-2.0000
G01 Z0
G00 Z1.0000
G00 X57.5000 Y58.2900
G01 Z-2.0000
G01 Z0
G00 Z1.0000
G00 X57.5000 Y60.8300
G01 Z-2.0000
G01 Z0
G00 Z1.0000
G00 X57.5000 Y63.3700
G01 Z-2.0000
G01 Z0
G00 Z1.0000
M05
G00 Z2.00

