(G-CODE GENERATED BY FLATCAM v8.992 - www.flatcam.org - Version Date: 2020/05/03)

(Name: MSP430G2553_I2C_array-F_Cu.gbr_iso_cnc)
(Type: G-code from Geometry)
(Units: MM)

(Created on Wednesday, 03 June 2020 at 18:15)

(This preprocessor is the default preprocessor used by FlatCAM.)
(It is made to work with MACH3 compatible motion controllers.)

(TOOL DIAMETER: 0.1 mm)
(Feedrate_XY: 2500.0 mm/min)
(Feedrate_Z: 400.0 mm/min)
(Feedrate rapids 1500.0 mm/min)

(Z_Cut: -0.04 mm)
(Z_Move: 1.0 mm)
(Z Start: None mm)
(Z End: 15.0 mm)
(Steps per circle: 64)
(Preprocessor Geometry: default)

(X range:   63.3500 ...   87.5000  mm)
(Y range:   25.8500 ...   90.1500  mm)

(Spindle Speed: None RPM)
G21
G90
G94



G01 F2500.00
G00 Z1.0000

M03
G00 X64.2500 Y27.8185
G01 F400.00
G01 Z-0.0400
G01 F2500.00
G01 X64.2500 Y27.6215
G01 X64.2885 Y27.4283
G01 X64.3638 Y27.2463
G01 X64.4733 Y27.0826
G01 X64.6126 Y26.9433
G01 X64.7763 Y26.8338
G01 X64.9583 Y26.7585
G01 X65.1515 Y26.7200
G01 X65.3485 Y26.7200
G01 X65.5417 Y26.7585
G01 X65.7237 Y26.8338
G01 X65.8874 Y26.9433
G01 X66.0267 Y27.0826
G01 X66.1362 Y27.2463
G01 X66.2115 Y27.4283
G01 X66.2500 Y27.6215
G01 X66.2500 Y27.8185
G01 X66.2115 Y28.0117
G01 X66.1854 Y28.0748
G01 X66.1822 Y28.0840
G01 X66.1798 Y28.0948
G01 X66.1788 Y28.1021
G01 X66.1783 Y28.1119
G01 X66.1788 Y28.1217
G01 X66.1802 Y28.1314
G01 X66.1826 Y28.1409
G01 X66.1859 Y28.1502
G01 X66.1901 Y28.1591
G01 X66.1951 Y28.1675
G01 X66.2010 Y28.1754
G01 X66.2076 Y28.1826
G01 X68.0957 Y30.0707
G01 X68.1020 Y30.0765
G01 X68.1108 Y30.0832
G01 X68.1214 Y30.0893
G01 X68.1281 Y30.0924
G01 X68.1362 Y30.0953
G01 X68.1481 Y30.0983
G01 X68.1566 Y30.0995
G01 X68.1652 Y30.1000
G01 X68.2542 Y30.1000
G01 X68.3604 Y30.1212
G01 X68.4605 Y30.1626
G01 X68.5506 Y30.2228
G01 X68.6272 Y30.2994
G01 X68.6874 Y30.3895
G01 X68.7288 Y30.4896
G01 X68.7500 Y30.5958
G01 X68.7500 Y30.7042
G01 X68.7288 Y30.8104
G01 X68.6874 Y30.9105
G01 X68.6272 Y31.0006
G01 X68.5506 Y31.0772
G01 X68.4605 Y31.1374
G01 X68.3604 Y31.1788
G01 X68.2542 Y31.2000
G01 X68.1458 Y31.2000
G01 X68.0396 Y31.1788
G01 X67.9395 Y31.1374
G01 X67.8494 Y31.0772
G01 X67.7728 Y31.0006
G01 X67.7126 Y30.9105
G01 X67.6712 Y30.8104
G01 X67.6500 Y30.7042
G01 X67.6500 Y30.6552
G01 X67.6495 Y30.6466
G01 X67.6481 Y30.6369
G01 X67.6449 Y30.6250
G01 X67.6424 Y30.6181
G01 X67.6388 Y30.6103
G01 X67.6332 Y30.6008
G01 X67.6257 Y30.5911
G01 X67.6207 Y30.5857
G01 X65.7126 Y28.6776
G01 X65.7072 Y28.6726
G01 X65.6985 Y28.6658
G01 X65.6901 Y28.6607
G01 X65.6802 Y28.6559
G01 X65.6721 Y28.6530
G01 X65.6614 Y28.6502
G01 X65.6517 Y28.6488
G01 X65.6419 Y28.6483
G01 X65.6333 Y28.6487
G01 X65.6212 Y28.6505
G01 X65.6129 Y28.6526
G01 X65.6059 Y28.6550
G01 X65.5417 Y28.6815
G01 X65.3485 Y28.7200
G01 X65.1515 Y28.7200
G01 X64.9583 Y28.6815
G01 X64.7763 Y28.6062
G01 X64.6126 Y28.4967
G01 X64.4733 Y28.3574
G01 X64.3638 Y28.1937
G01 X64.2885 Y28.0117
G01 X64.2500 Y27.8185
G00 Z1.0000
G00 X65.2525 Y26.8201
G01 F400.00
G01 Z-0.0400
G01 F2500.00
G01 X65.3382 Y26.8243
G01 X65.4232 Y26.8369
G01 X65.5113 Y26.8588
G01 X65.5967 Y26.8895
G01 X65.6743 Y26.9263
G01 X65.7479 Y26.9704
G01 X65.8210 Y27.0243
G01 X65.8881 Y27.0854
G01 X65.9457 Y27.1490
G01 X65.9969 Y27.2180
G01 X66.0425 Y27.2936
G01 X66.0815 Y27.3756
G01 X66.1119 Y27.4611
G01 X66.1327 Y27.5444
G01 X66.1454 Y27.6293
G01 X66.1500 Y27.7200
G01 X66.1454 Y27.8107
G01 X66.1327 Y27.8956
G01 X66.1119 Y27.9789
G01 X66.0815 Y28.0644
G01 X66.0448 Y28.1421
G01 X66.0379 Y28.1542
G01 X68.0963 Y30.2126
G01 X68.1134 Y30.2084
G01 X68.1547 Y30.2023
G01 X68.2012 Y30.2000
G01 X68.2441 Y30.2022
G01 X68.2854 Y30.2082
G01 X68.3318 Y30.2197
G01 X68.3722 Y30.2343
G01 X68.4099 Y30.2520
G01 X68.4500 Y30.2758
G01 X68.4855 Y30.3021
G01 X68.5164 Y30.3301
G01 X68.5486 Y30.3655
G01 X68.5742 Y30.4000
G01 X68.5969 Y30.4379
G01 X68.6157 Y30.4778
G01 X68.6306 Y30.5194
G01 X68.6414 Y30.5622
G01 X68.6478 Y30.6059
G01 X68.6500 Y30.6500
G01 X68.6478 Y30.6941
G01 X68.6414 Y30.7378
G01 X68.6306 Y30.7806
G01 X68.6157 Y30.8222
G01 X68.5969 Y30.8621
G01 X68.5742 Y30.9000
G01 X68.5479 Y30.9355
G01 X68.5182 Y30.9682
G01 X68.4845 Y30.9986
G01 X68.4500 Y31.0242
G01 X68.4121 Y31.0469
G01 X68.3722 Y31.0657
G01 X68.3330 Y31.0799
G01 X68.2854 Y31.0918
G01 X68.2441 Y31.0978
G01 X68.2000 Y31.1000
G01 X68.1559 Y31.0978
G01 X68.1122 Y31.0914
G01 X68.0694 Y31.0806
G01 X68.0301 Y31.0666
G01 X67.9879 Y31.0469
G01 X67.9521 Y31.0255
G01 X67.9127 Y30.9963
G01 X67.8801 Y30.9664
G01 X67.8521 Y30.9355
G01 X67.8273 Y30.9020
G01 X67.8031 Y30.8621
G01 X67.7838 Y30.8211
G01 X67.7694 Y30.7806
G01 X67.7592 Y30.7402
G01 X67.7523 Y30.6953
G01 X67.7500 Y30.6488
G01 X67.7522 Y30.6059
G01 X67.7560 Y30.5797
G01 X65.6842 Y28.5079
G01 X65.6721 Y28.5148
G01 X65.5921 Y28.5524
G01 X65.5113 Y28.5812
G01 X65.4232 Y28.6031
G01 X65.3382 Y28.6157
G01 X65.2500 Y28.6200
G01 X65.1618 Y28.6157
G01 X65.0744 Y28.6027
G01 X64.9887 Y28.5812
G01 X64.9056 Y28.5515
G01 X64.8257 Y28.5137
G01 X64.7521 Y28.4696
G01 X64.6772 Y28.4141
G01 X64.6136 Y28.3564
G01 X64.5535 Y28.2900
G01 X64.5017 Y28.2200
G01 X64.4575 Y28.1464
G01 X64.4185 Y28.0644
G01 X64.3881 Y27.9789
G01 X64.3673 Y27.8956
G01 X64.3543 Y27.8082
G01 X64.3500 Y27.7200
G01 X64.3542 Y27.6342
G01 X64.3673 Y27.5444
G01 X64.3895 Y27.4564
G01 X64.4185 Y27.3756
G01 X64.4552 Y27.2979
G01 X64.5017 Y27.2200
G01 X64.5559 Y27.1472
G01 X64.6136 Y27.0836
G01 X64.6772 Y27.0259
G01 X64.7521 Y26.9704
G01 X64.8257 Y26.9263
G01 X64.9033 Y26.8895
G01 X64.9887 Y26.8588
G01 X65.0744 Y26.8373
G01 X65.1593 Y26.8246
G01 X65.2525 Y26.8201
G00 Z1.0000
G00 X65.2525 Y29.3601
G01 F400.00
G01 Z-0.0400
G01 F2500.00
G01 X65.3407 Y29.3646
G01 X65.4256 Y29.3773
G01 X65.5089 Y29.3981
G01 X65.5944 Y29.4285
G01 X65.6721 Y29.4652
G01 X65.7500 Y29.5117
G01 X65.8210 Y29.5643
G01 X65.8864 Y29.6236
G01 X65.9457 Y29.6890
G01 X65.9996 Y29.7621
G01 X66.0437 Y29.8357
G01 X66.0815 Y29.9156
G01 X66.1119 Y30.0011
G01 X66.1327 Y30.0844
G01 X66.1457 Y30.1718
G01 X66.1500 Y30.2600
G01 X66.1458 Y30.3458
G01 X66.1327 Y30.4356
G01 X66.1112 Y30.5213
G01 X66.0824 Y30.6021
G01 X66.0448 Y30.6821
G01 X66.0379 Y30.6942
G01 X67.7436 Y32.3999
G01 X68.0759 Y32.3999
G01 X68.1021 Y32.3645
G01 X68.1336 Y32.3301
G01 X68.1645 Y32.3021
G01 X68.1980 Y32.2773
G01 X68.2357 Y32.2543
G01 X68.2778 Y32.2343
G01 X68.3194 Y32.2194
G01 X68.3622 Y32.2086
G01 X68.4071 Y32.2021
G01 X68.4500 Y32.2000
G01 X68.4965 Y32.2025
G01 X68.5402 Y32.2092
G01 X68.5806 Y32.2194
G01 X68.6199 Y32.2334
G01 X68.6621 Y32.2531
G01 X68.7000 Y32.2758
G01 X68.7355 Y32.3021
G01 X68.7691 Y32.3327
G01 X68.7979 Y32.3645
G01 X68.8242 Y32.4000
G01 X68.8469 Y32.4379
G01 X68.8657 Y32.4778
G01 X68.8806 Y32.5194
G01 X68.8914 Y32.5622
G01 X68.8978 Y32.6059
G01 X68.9000 Y32.6500
G01 X68.8978 Y32.6941
G01 X68.8914 Y32.7378
G01 X68.8806 Y32.7806
G01 X68.8657 Y32.8222
G01 X68.8469 Y32.8621
G01 X68.8242 Y32.9000
G01 X68.7979 Y32.9355
G01 X68.7673 Y32.9691
G01 X68.7355 Y32.9979
G01 X68.6979 Y33.0255
G01 X68.6621 Y33.0469
G01 X68.6245 Y33.0648
G01 X68.5830 Y33.0799
G01 X68.5378 Y33.0914
G01 X68.4941 Y33.0978
G01 X68.4500 Y33.1000
G01 X68.4071 Y33.0979
G01 X68.3622 Y33.0914
G01 X68.3194 Y33.0806
G01 X68.2778 Y33.0657
G01 X68.2357 Y33.0457
G01 X68.1980 Y33.0227
G01 X68.1645 Y32.9979
G01 X68.1336 Y32.9699
G01 X68.1021 Y32.9355
G01 X68.0759 Y32.9001
G01 X67.6400 Y32.9001
G01 X67.6179 Y32.8991
G01 X67.5912 Y32.8953
G01 X67.5674 Y32.8893
G01 X67.5443 Y32.8811
G01 X67.5232 Y32.8711
G01 X67.4990 Y32.8565
G01 X67.4813 Y32.8433
G01 X67.4632 Y32.8268
G01 X65.6842 Y31.0479
G01 X65.6721 Y31.0548
G01 X65.5921 Y31.0924
G01 X65.5113 Y31.1212
G01 X65.4256 Y31.1427
G01 X65.3382 Y31.1557
G01 X65.2525 Y31.1599
G01 X65.1593 Y31.1554
G01 X65.0744 Y31.1427
G01 X64.9887 Y31.1212
G01 X64.9056 Y31.0915
G01 X64.8279 Y31.0548
G01 X64.7480 Y31.0069
G01 X64.6790 Y30.9557
G01 X64.6127 Y30.8955
G01 X64.5543 Y30.8310
G01 X64.5031 Y30.7620
G01 X64.4563 Y30.6843
G01 X64.4185 Y30.6044
G01 X64.3895 Y30.5236
G01 X64.3673 Y30.4356
G01 X64.3542 Y30.3458
G01 X64.3500 Y30.2600
G01 X64.3543 Y30.1718
G01 X64.3673 Y30.0844
G01 X64.3881 Y30.0011
G01 X64.4185 Y29.9156
G01 X64.4563 Y29.8357
G01 X64.5004 Y29.7621
G01 X64.5543 Y29.6890
G01 X64.6136 Y29.6236
G01 X64.6772 Y29.5659
G01 X64.7500 Y29.5117
G01 X64.8279 Y29.4652
G01 X64.9056 Y29.4285
G01 X64.9887 Y29.3988
G01 X65.0744 Y29.3773
G01 X65.1593 Y29.3646
G01 X65.2525 Y29.3601
G00 Z1.0000
G00 X65.2525 Y31.9001
G01 F400.00
G01 Z-0.0400
G01 F2500.00
G01 X65.3407 Y31.9046
G01 X65.4256 Y31.9173
G01 X65.5089 Y31.9381
G01 X65.5944 Y31.9685
G01 X65.6743 Y32.0063
G01 X65.7500 Y32.0517
G01 X65.8228 Y32.1059
G01 X65.8864 Y32.1636
G01 X65.9441 Y32.2272
G01 X65.9976 Y32.2990
G01 X66.0448 Y32.3779
G01 X66.0815 Y32.4556
G01 X66.1112 Y32.5387
G01 X66.1331 Y32.6268
G01 X66.1457 Y32.7118
G01 X66.1499 Y32.7975
G01 X66.1454 Y32.8907
G01 X66.1327 Y32.9756
G01 X66.1119 Y33.0589
G01 X66.0815 Y33.1444
G01 X66.0448 Y33.2221
G01 X66.0379 Y33.2342
G01 X66.5786 Y33.7749
G01 X70.5318 Y33.7749
G01 X70.5356 Y33.7692
G01 X70.5396 Y33.7646
G01 X70.5442 Y33.7606
G01 X70.5493 Y33.7571
G01 X70.5559 Y33.7538
G01 X70.5617 Y33.7518
G01 X70.5677 Y33.7505
G01 X70.5738 Y33.7500
G01 X72.0299 Y33.7502
G01 X72.0383 Y33.7518
G01 X72.0464 Y33.7548
G01 X72.0538 Y33.7591
G01 X72.0604 Y33.7646
G01 X72.0659 Y33.7712
G01 X72.0702 Y33.7786
G01 X72.0732 Y33.7867
G01 X72.0749 Y33.7963
G01 X72.0750 Y34.2500
G01 X72.0743 Y34.2585
G01 X72.0721 Y34.2668
G01 X72.0685 Y34.2746
G01 X72.0644 Y34.2808
G01 X72.0595 Y34.2862
G01 X72.0538 Y34.2909
G01 X72.0475 Y34.2947
G01 X72.0407 Y34.2975
G01 X72.0335 Y34.2993
G01 X72.0262 Y34.3000
G01 X70.5750 Y34.3000
G01 X70.5689 Y34.2996
G01 X70.5629 Y34.2985
G01 X70.5570 Y34.2966
G01 X70.5504 Y34.2935
G01 X70.5442 Y34.2894
G01 X70.5396 Y34.2854
G01 X70.5356 Y34.2808
G01 X70.5318 Y34.2751
G01 X66.4750 Y34.2751
G01 X66.4505 Y34.2739
G01 X66.4286 Y34.2707
G01 X66.4001 Y34.2636
G01 X66.3770 Y34.2551
G01 X66.3571 Y34.2456
G01 X66.3381 Y34.2343
G01 X66.3163 Y34.2183
G01 X66.2990 Y34.2027
G01 X65.6842 Y33.5879
G01 X65.6721 Y33.5948
G01 X65.5944 Y33.6315
G01 X65.5113 Y33.6612
G01 X65.4256 Y33.6827
G01 X65.3382 Y33.6957
G01 X65.2500 Y33.7000
G01 X65.1618 Y33.6957
G01 X65.0744 Y33.6827
G01 X64.9887 Y33.6612
G01 X64.9056 Y33.6315
G01 X64.8257 Y33.5937
G01 X64.7500 Y33.5483
G01 X64.6790 Y33.4957
G01 X64.6136 Y33.4364
G01 X64.5543 Y33.3710
G01 X64.5017 Y33.3000
G01 X64.4552 Y33.2221
G01 X64.4185 Y33.1444
G01 X64.3895 Y33.0636
G01 X64.3673 Y32.9756
G01 X64.3542 Y32.8858
G01 X64.3500 Y32.8000
G01 X64.3542 Y32.7142
G01 X64.3673 Y32.6244
G01 X64.3895 Y32.5364
G01 X64.4185 Y32.4556
G01 X64.4552 Y32.3779
G01 X64.5004 Y32.3021
G01 X64.5543 Y32.2290
G01 X64.6154 Y32.1619
G01 X64.6790 Y32.1043
G01 X64.7480 Y32.0531
G01 X64.8257 Y32.0063
G01 X64.9079 Y31.9676
G01 X64.9887 Y31.9388
G01 X65.0720 Y31.9178
G01 X65.1618 Y31.9043
G01 X65.2525 Y31.9001
G00 Z1.0000
G00 X65.2525 Y34.4401
G01 F400.00
G01 Z-0.0400
G01 F2500.00
G01 X65.3382 Y34.4443
G01 X65.4232 Y34.4569
G01 X65.5136 Y34.4795
G01 X65.5944 Y34.5085
G01 X65.6743 Y34.5463
G01 X65.7500 Y34.5917
G01 X65.8190 Y34.6428
G01 X65.8881 Y34.7054
G01 X65.9457 Y34.7690
G01 X65.9983 Y34.8400
G01 X66.0437 Y34.9157
G01 X66.0805 Y34.9933
G01 X66.1105 Y35.0764
G01 X66.1141 Y35.0899
G01 X66.3485 Y35.0899
G01 X66.9402 Y34.4982
G01 X66.9575 Y34.4825
G01 X66.9781 Y34.4670
G01 X66.9970 Y34.4556
G01 X67.0237 Y34.4431
G01 X67.0445 Y34.4357
G01 X67.0683 Y34.4297
G01 X67.0926 Y34.4261
G01 X67.1159 Y34.4249
G01 X70.5318 Y34.4249
G01 X70.5356 Y34.4192
G01 X70.5396 Y34.4146
G01 X70.5442 Y34.4106
G01 X70.5493 Y34.4071
G01 X70.5559 Y34.4038
G01 X70.5617 Y34.4018
G01 X70.5677 Y34.4005
G01 X70.5738 Y34.4000
G01 X72.0299 Y34.4002
G01 X72.0383 Y34.4018
G01 X72.0464 Y34.4048
G01 X72.0538 Y34.4091
G01 X72.0604 Y34.4146
G01 X72.0659 Y34.4212
G01 X72.0702 Y34.4286
G01 X72.0732 Y34.4367
G01 X72.0748 Y34.4451
G01 X72.0749 Y34.9037
G01 X72.0732 Y34.9133
G01 X72.0702 Y34.9214
G01 X72.0659 Y34.9288
G01 X72.0595 Y34.9362
G01 X72.0517 Y34.9422
G01 X72.0430 Y34.9466
G01 X72.0335 Y34.9493
G01 X72.0250 Y34.9500
G01 X70.5738 Y34.9500
G01 X70.5677 Y34.9495
G01 X70.5617 Y34.9482
G01 X70.5547 Y34.9457
G01 X70.5493 Y34.9429
G01 X70.5442 Y34.9394
G01 X70.5396 Y34.9354
G01 X70.5356 Y34.9308
G01 X70.5318 Y34.9251
G01 X67.2207 Y34.9251
G01 X66.6289 Y35.5168
G01 X66.6107 Y35.5333
G01 X66.5890 Y35.5493
G01 X66.5700 Y35.5606
G01 X66.5500 Y35.5701
G01 X66.5270 Y35.5786
G01 X66.5009 Y35.5853
G01 X66.4754 Y35.5890
G01 X66.4521 Y35.5901
G01 X66.1141 Y35.5901
G01 X66.1105 Y35.6036
G01 X66.0805 Y35.6867
G01 X66.0437 Y35.7643
G01 X65.9969 Y35.8420
G01 X65.9457 Y35.9110
G01 X65.8864 Y35.9764
G01 X65.8210 Y36.0357
G01 X65.7490 Y36.0890
G01 X65.6743 Y36.1337
G01 X65.5967 Y36.1705
G01 X65.5089 Y36.2019
G01 X65.4256 Y36.2227
G01 X65.3382 Y36.2357
G01 X65.2500 Y36.2400
G01 X65.1630 Y36.2358
G01 X65.0744 Y36.2227
G01 X64.9887 Y36.2012
G01 X64.9056 Y36.1715
G01 X64.8257 Y36.1337
G01 X64.7500 Y36.0883
G01 X64.6790 Y36.0357
G01 X64.6136 Y35.9764
G01 X64.5543 Y35.9110
G01 X64.5017 Y35.8400
G01 X64.4563 Y35.7643
G01 X64.4185 Y35.6844
G01 X64.3888 Y35.6013
G01 X64.3673 Y35.5156
G01 X64.3543 Y35.4282
G01 X64.3500 Y35.3400
G01 X64.3542 Y35.2542
G01 X64.3673 Y35.1644
G01 X64.3888 Y35.0787
G01 X64.4185 Y34.9956
G01 X64.4563 Y34.9157
G01 X64.5017 Y34.8400
G01 X64.5543 Y34.7690
G01 X64.6136 Y34.7036
G01 X64.6772 Y34.6459
G01 X64.7500 Y34.5917
G01 X64.8257 Y34.5463
G01 X64.9056 Y34.5085
G01 X64.9864 Y34.4795
G01 X65.0744 Y34.4573
G01 X65.1593 Y34.4446
G01 X65.2525 Y34.4401
G00 Z1.0000
G00 X65.2525 Y36.9801
G01 F400.00
G01 Z-0.0400
G01 F2500.00
G01 X65.3407 Y36.9846
G01 X65.4256 Y36.9973
G01 X65.5089 Y37.0181
G01 X65.5944 Y37.0485
G01 X65.6721 Y37.0852
G01 X65.6842 Y37.0921
G01 X67.6282 Y35.1482
G01 X67.6483 Y35.1302
G01 X67.6661 Y35.1170
G01 X67.6850 Y35.1056
G01 X67.7093 Y35.0939
G01 X67.7336 Y35.0853
G01 X67.7562 Y35.0797
G01 X67.7781 Y35.0764
G01 X67.8050 Y35.0749
G01 X70.5318 Y35.0749
G01 X70.5356 Y35.0692
G01 X70.5396 Y35.0646
G01 X70.5442 Y35.0606
G01 X70.5493 Y35.0571
G01 X70.5559 Y35.0538
G01 X70.5617 Y35.0518
G01 X70.5677 Y35.0505
G01 X70.5738 Y35.0500
G01 X72.0250 Y35.0500
G01 X72.0323 Y35.0505
G01 X72.0407 Y35.0525
G01 X72.0475 Y35.0553
G01 X72.0548 Y35.0598
G01 X72.0604 Y35.0646
G01 X72.0659 Y35.0712
G01 X72.0702 Y35.0786
G01 X72.0732 Y35.0867
G01 X72.0746 Y35.0939
G01 X72.0750 Y35.1000
G01 X72.0749 Y35.5537
G01 X72.0735 Y35.5621
G01 X72.0707 Y35.5703
G01 X72.0666 Y35.5778
G01 X72.0612 Y35.5845
G01 X72.0548 Y35.5902
G01 X72.0475 Y35.5947
G01 X72.0395 Y35.5978
G01 X72.0311 Y35.5996
G01 X72.0250 Y35.6000
G01 X70.5738 Y35.6000
G01 X70.5677 Y35.5995
G01 X70.5617 Y35.5982
G01 X70.5547 Y35.5957
G01 X70.5493 Y35.5929
G01 X70.5442 Y35.5894
G01 X70.5396 Y35.5854
G01 X70.5356 Y35.5808
G01 X70.5318 Y35.5751
G01 X67.9086 Y35.5751
G01 X66.0379 Y37.4458
G01 X66.0448 Y37.4579
G01 X66.0824 Y37.5379
G01 X66.1112 Y37.6187
G01 X66.1327 Y37.7044
G01 X66.1458 Y37.7942
G01 X66.1500 Y37.8800
G01 X66.1457 Y37.9682
G01 X66.1327 Y38.0556
G01 X66.1119 Y38.1389
G01 X66.0815 Y38.2244
G01 X66.0437 Y38.3043
G01 X65.9996 Y38.3779
G01 X65.9457 Y38.4510
G01 X65.8864 Y38.5164
G01 X65.8210 Y38.5757
G01 X65.7500 Y38.6283
G01 X65.6721 Y38.6748
G01 X65.5944 Y38.7115
G01 X65.5136 Y38.7405
G01 X65.4280 Y38.7622
G01 X65.3382 Y38.7757
G01 X65.2500 Y38.7800
G01 X65.1618 Y38.7757
G01 X65.0744 Y38.7627
G01 X64.9887 Y38.7412
G01 X64.9056 Y38.7115
G01 X64.8257 Y38.6737
G01 X64.7500 Y38.6283
G01 X64.6790 Y38.5757
G01 X64.6136 Y38.5164
G01 X64.5543 Y38.4510
G01 X64.5017 Y38.3800
G01 X64.4563 Y38.3043
G01 X64.4185 Y38.2244
G01 X64.3888 Y38.1413
G01 X64.3673 Y38.0556
G01 X64.3543 Y37.9682
G01 X64.3500 Y37.8800
G01 X64.3543 Y37.7918
G01 X64.3673 Y37.7044
G01 X64.3888 Y37.6187
G01 X64.4185 Y37.5356
G01 X64.4563 Y37.4557
G01 X64.5017 Y37.3800
G01 X64.5543 Y37.3090
G01 X64.6136 Y37.2436
G01 X64.6790 Y37.1843
G01 X64.7500 Y37.1317
G01 X64.8257 Y37.0863
G01 X64.9056 Y37.0485
G01 X64.9887 Y37.0188
G01 X65.0744 Y36.9973
G01 X65.1618 Y36.9843
G01 X65.2525 Y36.9801
G00 Z1.0000
G00 X65.2525 Y39.5201
G01 F400.00
G01 Z-0.0400
G01 F2500.00
G01 X65.3407 Y39.5246
G01 X65.4256 Y39.5373
G01 X65.5089 Y39.5581
G01 X65.5944 Y39.5885
G01 X65.6721 Y39.6252
G01 X65.6842 Y39.6321
G01 X67.6999 Y37.6164
G01 X67.6999 Y36.6488
G01 X67.7011 Y36.6255
G01 X67.7047 Y36.6012
G01 X67.7107 Y36.5774
G01 X67.7194 Y36.5532
G01 X67.7294 Y36.5321
G01 X67.7420 Y36.5111
G01 X67.7567 Y36.4913
G01 X67.7732 Y36.4732
G01 X68.4482 Y35.7982
G01 X68.4683 Y35.7802
G01 X68.4861 Y35.7670
G01 X68.5060 Y35.7550
G01 X68.5293 Y35.7439
G01 X68.5548 Y35.7350
G01 X68.5762 Y35.7297
G01 X68.5981 Y35.7264
G01 X68.6238 Y35.7249
G01 X70.5318 Y35.7249
G01 X70.5356 Y35.7192
G01 X70.5396 Y35.7146
G01 X70.5442 Y35.7106
G01 X70.5504 Y35.7065
G01 X70.5559 Y35.7038
G01 X70.5617 Y35.7018
G01 X70.5677 Y35.7005
G01 X70.5750 Y35.7000
G01 X72.0262 Y35.7000
G01 X72.0323 Y35.7005
G01 X72.0383 Y35.7018
G01 X72.0453 Y35.7043
G01 X72.0507 Y35.7071
G01 X72.0558 Y35.7106
G01 X72.0604 Y35.7146
G01 X72.0652 Y35.7202
G01 X72.0685 Y35.7254
G01 X72.0712 Y35.7309
G01 X72.0732 Y35.7367
G01 X72.0745 Y35.7427
G01 X72.0750 Y35.7488
G01 X72.0749 Y36.2037
G01 X72.0738 Y36.2110
G01 X72.0712 Y36.2191
G01 X72.0672 Y36.2267
G01 X72.0620 Y36.2336
G01 X72.0558 Y36.2394
G01 X72.0486 Y36.2441
G01 X72.0407 Y36.2475
G01 X72.0323 Y36.2495
G01 X72.0250 Y36.2500
G01 X70.5738 Y36.2500
G01 X70.5677 Y36.2495
G01 X70.5617 Y36.2482
G01 X70.5547 Y36.2457
G01 X70.5493 Y36.2429
G01 X70.5442 Y36.2394
G01 X70.5396 Y36.2354
G01 X70.5356 Y36.2308
G01 X70.5318 Y36.2251
G01 X68.7286 Y36.2251
G01 X68.2001 Y36.7536
G01 X68.2000 Y37.7225
G01 X68.1989 Y37.7445
G01 X68.1957 Y37.7664
G01 X68.1893 Y37.7926
G01 X68.1801 Y37.8180
G01 X68.1706 Y37.8379
G01 X68.1580 Y37.8589
G01 X68.1433 Y37.8787
G01 X68.1268 Y37.8968
G01 X66.0379 Y39.9858
G01 X66.0448 Y39.9979
G01 X66.0824 Y40.0779
G01 X66.1112 Y40.1587
G01 X66.1327 Y40.2444
G01 X66.1458 Y40.3342
G01 X66.1500 Y40.4200
G01 X66.1457 Y40.5082
G01 X66.1327 Y40.5956
G01 X66.1119 Y40.6789
G01 X66.0815 Y40.7644
G01 X66.0437 Y40.8443
G01 X65.9996 Y40.9179
G01 X65.9457 Y40.9910
G01 X65.8864 Y41.0564
G01 X65.8210 Y41.1157
G01 X65.7500 Y41.1683
G01 X65.6721 Y41.2148
G01 X65.5944 Y41.2515
G01 X65.5136 Y41.2805
G01 X65.4280 Y41.3022
G01 X65.3382 Y41.3157
G01 X65.2500 Y41.3200
G01 X65.1618 Y41.3157
G01 X65.0744 Y41.3027
G01 X64.9887 Y41.2812
G01 X64.9056 Y41.2515
G01 X64.8257 Y41.2137
G01 X64.7500 Y41.1683
G01 X64.6790 Y41.1157
G01 X64.6136 Y41.0564
G01 X64.5543 Y40.9910
G01 X64.5017 Y40.9200
G01 X64.4563 Y40.8443
G01 X64.4185 Y40.7644
G01 X64.3888 Y40.6813
G01 X64.3673 Y40.5956
G01 X64.3543 Y40.5082
G01 X64.3500 Y40.4200
G01 X64.3543 Y40.3318
G01 X64.3673 Y40.2444
G01 X64.3888 Y40.1587
G01 X64.4185 Y40.0756
G01 X64.4563 Y39.9957
G01 X64.5017 Y39.9200
G01 X64.5543 Y39.8490
G01 X64.6136 Y39.7836
G01 X64.6790 Y39.7243
G01 X64.7500 Y39.6717
G01 X64.8257 Y39.6263
G01 X64.9056 Y39.5885
G01 X64.9887 Y39.5588
G01 X65.0744 Y39.5373
G01 X65.1618 Y39.5243
G01 X65.2525 Y39.5201
G00 Z1.0000
G00 X65.2525 Y42.0601
G01 F400.00
G01 Z-0.0400
G01 F2500.00
G01 X65.3407 Y42.0646
G01 X65.4256 Y42.0773
G01 X65.5089 Y42.0981
G01 X65.5944 Y42.1285
G01 X65.6721 Y42.1652
G01 X65.6842 Y42.1721
G01 X68.4499 Y39.4064
G01 X68.4499 Y36.8750
G01 X68.4512 Y36.8493
G01 X68.4547 Y36.8262
G01 X68.4600 Y36.8048
G01 X68.4689 Y36.7793
G01 X68.4806 Y36.7550
G01 X68.4920 Y36.7361
G01 X68.5067 Y36.7163
G01 X68.5232 Y36.6982
G01 X68.7732 Y36.4482
G01 X68.7913 Y36.4317
G01 X68.8111 Y36.4170
G01 X68.8300 Y36.4056
G01 X68.8566 Y36.3931
G01 X68.8774 Y36.3857
G01 X68.9012 Y36.3797
G01 X68.9255 Y36.3761
G01 X68.9488 Y36.3749
G01 X70.5318 Y36.3749
G01 X70.5356 Y36.3692
G01 X70.5396 Y36.3646
G01 X70.5442 Y36.3606
G01 X70.5504 Y36.3565
G01 X70.5559 Y36.3538
G01 X70.5617 Y36.3518
G01 X70.5677 Y36.3505
G01 X70.5750 Y36.3500
G01 X72.0262 Y36.3500
G01 X72.0323 Y36.3505
G01 X72.0371 Y36.3515
G01 X72.0418 Y36.3529
G01 X72.0475 Y36.3553
G01 X72.0528 Y36.3584
G01 X72.0567 Y36.3613
G01 X72.0637 Y36.3683
G01 X72.0685 Y36.3754
G01 X72.0721 Y36.3832
G01 X72.0743 Y36.3915
G01 X72.0750 Y36.3988
G01 X72.0749 Y36.8525
G01 X72.0738 Y36.8610
G01 X72.0712 Y36.8691
G01 X72.0672 Y36.8767
G01 X72.0629 Y36.8827
G01 X72.0567 Y36.8887
G01 X72.0507 Y36.8929
G01 X72.0430 Y36.8966
G01 X72.0348 Y36.8990
G01 X72.0250 Y36.9000
G01 X70.5750 Y36.9000
G01 X70.5689 Y36.8996
G01 X70.5629 Y36.8985
G01 X70.5570 Y36.8966
G01 X70.5504 Y36.8935
G01 X70.5442 Y36.8894
G01 X70.5396 Y36.8854
G01 X70.5356 Y36.8808
G01 X70.5318 Y36.8751
G01 X69.0536 Y36.8751
G01 X68.9501 Y36.9786
G01 X68.9501 Y39.5100
G01 X68.9489 Y39.5345
G01 X68.9448 Y39.5612
G01 X68.9393 Y39.5826
G01 X68.9319 Y39.6034
G01 X68.9206 Y39.6279
G01 X68.9080 Y39.6489
G01 X68.8948 Y39.6667
G01 X68.8768 Y39.6868
G01 X66.0379 Y42.5258
G01 X66.0448 Y42.5379
G01 X66.0824 Y42.6179
G01 X66.1112 Y42.6987
G01 X66.1327 Y42.7844
G01 X66.1458 Y42.8742
G01 X66.1500 Y42.9600
G01 X66.1457 Y43.0482
G01 X66.1327 Y43.1356
G01 X66.1119 Y43.2189
G01 X66.0815 Y43.3044
G01 X66.0437 Y43.3843
G01 X65.9996 Y43.4579
G01 X65.9449 Y43.5319
G01 X65.8864 Y43.5964
G01 X65.8190 Y43.6572
G01 X65.7479 Y43.7096
G01 X65.6743 Y43.7537
G01 X65.5967 Y43.7905
G01 X65.5113 Y43.8212
G01 X65.4256 Y43.8427
G01 X65.3382 Y43.8557
G01 X65.2500 Y43.8600
G01 X65.1618 Y43.8557
G01 X65.0744 Y43.8427
G01 X64.9887 Y43.8212
G01 X64.9056 Y43.7915
G01 X64.8257 Y43.7537
G01 X64.7500 Y43.7083
G01 X64.6790 Y43.6557
G01 X64.6136 Y43.5964
G01 X64.5543 Y43.5310
G01 X64.5017 Y43.4600
G01 X64.4563 Y43.3843
G01 X64.4185 Y43.3044
G01 X64.3888 Y43.2213
G01 X64.3673 Y43.1356
G01 X64.3543 Y43.0482
G01 X64.3500 Y42.9600
G01 X64.3543 Y42.8718
G01 X64.3673 Y42.7844
G01 X64.3888 Y42.6987
G01 X64.4185 Y42.6156
G01 X64.4563 Y42.5357
G01 X64.5017 Y42.4600
G01 X64.5543 Y42.3890
G01 X64.6136 Y42.3236
G01 X64.6790 Y42.2643
G01 X64.7500 Y42.2117
G01 X64.8257 Y42.1663
G01 X64.9056 Y42.1285
G01 X64.9887 Y42.0988
G01 X65.0744 Y42.0773
G01 X65.1618 Y42.0643
G01 X65.2525 Y42.0601
G00 Z1.0000
G00 X64.4000 Y44.6000
G01 F400.00
G01 Z-0.0400
G01 F2500.00
G01 X65.8963 Y44.6000
G01 X69.1999 Y41.2964
G01 X69.1999 Y37.2738
G01 X69.2011 Y37.2505
G01 X69.2047 Y37.2262
G01 X69.2107 Y37.2024
G01 X69.2189 Y37.1793
G01 X69.2294 Y37.1571
G01 X69.2420 Y37.1361
G01 X69.2567 Y37.1163
G01 X69.2732 Y37.0982
G01 X69.2913 Y37.0817
G01 X69.3111 Y37.0670
G01 X69.3321 Y37.0544
G01 X69.3543 Y37.0439
G01 X69.3774 Y37.0357
G01 X69.4012 Y37.0297
G01 X69.4255 Y37.0261
G01 X69.4488 Y37.0249
G01 X70.5318 Y37.0249
G01 X70.5356 Y37.0192
G01 X70.5396 Y37.0146
G01 X70.5442 Y37.0106
G01 X70.5504 Y37.0065
G01 X70.5559 Y37.0038
G01 X70.5617 Y37.0018
G01 X70.5677 Y37.0005
G01 X70.5750 Y37.0000
G01 X72.0250 Y37.0000
G01 X72.0348 Y37.0010
G01 X72.0441 Y37.0038
G01 X72.0528 Y37.0084
G01 X72.0604 Y37.0146
G01 X72.0666 Y37.0222
G01 X72.0712 Y37.0309
G01 X72.0740 Y37.0402
G01 X72.0750 Y37.0488
G01 X72.0749 Y37.5025
G01 X72.0738 Y37.5110
G01 X72.0716 Y37.5180
G01 X72.0685 Y37.5246
G01 X72.0637 Y37.5317
G01 X72.0577 Y37.5379
G01 X72.0517 Y37.5422
G01 X72.0441 Y37.5462
G01 X72.0360 Y37.5488
G01 X72.0299 Y37.5498
G01 X72.0250 Y37.5500
G01 X70.5750 Y37.5500
G01 X70.5689 Y37.5496
G01 X70.5629 Y37.5485
G01 X70.5570 Y37.5466
G01 X70.5504 Y37.5435
G01 X70.5442 Y37.5394
G01 X70.5396 Y37.5354
G01 X70.5356 Y37.5308
G01 X70.5318 Y37.5251
G01 X69.7001 Y37.5251
G01 X69.7001 Y41.4000
G01 X69.6989 Y41.4245
G01 X69.6953 Y41.4488
G01 X69.6893 Y41.4726
G01 X69.6801 Y41.4980
G01 X69.6706 Y41.5179
G01 X69.6580 Y41.5389
G01 X69.6433 Y41.5587
G01 X69.6268 Y41.5768
G01 X66.1500 Y45.0537
G01 X66.1500 Y45.3999
G01 X68.4000 Y45.3999
G01 X68.4000 Y45.0238
G01 X68.4020 Y44.9833
G01 X68.4077 Y44.9445
G01 X68.4183 Y44.9016
G01 X68.4324 Y44.8624
G01 X68.4502 Y44.8247
G01 X68.4716 Y44.7889
G01 X68.4965 Y44.7554
G01 X68.5245 Y44.7245
G01 X68.5554 Y44.6965
G01 X68.5889 Y44.6716
G01 X68.6236 Y44.6508
G01 X68.6624 Y44.6324
G01 X68.7040 Y44.6176
G01 X68.7421 Y44.6082
G01 X68.7809 Y44.6023
G01 X68.8238 Y44.6000
G01 X69.5762 Y44.6000
G01 X69.6167 Y44.6020
G01 X69.6579 Y44.6082
G01 X69.6984 Y44.6183
G01 X69.7376 Y44.6324
G01 X69.7753 Y44.6502
G01 X69.8090 Y44.6703
G01 X69.8446 Y44.6965
G01 X69.8772 Y44.7263
G01 X69.9035 Y44.7554
G01 X69.9270 Y44.7869
G01 X69.9498 Y44.8247
G01 X69.9685 Y44.8646
G01 X69.9817 Y44.9016
G01 X69.9913 Y44.9397
G01 X69.9981 Y44.9846
G01 X70.0000 Y45.0250
G01 X70.0000 Y46.2750
G01 X69.9981 Y46.3154
G01 X69.9918 Y46.3579
G01 X69.9824 Y46.3960
G01 X69.9667 Y46.4399
G01 X69.9498 Y46.4753
G01 X69.9284 Y46.5111
G01 X69.9035 Y46.5446
G01 X69.8755 Y46.5755
G01 X69.8446 Y46.6035
G01 X69.8111 Y46.6284
G01 X69.7753 Y46.6498
G01 X69.7399 Y46.6667
G01 X69.6960 Y46.6824
G01 X69.6579 Y46.6918
G01 X69.6154 Y46.6981
G01 X69.5750 Y46.7000
G01 X68.8238 Y46.7000
G01 X68.7833 Y46.6980
G01 X68.7421 Y46.6918
G01 X68.7016 Y46.6817
G01 X68.6612 Y46.6672
G01 X68.6247 Y46.6498
G01 X68.5889 Y46.6284
G01 X68.5554 Y46.6035
G01 X68.5228 Y46.5737
G01 X68.4965 Y46.5446
G01 X68.4730 Y46.5131
G01 X68.4514 Y46.4775
G01 X68.4324 Y46.4376
G01 X68.4187 Y46.3995
G01 X68.4077 Y46.3555
G01 X68.4020 Y46.3167
G01 X68.4001 Y46.2775
G01 X68.4000 Y45.9001
G01 X66.1500 Y45.9001
G01 X66.1499 Y46.3537
G01 X66.1488 Y46.3610
G01 X66.1466 Y46.3680
G01 X66.1435 Y46.3746
G01 X66.1387 Y46.3817
G01 X66.1336 Y46.3870
G01 X66.1278 Y46.3916
G01 X66.1214 Y46.3952
G01 X66.1133 Y46.3982
G01 X66.1073 Y46.3995
G01 X66.1000 Y46.4000
G01 X64.4000 Y46.4000
G01 X64.3915 Y46.3993
G01 X64.3832 Y46.3971
G01 X64.3764 Y46.3941
G01 X64.3702 Y46.3902
G01 X64.3646 Y46.3854
G01 X64.3598 Y46.3798
G01 X64.3559 Y46.3736
G01 X64.3529 Y46.3668
G01 X64.3507 Y46.3585
G01 X64.3500 Y46.3512
G01 X64.3500 Y44.6500
G01 X64.3510 Y44.6402
G01 X64.3538 Y44.6309
G01 X64.3584 Y44.6222
G01 X64.3646 Y44.6146
G01 X64.3722 Y44.6084
G01 X64.3809 Y44.6038
G01 X64.3902 Y44.6010
G01 X64.4000 Y44.6000
G00 Z1.0000
G00 X64.2000 Y49.3475
G01 F400.00
G01 Z-0.0400
G01 F2500.00
G01 X64.2011 Y49.3255
G01 X64.2047 Y49.3012
G01 X64.2107 Y49.2774
G01 X64.2181 Y49.2566
G01 X64.2306 Y49.2300
G01 X64.2420 Y49.2111
G01 X64.2559 Y49.1923
G01 X64.2732 Y49.1732
G01 X64.6000 Y48.8463
G01 X64.6000 Y48.4000
G01 X64.6006 Y48.3923
G01 X64.6006 Y48.3742
G01 X64.6060 Y48.3193
G01 X64.6159 Y48.2688
G01 X64.6330 Y48.2124
G01 X64.6528 Y48.1648
G01 X64.6782 Y48.1172
G01 X64.7097 Y48.0704
G01 X64.7425 Y48.0306
G01 X64.7797 Y47.9933
G01 X64.8244 Y47.9568
G01 X64.8672 Y47.9282
G01 X64.9148 Y47.9028
G01 X64.9647 Y47.8822
G01 X65.0140 Y47.8671
G01 X65.0705 Y47.8558
G01 X65.1218 Y47.8507
G01 X65.1423 Y47.8506
G01 X65.1500 Y47.8500
G01 X65.7012 Y47.8500
G01 X65.7110 Y47.8512
G01 X65.7203 Y47.8543
G01 X65.7288 Y47.8591
G01 X65.7362 Y47.8655
G01 X65.7422 Y47.8733
G01 X65.7466 Y47.8820
G01 X65.7490 Y47.8902
G01 X65.7500 Y47.9000
G01 X65.7500 Y49.4000
G01 X65.7495 Y49.4073
G01 X65.7478 Y49.4145
G01 X65.7452 Y49.4214
G01 X65.7416 Y49.4278
G01 X65.7379 Y49.4327
G01 X65.7336 Y49.4370
G01 X65.7288 Y49.4409
G01 X65.7236 Y49.4441
G01 X65.7180 Y49.4466
G01 X65.7133 Y49.4482
G01 X65.7073 Y49.4495
G01 X65.7012 Y49.4500
G01 X65.1500 Y49.4500
G01 X65.1423 Y49.4494
G01 X65.1206 Y49.4492
G01 X65.0693 Y49.4440
G01 X65.0188 Y49.4341
G01 X64.9647 Y49.4178
G01 X64.9148 Y49.3972
G01 X64.8694 Y49.3730
G01 X64.8244 Y49.3432
G01 X64.8166 Y49.3371
G01 X64.7001 Y49.4536
G01 X64.7001 Y53.0464
G01 X65.5536 Y53.8999
G01 X67.6500 Y53.8999
G01 X67.6500 Y53.7738
G01 X67.6522 Y53.7321
G01 X67.6582 Y53.6921
G01 X67.6676 Y53.6540
G01 X67.6819 Y53.6135
G01 X67.7014 Y53.5725
G01 X67.7216 Y53.5389
G01 X67.7465 Y53.5054
G01 X67.7763 Y53.4728
G01 X67.8054 Y53.4465
G01 X67.8379 Y53.4223
G01 X67.8747 Y53.4002
G01 X67.9146 Y53.3815
G01 X67.9516 Y53.3683
G01 X67.9897 Y53.3587
G01 X68.0321 Y53.3522
G01 X68.0750 Y53.3500
G01 X68.4499 Y53.3500
G01 X68.4499 Y52.4500
G01 X67.9463 Y52.4499
G01 X67.9379 Y52.4485
G01 X67.9309 Y52.4462
G01 X67.9233 Y52.4422
G01 X67.9173 Y52.4379
G01 X67.9113 Y52.4317
G01 X67.9065 Y52.4246
G01 X67.9034 Y52.4180
G01 X67.9010 Y52.4098
G01 X67.9000 Y52.4000
G01 X67.9000 Y50.8988
G01 X67.9005 Y50.8927
G01 X67.9018 Y50.8867
G01 X67.9038 Y50.8809
G01 X67.9065 Y50.8754
G01 X67.9098 Y50.8702
G01 X67.9138 Y50.8655
G01 X67.9183 Y50.8613
G01 X67.9233 Y50.8578
G01 X67.9297 Y50.8543
G01 X67.9367 Y50.8518
G01 X67.9439 Y50.8504
G01 X67.9500 Y50.8500
G01 X68.5000 Y50.8500
G01 X68.5077 Y50.8506
G01 X68.5282 Y50.8507
G01 X68.5807 Y50.8560
G01 X68.6360 Y50.8671
G01 X68.6853 Y50.8822
G01 X68.7329 Y50.9018
G01 X68.7817 Y50.9276
G01 X68.8296 Y50.9597
G01 X68.8694 Y50.9925
G01 X68.9075 Y51.0306
G01 X68.9432 Y51.0744
G01 X68.9718 Y51.1172
G01 X68.9972 Y51.1648
G01 X69.0186 Y51.2170
G01 X69.0335 Y51.2664
G01 X69.0439 Y51.3181
G01 X69.0493 Y51.3730
G01 X69.0494 Y51.3923
G01 X69.0500 Y51.4000
G01 X69.0500 Y51.4849
G01 X70.1316 Y51.4849
G01 X71.6192 Y49.9974
G01 X71.6303 Y49.9874
G01 X71.6433 Y49.9778
G01 X71.6572 Y49.9694
G01 X71.6718 Y49.9625
G01 X71.6871 Y49.9570
G01 X71.7028 Y49.9531
G01 X71.7188 Y49.9507
G01 X71.7350 Y49.9499
G01 X73.9750 Y49.9499
G01 X74.1500 Y49.9500
G01 X74.1561 Y49.9504
G01 X74.1633 Y49.9518
G01 X74.1714 Y49.9548
G01 X74.1788 Y49.9591
G01 X74.1854 Y49.9646
G01 X74.1902 Y49.9702
G01 X74.1947 Y49.9775
G01 X74.1978 Y49.9855
G01 X74.1995 Y49.9927
G01 X74.2000 Y50.0000
G01 X74.2000 Y50.2300
G01 X74.1996 Y50.2361
G01 X74.1975 Y50.2457
G01 X74.1941 Y50.2536
G01 X74.1894 Y50.2608
G01 X74.1836 Y50.2670
G01 X74.1767 Y50.2722
G01 X74.1691 Y50.2762
G01 X74.1598 Y50.2790
G01 X74.1512 Y50.2800
G01 X71.8034 Y50.2801
G01 X70.3167 Y51.7667
G01 X70.3028 Y51.7791
G01 X70.2917 Y51.7872
G01 X70.2789 Y51.7950
G01 X70.2632 Y51.8025
G01 X70.2455 Y51.8086
G01 X70.2322 Y51.8119
G01 X70.2186 Y51.8140
G01 X70.2012 Y51.8150
G01 X69.0500 Y51.8151
G01 X69.0500 Y51.9000
G01 X69.0494 Y51.9077
G01 X69.0493 Y51.9282
G01 X69.0440 Y51.9807
G01 X69.0335 Y52.0336
G01 X69.0178 Y52.0853
G01 X68.9972 Y52.1352
G01 X68.9718 Y52.1828
G01 X68.9501 Y52.2153
G01 X68.9501 Y53.3500
G01 X69.3250 Y53.3500
G01 X69.3679 Y53.3522
G01 X69.4103 Y53.3587
G01 X69.4484 Y53.3683
G01 X69.4854 Y53.3815
G01 X69.5253 Y53.4002
G01 X69.5621 Y53.4223
G01 X69.5946 Y53.4465
G01 X69.6237 Y53.4728
G01 X69.6535 Y53.5054
G01 X69.6784 Y53.5389
G01 X69.6986 Y53.5725
G01 X69.7181 Y53.6135
G01 X69.7324 Y53.6540
G01 X69.7418 Y53.6921
G01 X69.7478 Y53.7321
G01 X69.7500 Y53.7738
G01 X69.7500 Y53.8999
G01 X70.4000 Y53.8999
G01 X70.4000 Y53.7738
G01 X70.4022 Y53.7321
G01 X70.4082 Y53.6921
G01 X70.4176 Y53.6540
G01 X70.4319 Y53.6135
G01 X70.4514 Y53.5725
G01 X70.4716 Y53.5389
G01 X70.4965 Y53.5054
G01 X70.5245 Y53.4745
G01 X70.5535 Y53.4481
G01 X70.5899 Y53.4210
G01 X70.6268 Y53.3991
G01 X70.6624 Y53.3824
G01 X70.6993 Y53.3691
G01 X70.7421 Y53.3582
G01 X70.7833 Y53.3520
G01 X70.8250 Y53.3500
G01 X71.2849 Y53.3500
G01 X71.2849 Y53.1500
G01 X71.2859 Y53.1326
G01 X71.2881 Y53.1178
G01 X71.2914 Y53.1045
G01 X71.2975 Y53.0868
G01 X71.3044 Y53.0722
G01 X71.3114 Y53.0604
G01 X71.3240 Y53.0434
G01 X71.3333 Y53.0333
G01 X73.3592 Y51.0074
G01 X73.3703 Y50.9974
G01 X73.3813 Y50.9892
G01 X73.3994 Y50.9783
G01 X73.4118 Y50.9725
G01 X73.4271 Y50.9670
G01 X73.4428 Y50.9631
G01 X73.4576 Y50.9609
G01 X73.4750 Y50.9599
G01 X73.7800 Y50.9599
G01 X73.7801 Y50.9463
G01 X73.7818 Y50.9367
G01 X73.7838 Y50.9309
G01 X73.7859 Y50.9264
G01 X73.7913 Y50.9183
G01 X73.7955 Y50.9138
G01 X73.7992 Y50.9106
G01 X73.8033 Y50.9078
G01 X73.8086 Y50.9048
G01 X73.8132 Y50.9029
G01 X73.8190 Y50.9012
G01 X73.8251 Y50.9002
G01 X73.8300 Y50.9000
G01 X74.0649 Y50.9002
G01 X74.0710 Y50.9012
G01 X74.0768 Y50.9029
G01 X74.0825 Y50.9053
G01 X74.0867 Y50.9078
G01 X74.0908 Y50.9106
G01 X74.0954 Y50.9146
G01 X74.0994 Y50.9192
G01 X74.1029 Y50.9243
G01 X74.1057 Y50.9297
G01 X74.1082 Y50.9367
G01 X74.1095 Y50.9427
G01 X74.1100 Y50.9488
G01 X74.1100 Y51.3012
G01 X74.1088 Y51.3110
G01 X74.1062 Y51.3191
G01 X74.1022 Y51.3267
G01 X74.0962 Y51.3345
G01 X74.0888 Y51.3409
G01 X74.0803 Y51.3457
G01 X74.0710 Y51.3488
G01 X74.0625 Y51.3499
G01 X73.8263 Y51.3499
G01 X73.8167 Y51.3482
G01 X73.8109 Y51.3462
G01 X73.8064 Y51.3441
G01 X73.7983 Y51.3387
G01 X73.7938 Y51.3345
G01 X73.7906 Y51.3308
G01 X73.7853 Y51.3225
G01 X73.7829 Y51.3168
G01 X73.7815 Y51.3121
G01 X73.7801 Y51.3037
G01 X73.7800 Y51.2901
G01 X73.5434 Y51.2901
G01 X71.6151 Y53.2184
G01 X71.6151 Y53.3500
G01 X72.0750 Y53.3500
G01 X72.1179 Y53.3522
G01 X72.1579 Y53.3582
G01 X72.1960 Y53.3676
G01 X72.2376 Y53.3824
G01 X72.2753 Y53.4002
G01 X72.3090 Y53.4203
G01 X72.3456 Y53.4473
G01 X72.3755 Y53.4745
G01 X72.4019 Y53.5035
G01 X72.4284 Y53.5389
G01 X72.4509 Y53.5768
G01 X72.4676 Y53.6124
G01 X72.4813 Y53.6505
G01 X72.4918 Y53.6921
G01 X72.4981 Y53.7346
G01 X72.5000 Y53.7750
G01 X72.5000 Y53.9050
G01 X72.5226 Y53.9107
G01 X72.5434 Y53.9181
G01 X72.5679 Y53.9294
G01 X72.5910 Y53.9435
G01 X72.6087 Y53.9567
G01 X72.6260 Y53.9723
G01 X73.5536 Y54.8999
G01 X74.8464 Y54.8999
G01 X75.7740 Y53.9723
G01 X75.7913 Y53.9567
G01 X75.8090 Y53.9435
G01 X75.8321 Y53.9294
G01 X75.8566 Y53.9181
G01 X75.8774 Y53.9107
G01 X75.9000 Y53.9050
G01 X75.9000 Y53.7750
G01 X75.9020 Y53.7333
G01 X75.9082 Y53.6921
G01 X75.9176 Y53.6540
G01 X75.9324 Y53.6124
G01 X75.9502 Y53.5747
G01 X75.9703 Y53.5410
G01 X75.9973 Y53.5044
G01 X76.0245 Y53.4745
G01 X76.0544 Y53.4473
G01 X76.0879 Y53.4223
G01 X76.1070 Y53.4107
G01 X75.0232 Y52.3268
G01 X75.0124 Y52.3151
G01 X74.9488 Y52.3150
G01 X74.9338 Y52.3143
G01 X74.9190 Y52.3121
G01 X74.9021 Y52.3080
G01 X74.8868 Y52.3025
G01 X74.8722 Y52.2956
G01 X74.8583 Y52.2872
G01 X74.8453 Y52.2776
G01 X74.8342 Y52.2676
G01 X74.6874 Y52.1208
G01 X74.6759 Y52.1078
G01 X74.6678 Y52.0967
G01 X74.6600 Y52.0839
G01 X74.6525 Y52.0682
G01 X74.6464 Y52.0505
G01 X74.6431 Y52.0372
G01 X74.6410 Y52.0236
G01 X74.6400 Y52.0062
G01 X74.6400 Y50.9488
G01 X74.6412 Y50.9390
G01 X74.6438 Y50.9309
G01 X74.6478 Y50.9233
G01 X74.6530 Y50.9164
G01 X74.6592 Y50.9106
G01 X74.6664 Y50.9059
G01 X74.6755 Y50.9022
G01 X74.6839 Y50.9004
G01 X74.6900 Y50.9000
G01 X74.9200 Y50.9000
G01 X74.9261 Y50.9004
G01 X74.9333 Y50.9018
G01 X74.9403 Y50.9043
G01 X74.9467 Y50.9078
G01 X74.9527 Y50.9121
G01 X74.9579 Y50.9173
G01 X74.9616 Y50.9222
G01 X74.9652 Y50.9286
G01 X74.9678 Y50.9355
G01 X74.9695 Y50.9427
G01 X74.9700 Y50.9500
G01 X74.9701 Y51.9366
G01 X75.0152 Y51.9818
G01 X75.0240 Y51.9723
G01 X75.0413 Y51.9567
G01 X75.0600 Y51.9427
G01 X75.0699 Y51.9367
G01 X75.0700 Y50.9500
G01 X75.0707 Y50.9415
G01 X75.0729 Y50.9332
G01 X75.0759 Y50.9264
G01 X75.0798 Y50.9202
G01 X75.0846 Y50.9146
G01 X75.0902 Y50.9098
G01 X75.0964 Y50.9059
G01 X75.1032 Y50.9029
G01 X75.1102 Y50.9010
G01 X75.1175 Y50.9001
G01 X75.3537 Y50.9001
G01 X75.3633 Y50.9018
G01 X75.3725 Y50.9053
G01 X75.3808 Y50.9106
G01 X75.3879 Y50.9173
G01 X75.3929 Y50.9243
G01 X75.3966 Y50.9320
G01 X75.3993 Y50.9415
G01 X75.4000 Y50.9500
G01 X75.4001 Y51.9964
G01 X76.7537 Y53.3500
G01 X77.5762 Y53.3500
G01 X77.6167 Y53.3520
G01 X77.6579 Y53.3582
G01 X77.6984 Y53.3683
G01 X77.7354 Y53.3815
G01 X77.7775 Y53.4014
G01 X77.8111 Y53.4216
G01 X77.8446 Y53.4465
G01 X77.8755 Y53.4745
G01 X77.9019 Y53.5035
G01 X77.9290 Y53.5399
G01 X77.9498 Y53.5747
G01 X77.9667 Y53.6101
G01 X77.9820 Y53.6528
G01 X77.9918 Y53.6921
G01 X77.9978 Y53.7321
G01 X78.0000 Y53.7738
G01 X78.0000 Y53.7999
G01 X78.6500 Y53.7998
G01 X78.6500 Y53.7738
G01 X78.6519 Y53.7346
G01 X78.6579 Y53.6933
G01 X78.6683 Y53.6516
G01 X78.6819 Y53.6135
G01 X78.7002 Y53.5747
G01 X78.7216 Y53.5389
G01 X78.7465 Y53.5054
G01 X78.7736 Y53.4754
G01 X78.8054 Y53.4465
G01 X78.8389 Y53.4216
G01 X78.8747 Y53.4002
G01 X78.9124 Y53.3824
G01 X78.9516 Y53.3683
G01 X78.9921 Y53.3582
G01 X79.0333 Y53.3520
G01 X79.0750 Y53.3500
G01 X80.3262 Y53.3500
G01 X80.3691 Y53.3523
G01 X80.4079 Y53.3582
G01 X80.4472 Y53.3680
G01 X80.4876 Y53.3824
G01 X80.5232 Y53.3991
G01 X80.5631 Y53.4230
G01 X80.5946 Y53.4465
G01 X80.6255 Y53.4745
G01 X80.6535 Y53.5054
G01 X80.6777 Y53.5379
G01 X80.6998 Y53.5747
G01 X80.7167 Y53.6101
G01 X80.7320 Y53.6528
G01 X80.7418 Y53.6921
G01 X80.7478 Y53.7321
G01 X80.7500 Y53.7738
G01 X80.7500 Y53.7999
G01 X82.3050 Y53.7998
G01 X83.0999 Y53.0050
G01 X83.0998 Y48.2950
G01 X81.9048 Y47.1000
G01 X80.9750 Y47.1000
G01 X80.9333 Y47.0980
G01 X80.8933 Y47.0921
G01 X80.8516 Y47.0817
G01 X80.8101 Y47.0667
G01 X80.7747 Y47.0498
G01 X80.7410 Y47.0297
G01 X80.7073 Y47.0050
G01 X80.6745 Y46.9755
G01 X80.6465 Y46.9446
G01 X80.6216 Y46.9111
G01 X80.5991 Y46.8732
G01 X80.5824 Y46.8376
G01 X80.5683 Y46.7984
G01 X80.5582 Y46.7579
G01 X80.5519 Y46.7142
G01 X80.5500 Y46.6750
G01 X80.5500 Y45.9250
G01 X80.5520 Y45.8833
G01 X80.5587 Y45.8397
G01 X80.5691 Y45.7993
G01 X80.5824 Y45.7624
G01 X80.5991 Y45.7268
G01 X80.6216 Y45.6889
G01 X80.6465 Y45.6554
G01 X80.6745 Y45.6245
G01 X80.7054 Y45.5965
G01 X80.7389 Y45.5716
G01 X80.7747 Y45.5502
G01 X80.8124 Y45.5324
G01 X80.8493 Y45.5191
G01 X80.8945 Y45.5077
G01 X80.9333 Y45.5020
G01 X80.9725 Y45.5001
G01 X81.2499 Y45.5000
G01 X81.2498 Y44.5000
G01 X80.9750 Y44.5000
G01 X80.9346 Y44.4981
G01 X80.8921 Y44.4918
G01 X80.8540 Y44.4824
G01 X80.8112 Y44.4672
G01 X80.7747 Y44.4498
G01 X80.7369 Y44.4270
G01 X80.7054 Y44.4035
G01 X80.6763 Y44.3772
G01 X80.6481 Y44.3465
G01 X80.6216 Y44.3111
G01 X80.6002 Y44.2753
G01 X80.5824 Y44.2376
G01 X80.5676 Y44.1960
G01 X80.5582 Y44.1579
G01 X80.5523 Y44.1191
G01 X80.5500 Y44.0762
G01 X80.5500 Y43.3250
G01 X80.5519 Y43.2858
G01 X80.5587 Y43.2397
G01 X80.5683 Y43.2016
G01 X80.5819 Y43.1635
G01 X80.6008 Y43.1236
G01 X80.6210 Y43.0899
G01 X80.6310 Y43.0762
G01 X79.5550 Y42.0001
G01 X72.4500 Y42.0001
G01 X72.4157 Y41.9985
G01 X72.3793 Y41.9929
G01 X72.3484 Y41.9851
G01 X72.3183 Y41.9744
G01 X72.2849 Y41.9588
G01 X72.2555 Y41.9411
G01 X72.2298 Y41.9222
G01 X72.2024 Y41.8976
G01 X71.0524 Y40.7476
G01 X71.0293 Y40.7221
G01 X71.0089 Y40.6945
G01 X70.9912 Y40.6651
G01 X70.9765 Y40.6340
G01 X70.9649 Y40.6016
G01 X70.9566 Y40.5683
G01 X70.9515 Y40.5343
G01 X70.9499 Y40.5000
G01 X70.9498 Y38.2000
G01 X70.5725 Y38.1999
G01 X70.5629 Y38.1985
G01 X70.5570 Y38.1966
G01 X70.5525 Y38.1947
G01 X70.5442 Y38.1894
G01 X70.5396 Y38.1854
G01 X70.5363 Y38.1817
G01 X70.5321 Y38.1757
G01 X70.5284 Y38.1680
G01 X70.5260 Y38.1598
G01 X70.5250 Y38.1512
G01 X70.5250 Y37.7000
G01 X70.5260 Y37.6902
G01 X70.5284 Y37.6820
G01 X70.5321 Y37.6743
G01 X70.5371 Y37.6673
G01 X70.5433 Y37.6613
G01 X70.5504 Y37.6565
G01 X70.5582 Y37.6529
G01 X70.5665 Y37.6507
G01 X70.5750 Y37.6500
G01 X72.0262 Y37.6500
G01 X72.0323 Y37.6505
G01 X72.0383 Y37.6518
G01 X72.0453 Y37.6543
G01 X72.0507 Y37.6571
G01 X72.0567 Y37.6613
G01 X72.0612 Y37.6655
G01 X72.0652 Y37.6702
G01 X72.0685 Y37.6754
G01 X72.0712 Y37.6809
G01 X72.0732 Y37.6867
G01 X72.0745 Y37.6927
G01 X72.0750 Y37.6988
G01 X72.0750 Y38.1500
G01 X72.0743 Y38.1585
G01 X72.0721 Y38.1668
G01 X72.0685 Y38.1746
G01 X72.0644 Y38.1808
G01 X72.0612 Y38.1845
G01 X72.0567 Y38.1887
G01 X72.0528 Y38.1916
G01 X72.0475 Y38.1947
G01 X72.0383 Y38.1982
G01 X72.0323 Y38.1995
G01 X72.0275 Y38.1999
G01 X71.6501 Y38.2000
G01 X71.6502 Y40.3550
G01 X72.5950 Y41.2999
G01 X81.3050 Y41.2998
G01 X82.2527 Y40.3522
G01 X82.2586 Y40.3122
G01 X82.2687 Y40.2717
G01 X82.2834 Y40.2301
G01 X82.3031 Y40.1879
G01 X82.3245 Y40.1521
G01 X82.3521 Y40.1145
G01 X82.3818 Y40.0818
G01 X82.4145 Y40.0521
G01 X82.4510 Y40.0252
G01 X82.4879 Y40.0031
G01 X82.5278 Y39.9843
G01 X82.5694 Y39.9694
G01 X82.6146 Y39.9582
G01 X82.6583 Y39.9520
G01 X82.7000 Y39.9500
G01 X82.7417 Y39.9520
G01 X82.7878 Y39.9586
G01 X82.8283 Y39.9687
G01 X82.8722 Y39.9843
G01 X82.9121 Y40.0031
G01 X82.9500 Y40.0258
G01 X82.9855 Y40.0521
G01 X83.0182 Y40.0818
G01 X83.0479 Y40.1145
G01 X83.0742 Y40.1500
G01 X83.0980 Y40.1901
G01 X83.1157 Y40.2278
G01 X83.1299 Y40.2670
G01 X83.1414 Y40.3122
G01 X83.1480 Y40.3583
G01 X83.1500 Y40.4000
G01 X83.1478 Y40.4441
G01 X83.1408 Y40.4902
G01 X83.1306 Y40.5306
G01 X83.1157 Y40.5722
G01 X83.0969 Y40.6121
G01 X83.0755 Y40.6479
G01 X83.0479 Y40.6855
G01 X83.0182 Y40.7182
G01 X82.9855 Y40.7479
G01 X82.9500 Y40.7742
G01 X82.9121 Y40.7969
G01 X82.8722 Y40.8157
G01 X82.8306 Y40.8306
G01 X82.7878 Y40.8414
G01 X82.7478 Y40.8473
G01 X81.6976 Y41.8976
G01 X81.6721 Y41.9207
G01 X81.6455 Y41.9404
G01 X81.6129 Y41.9599
G01 X81.5840 Y41.9735
G01 X81.5540 Y41.9843
G01 X81.5183 Y41.9934
G01 X81.4819 Y41.9986
G01 X81.4500 Y42.0001
G01 X80.5453 Y42.0002
G01 X81.4452 Y42.9000
G01 X82.2250 Y42.9000
G01 X82.2667 Y42.9020
G01 X82.3079 Y42.9082
G01 X82.3484 Y42.9183
G01 X82.3876 Y42.9324
G01 X82.4253 Y42.9502
G01 X82.4631 Y42.9730
G01 X82.4946 Y42.9965
G01 X82.5237 Y43.0228
G01 X82.5519 Y43.0535
G01 X82.5784 Y43.0889
G01 X82.5998 Y43.1247
G01 X82.6176 Y43.1624
G01 X82.6324 Y43.2040
G01 X82.6418 Y43.2421
G01 X82.6477 Y43.2809
G01 X82.6500 Y43.3238
G01 X82.6500 Y44.0762
G01 X82.6477 Y44.1191
G01 X82.6418 Y44.1579
G01 X82.6320 Y44.1972
G01 X82.6176 Y44.2376
G01 X82.5998 Y44.2753
G01 X82.5784 Y44.3111
G01 X82.5519 Y44.3465
G01 X82.5237 Y44.3772
G01 X82.4946 Y44.4035
G01 X82.4631 Y44.4270
G01 X82.4253 Y44.4498
G01 X82.3888 Y44.4672
G01 X82.3460 Y44.4824
G01 X82.3079 Y44.4918
G01 X82.2654 Y44.4981
G01 X82.2250 Y44.5000
G01 X81.9501 Y44.5000
G01 X81.9502 Y45.5000
G01 X82.2275 Y45.5001
G01 X82.2667 Y45.5020
G01 X82.3055 Y45.5077
G01 X82.3484 Y45.5183
G01 X82.3876 Y45.5324
G01 X82.4232 Y45.5491
G01 X82.4631 Y45.5730
G01 X82.4946 Y45.5965
G01 X82.5255 Y45.6245
G01 X82.5535 Y45.6554
G01 X82.5777 Y45.6879
G01 X82.6009 Y45.7268
G01 X82.6176 Y45.7624
G01 X82.6317 Y45.8016
G01 X82.6423 Y45.8445
G01 X82.6480 Y45.8833
G01 X82.6499 Y45.9225
G01 X82.6500 Y46.6762
G01 X82.6480 Y46.7167
G01 X82.6418 Y46.7579
G01 X82.6317 Y46.7984
G01 X82.6217 Y46.8265
G01 X83.6985 Y47.9033
G01 X83.7207 Y47.9279
G01 X83.7397 Y47.9535
G01 X83.7588 Y47.9849
G01 X83.7735 Y48.0160
G01 X83.7843 Y48.0460
G01 X83.7936 Y48.0829
G01 X83.7985 Y48.1157
G01 X83.8001 Y48.1500
G01 X83.8001 Y53.1500
G01 X83.7985 Y53.1843
G01 X83.7936 Y53.2171
G01 X83.7843 Y53.2540
G01 X83.7735 Y53.2840
G01 X83.7588 Y53.3151
G01 X83.7397 Y53.3465
G01 X83.7207 Y53.3721
G01 X83.6985 Y53.3967
G01 X82.6976 Y54.3976
G01 X82.6721 Y54.4207
G01 X82.6465 Y54.4397
G01 X82.6129 Y54.4599
G01 X82.5840 Y54.4735
G01 X82.5540 Y54.4843
G01 X82.5207 Y54.4929
G01 X82.4843 Y54.4985
G01 X82.4512 Y54.5001
G01 X80.7500 Y54.5002
G01 X80.7500 Y54.5262
G01 X80.7481 Y54.5654
G01 X80.7421 Y54.6067
G01 X80.7317 Y54.6484
G01 X80.7181 Y54.6865
G01 X80.6998 Y54.7253
G01 X80.6784 Y54.7611
G01 X80.6535 Y54.7946
G01 X80.6264 Y54.8246
G01 X80.5946 Y54.8535
G01 X80.5611 Y54.8784
G01 X80.5253 Y54.8998
G01 X80.4876 Y54.9176
G01 X80.4484 Y54.9317
G01 X80.4079 Y54.9418
G01 X80.3667 Y54.9480
G01 X80.3262 Y54.9500
G01 X79.0738 Y54.9500
G01 X79.0309 Y54.9477
G01 X78.9921 Y54.9418
G01 X78.9528 Y54.9320
G01 X78.9124 Y54.9176
G01 X78.8768 Y54.9009
G01 X78.8369 Y54.8770
G01 X78.8054 Y54.8535
G01 X78.7745 Y54.8255
G01 X78.7465 Y54.7946
G01 X78.7223 Y54.7621
G01 X78.7002 Y54.7253
G01 X78.6833 Y54.6899
G01 X78.6680 Y54.6472
G01 X78.6582 Y54.6079
G01 X78.6522 Y54.5679
G01 X78.6500 Y54.5262
G01 X78.6500 Y54.5001
G01 X78.0000 Y54.5002
G01 X78.0000 Y54.5262
G01 X77.9978 Y54.5679
G01 X77.9918 Y54.6079
G01 X77.9813 Y54.6495
G01 X77.9676 Y54.6876
G01 X77.9498 Y54.7253
G01 X77.9284 Y54.7611
G01 X77.9043 Y54.7937
G01 X77.8755 Y54.8255
G01 X77.8465 Y54.8519
G01 X77.8090 Y54.8797
G01 X77.7753 Y54.8998
G01 X77.7376 Y54.9176
G01 X77.6984 Y54.9317
G01 X77.6579 Y54.9418
G01 X77.6167 Y54.9480
G01 X77.5750 Y54.9500
G01 X76.3250 Y54.9500
G01 X76.2833 Y54.9480
G01 X76.2421 Y54.9418
G01 X76.2016 Y54.9317
G01 X76.1624 Y54.9176
G01 X76.1268 Y54.9009
G01 X76.0869 Y54.8770
G01 X76.0554 Y54.8535
G01 X76.0236 Y54.8246
G01 X75.9965 Y54.7946
G01 X75.9716 Y54.7611
G01 X75.9502 Y54.7253
G01 X75.9328 Y54.6888
G01 X75.9183 Y54.6484
G01 X75.9084 Y54.6091
G01 X75.9022 Y54.5679
G01 X75.9013 Y54.5524
G01 X75.1260 Y55.3277
G01 X75.1087 Y55.3433
G01 X75.0869 Y55.3593
G01 X75.0679 Y55.3706
G01 X75.0480 Y55.3801
G01 X75.0249 Y55.3886
G01 X74.9964 Y55.3957
G01 X74.9745 Y55.3989
G01 X74.9500 Y55.4001
G01 X73.4500 Y55.4001
G01 X73.4255 Y55.3989
G01 X73.4012 Y55.3953
G01 X73.3774 Y55.3893
G01 X73.3566 Y55.3819
G01 X73.3300 Y55.3694
G01 X73.3111 Y55.3580
G01 X73.2895 Y55.3417
G01 X73.2732 Y55.3268
G01 X72.4987 Y54.5524
G01 X72.4978 Y54.5679
G01 X72.4916 Y54.6091
G01 X72.4817 Y54.6484
G01 X72.4681 Y54.6865
G01 X72.4498 Y54.7253
G01 X72.4297 Y54.7590
G01 X72.4027 Y54.7956
G01 X72.3755 Y54.8255
G01 X72.3465 Y54.8519
G01 X72.3090 Y54.8797
G01 X72.2753 Y54.8998
G01 X72.2376 Y54.9176
G01 X72.1984 Y54.9317
G01 X72.1591 Y54.9416
G01 X72.1167 Y54.9480
G01 X72.0750 Y54.9500
G01 X70.8250 Y54.9500
G01 X70.7858 Y54.9481
G01 X70.7421 Y54.9418
G01 X70.7016 Y54.9317
G01 X70.6624 Y54.9176
G01 X70.6225 Y54.8986
G01 X70.5869 Y54.8770
G01 X70.5554 Y54.8535
G01 X70.5263 Y54.8272
G01 X70.4965 Y54.7946
G01 X70.4723 Y54.7621
G01 X70.4502 Y54.7253
G01 X70.4324 Y54.6876
G01 X70.4183 Y54.6484
G01 X70.4082 Y54.6079
G01 X70.4020 Y54.5667
G01 X70.4001 Y54.5275
G01 X70.4000 Y54.4001
G01 X69.7500 Y54.4001
G01 X69.7499 Y54.5275
G01 X69.7480 Y54.5667
G01 X69.7423 Y54.6055
G01 X69.7309 Y54.6507
G01 X69.7176 Y54.6876
G01 X69.6992 Y54.7264
G01 X69.6784 Y54.7611
G01 X69.6535 Y54.7946
G01 X69.6255 Y54.8255
G01 X69.5946 Y54.8535
G01 X69.5611 Y54.8784
G01 X69.5253 Y54.8998
G01 X69.4876 Y54.9176
G01 X69.4495 Y54.9313
G01 X69.4055 Y54.9423
G01 X69.3667 Y54.9480
G01 X69.3262 Y54.9500
G01 X68.0738 Y54.9500
G01 X68.0333 Y54.9480
G01 X67.9897 Y54.9413
G01 X67.9493 Y54.9309
G01 X67.9124 Y54.9176
G01 X67.8768 Y54.9009
G01 X67.8389 Y54.8784
G01 X67.8054 Y54.8535
G01 X67.7745 Y54.8255
G01 X67.7457 Y54.7937
G01 X67.7216 Y54.7611
G01 X67.6991 Y54.7232
G01 X67.6824 Y54.6876
G01 X67.6691 Y54.6507
G01 X67.6587 Y54.6103
G01 X67.6520 Y54.5667
G01 X67.6501 Y54.5275
G01 X67.6500 Y54.4001
G01 X65.4500 Y54.4001
G01 X65.4231 Y54.3986
G01 X65.4012 Y54.3953
G01 X65.3786 Y54.3897
G01 X65.3543 Y54.3811
G01 X65.3300 Y54.3694
G01 X65.3111 Y54.3580
G01 X65.2933 Y54.3448
G01 X65.2740 Y54.3277
G01 X64.2732 Y53.3268
G01 X64.2552 Y53.3067
G01 X64.2420 Y53.2889
G01 X64.2294 Y53.2679
G01 X64.2181 Y53.2434
G01 X64.2107 Y53.2226
G01 X64.2050 Y53.2000
G01 X64.2011 Y53.1745
G01 X64.1999 Y53.1500
G01 X64.2000 Y49.3475
G00 Z1.0000
G00 X66.1943 Y50.5305
G01 F400.00
G01 Z-0.0400
G01 F2500.00
G01 X66.2805 Y50.4443
G01 X66.2897 Y50.4362
G01 X66.2956 Y50.4318
G01 X66.3040 Y50.4268
G01 X66.3129 Y50.4226
G01 X66.3198 Y50.4201
G01 X66.3329 Y50.4167
G01 X66.3414 Y50.4155
G01 X66.3500 Y50.4150
G01 X66.9321 Y50.4150
G01 X66.9486 Y50.4162
G01 X66.9559 Y50.4173
G01 X66.9654 Y50.4197
G01 X66.9746 Y50.4230
G01 X66.9835 Y50.4272
G01 X66.9919 Y50.4323
G01 X66.9998 Y50.4381
G01 X67.0071 Y50.4447
G01 X67.0121 Y50.4501
G01 X67.0208 Y50.4619
G01 X67.0251 Y50.4694
G01 X67.0292 Y50.4783
G01 X67.0321 Y50.4864
G01 X67.0345 Y50.4959
G01 X67.0359 Y50.5056
G01 X67.0364 Y50.5142
G01 X67.0358 Y50.5264
G01 X67.0345 Y50.5349
G01 X67.0327 Y50.5421
G01 X67.0288 Y50.5537
G01 X67.0234 Y50.5647
G01 X67.0195 Y50.5710
G01 X67.0144 Y50.5779
G01 X66.9786 Y50.6216
G01 X66.9540 Y50.6676
G01 X66.9505 Y50.6790
G01 X66.9471 Y50.6882
G01 X66.9434 Y50.6959
G01 X66.9377 Y50.7054
G01 X66.9317 Y50.7132
G01 X66.9241 Y50.7212
G01 X66.9187 Y50.7261
G01 X66.9128 Y50.7305
G01 X66.9045 Y50.7358
G01 X66.8946 Y50.7407
G01 X66.8842 Y50.7445
G01 X66.8747 Y50.7469
G01 X66.8638 Y50.7484
G01 X66.8552 Y50.7488
G01 X66.7049 Y50.7488
G01 X66.6706 Y50.7522
G01 X66.6423 Y50.7608
G01 X66.6200 Y50.7727
G01 X66.6133 Y50.7758
G01 X66.6052 Y50.7787
G01 X66.5921 Y50.7819
G01 X66.5848 Y50.7829
G01 X66.5762 Y50.7834
G01 X66.5664 Y50.7830
G01 X66.5579 Y50.7819
G01 X66.5448 Y50.7787
G01 X66.5367 Y50.7758
G01 X66.5300 Y50.7727
G01 X66.5077 Y50.7608
G01 X66.4794 Y50.7522
G01 X66.4451 Y50.7488
G01 X66.2650 Y50.7488
G01 X66.2564 Y50.7484
G01 X66.2455 Y50.7469
G01 X66.2336 Y50.7437
G01 X66.2267 Y50.7412
G01 X66.2200 Y50.7381
G01 X66.2094 Y50.7320
G01 X66.2006 Y50.7253
G01 X66.1926 Y50.7177
G01 X66.1877 Y50.7122
G01 X66.1832 Y50.7064
G01 X66.1780 Y50.6981
G01 X66.1731 Y50.6882
G01 X66.1693 Y50.6778
G01 X66.1669 Y50.6683
G01 X66.1654 Y50.6574
G01 X66.1650 Y50.6488
G01 X66.1650 Y50.6000
G01 X66.1655 Y50.5914
G01 X66.1672 Y50.5805
G01 X66.1693 Y50.5722
G01 X66.1717 Y50.5652
G01 X66.1768 Y50.5540
G01 X66.1818 Y50.5456
G01 X66.1862 Y50.5397
G01 X66.1943 Y50.5305
G00 Z1.0000
G00 X67.7395 Y50.6047
G01 F400.00
G01 Z-0.0400
G01 F2500.00
G01 X67.9018 Y50.4426
G01 X67.9072 Y50.4377
G01 X67.9131 Y50.4332
G01 X67.9225 Y50.4274
G01 X67.9324 Y50.4226
G01 X67.9428 Y50.4189
G01 X67.9512 Y50.4169
G01 X67.9585 Y50.4158
G01 X67.9707 Y50.4150
G01 X68.4321 Y50.4150
G01 X68.4500 Y50.4163
G01 X68.5019 Y50.4111
G01 X68.5519 Y50.3960
G01 X68.5979 Y50.3714
G01 X68.6383 Y50.3383
G01 X68.6501 Y50.3247
G01 X69.4263 Y49.5484
G01 X69.4337 Y49.5419
G01 X69.4427 Y49.5355
G01 X69.4490 Y49.5318
G01 X69.4557 Y49.5286
G01 X69.4660 Y49.5247
G01 X69.4791 Y49.5215
G01 X69.4864 Y49.5205
G01 X69.4962 Y49.5200
G01 X70.7051 Y49.5200
G01 X70.7125 Y49.5205
G01 X70.7210 Y49.5217
G01 X70.7340 Y49.5251
G01 X70.7409 Y49.5276
G01 X70.7498 Y49.5318
G01 X70.7582 Y49.5368
G01 X70.7642 Y49.5412
G01 X70.7742 Y49.5502
G01 X70.7800 Y49.5565
G01 X70.7851 Y49.5634
G01 X70.7920 Y49.5750
G01 X70.7951 Y49.5817
G01 X70.7980 Y49.5898
G01 X70.8008 Y49.6005
G01 X70.8023 Y49.6114
G01 X70.8026 Y49.6225
G01 X70.8022 Y49.6298
G01 X70.8012 Y49.6371
G01 X70.7987 Y49.6479
G01 X70.7951 Y49.6583
G01 X70.7903 Y49.6682
G01 X70.7844 Y49.6776
G01 X70.7800 Y49.6835
G01 X70.7734 Y49.6907
G01 X70.6374 Y49.8267
G01 X70.6282 Y49.8348
G01 X70.6222 Y49.8392
G01 X70.6138 Y49.8442
G01 X70.6038 Y49.8489
G01 X70.5933 Y49.8524
G01 X70.5862 Y49.8541
G01 X70.5789 Y49.8552
G01 X70.5667 Y49.8560
G01 X70.5568 Y49.8555
G01 X70.5483 Y49.8543
G01 X70.4986 Y49.8444
G01 X70.3903 Y49.8444
G01 X70.2840 Y49.8656
G01 X70.1839 Y49.9070
G01 X70.0938 Y49.9672
G01 X70.0172 Y50.0438
G01 X69.9570 Y50.1339
G01 X69.9156 Y50.2340
G01 X69.8944 Y50.3403
G01 X69.8944 Y50.4486
G01 X69.9156 Y50.5548
G01 X69.9570 Y50.6549
G01 X70.0172 Y50.7450
G01 X70.0938 Y50.8216
G01 X70.1839 Y50.8818
G01 X70.2840 Y50.9233
G01 X70.3240 Y50.9312
G01 X70.3335 Y50.9336
G01 X70.3450 Y50.9379
G01 X70.3517 Y50.9411
G01 X70.3590 Y50.9455
G01 X70.3679 Y50.9520
G01 X70.3752 Y50.9586
G01 X70.3818 Y50.9659
G01 X70.3883 Y50.9748
G01 X70.3933 Y50.9833
G01 X70.3978 Y50.9933
G01 X70.4009 Y51.0027
G01 X70.4026 Y51.0098
G01 X70.4037 Y51.0171
G01 X70.4045 Y51.0281
G01 X70.4041 Y51.0379
G01 X70.4026 Y51.0488
G01 X70.4002 Y51.0584
G01 X70.3969 Y51.0676
G01 X70.3921 Y51.0776
G01 X70.3870 Y51.0859
G01 X70.3802 Y51.0946
G01 X70.3752 Y51.1000
G01 X70.1187 Y51.3566
G01 X70.1113 Y51.3631
G01 X70.1023 Y51.3695
G01 X70.0960 Y51.3732
G01 X70.0893 Y51.3764
G01 X70.0790 Y51.3803
G01 X70.0659 Y51.3835
G01 X70.0586 Y51.3845
G01 X70.0488 Y51.3850
G01 X69.2406 Y51.3850
G01 X69.2308 Y51.3845
G01 X69.2235 Y51.3835
G01 X69.2104 Y51.3803
G01 X69.2023 Y51.3774
G01 X69.1934 Y51.3732
G01 X69.1850 Y51.3682
G01 X69.1771 Y51.3623
G01 X69.1699 Y51.3557
G01 X69.1633 Y51.3485
G01 X69.1574 Y51.3406
G01 X69.1518 Y51.3311
G01 X69.1477 Y51.3221
G01 X69.1442 Y51.3117
G01 X69.1425 Y51.3045
G01 X69.1277 Y51.2302
G01 X69.1163 Y51.1925
G01 X69.0825 Y51.1110
G01 X69.0639 Y51.0762
G01 X69.0149 Y51.0029
G01 X68.9899 Y50.9724
G01 X68.9276 Y50.9101
G01 X68.8971 Y50.8851
G01 X68.8238 Y50.8361
G01 X68.7890 Y50.8175
G01 X68.7075 Y50.7837
G01 X68.6698 Y50.7723
G01 X68.5833 Y50.7551
G01 X68.5441 Y50.7512
G01 X68.5171 Y50.7509
G01 X68.4951 Y50.7488
G01 X67.9549 Y50.7488
G01 X67.9206 Y50.7522
G01 X67.8923 Y50.7608
G01 X67.8722 Y50.7716
G01 X67.8644 Y50.7753
G01 X67.8540 Y50.7791
G01 X67.8457 Y50.7812
G01 X67.8348 Y50.7829
G01 X67.8250 Y50.7834
G01 X67.8152 Y50.7829
G01 X67.8055 Y50.7814
G01 X67.7936 Y50.7783
G01 X67.7867 Y50.7758
G01 X67.7800 Y50.7727
G01 X67.7610 Y50.7625
G01 X67.7547 Y50.7586
G01 X67.7478 Y50.7535
G01 X67.7395 Y50.7462
G01 X67.7314 Y50.7370
G01 X67.7271 Y50.7310
G01 X67.7226 Y50.7237
G01 X67.7174 Y50.7126
G01 X67.7145 Y50.7045
G01 X67.7127 Y50.6974
G01 X67.7107 Y50.6853
G01 X67.7103 Y50.6730
G01 X67.7107 Y50.6657
G01 X67.7121 Y50.6559
G01 X67.7153 Y50.6441
G01 X67.7178 Y50.6372
G01 X67.7220 Y50.6283
G01 X67.7285 Y50.6179
G01 X67.7329 Y50.6120
G01 X67.7395 Y50.6047
G00 Z1.0000
G00 X67.7610 Y49.7137
G01 F400.00
G01 Z-0.0400
G01 F2500.00
G01 X67.9247 Y49.5500
G01 X67.9383 Y49.5383
G01 X67.9464 Y49.5291
G01 X67.9537 Y49.5225
G01 X67.9626 Y49.5160
G01 X67.9722 Y49.5105
G01 X67.9789 Y49.5074
G01 X68.0390 Y49.4825
G01 X68.0738 Y49.4639
G01 X68.1471 Y49.4149
G01 X68.1776 Y49.3899
G01 X68.2399 Y49.3276
G01 X68.2649 Y49.2971
G01 X68.3139 Y49.2238
G01 X68.3325 Y49.1890
G01 X68.3663 Y49.1075
G01 X68.3777 Y49.0698
G01 X68.3949 Y48.9833
G01 X68.3988 Y48.9441
G01 X68.3991 Y48.9171
G01 X68.4012 Y48.8951
G01 X68.4012 Y48.4049
G01 X68.3991 Y48.3829
G01 X68.3988 Y48.3559
G01 X68.3949 Y48.3167
G01 X68.3777 Y48.2302
G01 X68.3663 Y48.1925
G01 X68.3325 Y48.1110
G01 X68.3139 Y48.0762
G01 X68.2649 Y48.0029
G01 X68.2399 Y47.9724
G01 X68.1776 Y47.9101
G01 X68.1471 Y47.8851
G01 X68.0909 Y47.8475
G01 X68.0831 Y47.8415
G01 X68.0750 Y47.8340
G01 X68.0701 Y47.8285
G01 X68.0643 Y47.8206
G01 X68.0592 Y47.8122
G01 X68.0551 Y47.8033
G01 X68.0517 Y47.7940
G01 X68.0494 Y47.7845
G01 X68.0479 Y47.7748
G01 X68.0475 Y47.7662
G01 X68.0482 Y47.7528
G01 X68.0494 Y47.7455
G01 X68.0517 Y47.7360
G01 X68.0551 Y47.7267
G01 X68.0581 Y47.7200
G01 X68.0650 Y47.7084
G01 X68.0701 Y47.7015
G01 X68.0759 Y47.6951
G01 X68.0859 Y47.6862
G01 X68.0919 Y47.6818
G01 X68.1003 Y47.6768
G01 X68.1092 Y47.6726
G01 X68.1161 Y47.6701
G01 X68.1292 Y47.6667
G01 X68.1377 Y47.6655
G01 X68.1475 Y47.6650
G01 X68.3000 Y47.6650
G01 X68.3111 Y47.6658
G01 X68.3183 Y47.6669
G01 X68.3267 Y47.6689
G01 X68.3371 Y47.6726
G01 X68.3481 Y47.6780
G01 X68.3544 Y47.6818
G01 X68.3603 Y47.6862
G01 X68.3695 Y47.6943
G01 X69.4954 Y48.8202
G01 X69.5026 Y48.8285
G01 X69.5070 Y48.8344
G01 X69.5114 Y48.8418
G01 X69.5162 Y48.8517
G01 X69.5202 Y48.8633
G01 X69.5219 Y48.8705
G01 X69.5231 Y48.8778
G01 X69.5238 Y48.8900
G01 X69.5231 Y48.9022
G01 X69.5219 Y48.9095
G01 X69.5199 Y48.9179
G01 X69.5162 Y48.9283
G01 X69.5114 Y48.9382
G01 X69.5056 Y48.9476
G01 X69.5011 Y48.9535
G01 X69.4962 Y48.9590
G01 X69.4882 Y48.9665
G01 X69.4794 Y48.9732
G01 X69.4699 Y48.9788
G01 X69.4598 Y48.9833
G01 X69.4528 Y48.9857
G01 X69.4445 Y48.9878
G01 X69.4324 Y48.9896
G01 X69.4238 Y48.9900
G01 X69.3629 Y48.9900
G01 X69.3450 Y48.9887
G01 X69.2931 Y48.9939
G01 X69.2431 Y49.0090
G01 X69.1971 Y49.0336
G01 X69.1567 Y49.0667
G01 X69.1450 Y49.0802
G01 X68.3695 Y49.8557
G01 X68.3623 Y49.8623
G01 X68.3544 Y49.8682
G01 X68.3460 Y49.8732
G01 X68.3382 Y49.8769
G01 X68.3278 Y49.8807
G01 X68.3183 Y49.8831
G01 X68.3086 Y49.8845
G01 X68.2988 Y49.8850
G01 X67.8374 Y49.8850
G01 X67.8207 Y49.8838
G01 X67.8122 Y49.8825
G01 X67.8039 Y49.8805
G01 X67.7935 Y49.8769
G01 X67.7825 Y49.8714
G01 X67.7762 Y49.8676
G01 X67.7702 Y49.8633
G01 X67.7610 Y49.8552
G01 X67.7529 Y49.8460
G01 X67.7486 Y49.8400
G01 X67.7441 Y49.8327
G01 X67.7393 Y49.8227
G01 X67.7354 Y49.8111
G01 X67.7336 Y49.8040
G01 X67.7325 Y49.7967
G01 X67.7317 Y49.7844
G01 X67.7325 Y49.7722
G01 X67.7336 Y49.7649
G01 X67.7354 Y49.7578
G01 X67.7393 Y49.7462
G01 X67.7441 Y49.7362
G01 X67.7486 Y49.7289
G01 X67.7529 Y49.7229
G01 X67.7610 Y49.7137
G00 Z1.0000
G00 X70.6235 Y49.9819
G01 F400.00
G01 Z-0.0400
G01 F2500.00
G01 X71.0371 Y49.5683
G01 X71.0473 Y49.5590
G01 X71.0642 Y49.5464
G01 X71.0760 Y49.5394
G01 X71.0907 Y49.5325
G01 X71.1083 Y49.5264
G01 X71.1216 Y49.5231
G01 X71.1364 Y49.5209
G01 X71.1538 Y49.5199
G01 X74.1512 Y49.5200
G01 X74.1610 Y49.5212
G01 X74.1691 Y49.5238
G01 X74.1767 Y49.5278
G01 X74.1836 Y49.5330
G01 X74.1902 Y49.5402
G01 X74.1947 Y49.5475
G01 X74.1978 Y49.5555
G01 X74.1996 Y49.5639
G01 X74.2000 Y49.5700
G01 X74.2000 Y49.8000
G01 X74.1995 Y49.8073
G01 X74.1975 Y49.8157
G01 X74.1941 Y49.8236
G01 X74.1902 Y49.8298
G01 X74.1845 Y49.8362
G01 X74.1778 Y49.8416
G01 X74.1703 Y49.8457
G01 X74.1621 Y49.8485
G01 X74.1549 Y49.8498
G01 X73.9750 Y49.8501
G01 X71.2222 Y49.8501
G01 X70.8570 Y50.2153
G01 X70.8610 Y50.2245
G01 X70.8757 Y50.2662
G01 X70.8858 Y50.3066
G01 X70.8923 Y50.3503
G01 X70.8944 Y50.3944
G01 X70.8924 Y50.4361
G01 X70.8858 Y50.4822
G01 X70.8743 Y50.5274
G01 X70.8602 Y50.5666
G01 X70.8413 Y50.6065
G01 X70.8172 Y50.6464
G01 X70.7923 Y50.6799
G01 X70.7626 Y50.7126
G01 X70.7299 Y50.7423
G01 X70.6964 Y50.7672
G01 X70.6565 Y50.7913
G01 X70.6143 Y50.8110
G01 X70.5750 Y50.8250
G01 X70.5322 Y50.8358
G01 X70.4861 Y50.8424
G01 X70.4444 Y50.8444
G01 X70.4003 Y50.8423
G01 X70.3542 Y50.8352
G01 X70.3138 Y50.8250
G01 X70.2722 Y50.8102
G01 X70.2323 Y50.7913
G01 X70.1944 Y50.7686
G01 X70.1589 Y50.7423
G01 X70.1262 Y50.7126
G01 X70.0966 Y50.6799
G01 X70.0703 Y50.6444
G01 X70.0476 Y50.6065
G01 X70.0287 Y50.5666
G01 X70.0138 Y50.5250
G01 X70.0031 Y50.4822
G01 X69.9966 Y50.4385
G01 X69.9944 Y50.3944
G01 X69.9966 Y50.3503
G01 X70.0031 Y50.3066
G01 X70.0138 Y50.2638
G01 X70.0287 Y50.2222
G01 X70.0476 Y50.1823
G01 X70.0703 Y50.1444
G01 X70.0966 Y50.1089
G01 X70.1262 Y50.0762
G01 X70.1589 Y50.0466
G01 X70.1944 Y50.0203
G01 X70.2323 Y49.9976
G01 X70.2722 Y49.9787
G01 X70.3138 Y49.9638
G01 X70.3566 Y49.9531
G01 X70.4003 Y49.9466
G01 X70.4444 Y49.9444
G01 X70.4885 Y49.9466
G01 X70.5322 Y49.9531
G01 X70.5750 Y49.9638
G01 X70.6155 Y49.9782
G01 X70.6235 Y49.9819
G00 Z1.0000
G00 X72.1291 Y50.9875
G01 F400.00
G01 Z-0.0400
G01 F2500.00
G01 X72.6892 Y50.4274
G01 X72.7022 Y50.4159
G01 X72.7133 Y50.4078
G01 X72.7251 Y50.4006
G01 X72.7418 Y50.3925
G01 X72.7583 Y50.3867
G01 X72.7728 Y50.3831
G01 X72.7864 Y50.3810
G01 X72.8050 Y50.3799
G01 X74.1512 Y50.3800
G01 X74.1585 Y50.3807
G01 X74.1668 Y50.3829
G01 X74.1746 Y50.3865
G01 X74.1808 Y50.3906
G01 X74.1870 Y50.3964
G01 X74.1916 Y50.4022
G01 X74.1952 Y50.4086
G01 X74.1982 Y50.4167
G01 X74.1996 Y50.4239
G01 X74.2000 Y50.4300
G01 X74.2000 Y50.6600
G01 X74.1996 Y50.6661
G01 X74.1978 Y50.6745
G01 X74.1952 Y50.6814
G01 X74.1916 Y50.6878
G01 X74.1870 Y50.6936
G01 X74.1817 Y50.6987
G01 X74.1757 Y50.7029
G01 X74.1680 Y50.7066
G01 X74.1610 Y50.7088
G01 X74.1561 Y50.7096
G01 X74.1500 Y50.7100
G01 X72.8734 Y50.7101
G01 X72.3625 Y51.2209
G01 X72.3666 Y51.2301
G01 X72.3813 Y51.2717
G01 X72.3914 Y51.3122
G01 X72.3978 Y51.3559
G01 X72.4000 Y51.4000
G01 X72.3980 Y51.4417
G01 X72.3914 Y51.4878
G01 X72.3799 Y51.5330
G01 X72.3657 Y51.5722
G01 X72.3469 Y51.6121
G01 X72.3227 Y51.6520
G01 X72.2979 Y51.6855
G01 X72.2682 Y51.7182
G01 X72.2355 Y51.7479
G01 X72.2020 Y51.7727
G01 X72.1621 Y51.7969
G01 X72.1199 Y51.8166
G01 X72.0806 Y51.8306
G01 X72.0378 Y51.8414
G01 X71.9917 Y51.8480
G01 X71.9500 Y51.8500
G01 X71.9059 Y51.8478
G01 X71.8598 Y51.8408
G01 X71.8194 Y51.8306
G01 X71.7778 Y51.8157
G01 X71.7379 Y51.7969
G01 X71.7000 Y51.7742
G01 X71.6645 Y51.7479
G01 X71.6318 Y51.7182
G01 X71.6021 Y51.6855
G01 X71.5758 Y51.6500
G01 X71.5531 Y51.6121
G01 X71.5343 Y51.5722
G01 X71.5194 Y51.5306
G01 X71.5086 Y51.4878
G01 X71.5022 Y51.4441
G01 X71.5000 Y51.4000
G01 X71.5022 Y51.3559
G01 X71.5086 Y51.3122
G01 X71.5194 Y51.2694
G01 X71.5343 Y51.2278
G01 X71.5531 Y51.1879
G01 X71.5758 Y51.1500
G01 X71.6021 Y51.1145
G01 X71.6318 Y51.0818
G01 X71.6645 Y51.0521
G01 X71.7000 Y51.0258
G01 X71.7379 Y51.0031
G01 X71.7778 Y50.9843
G01 X71.8194 Y50.9694
G01 X71.8622 Y50.9586
G01 X71.9059 Y50.9522
G01 X71.9500 Y50.9500
G01 X71.9941 Y50.9522
G01 X72.0378 Y50.9586
G01 X72.0806 Y50.9694
G01 X72.1211 Y50.9838
G01 X72.1291 Y50.9875
G00 Z1.0000
G00 X72.4899 Y51.2949
G01 F400.00
G01 Z-0.0400
G01 F2500.00
G01 X72.4889 Y51.2876
G01 X72.4885 Y51.2802
G01 X72.4887 Y51.2704
G01 X72.4901 Y51.2595
G01 X72.4924 Y51.2499
G01 X72.4960 Y51.2395
G01 X72.5002 Y51.2306
G01 X72.5059 Y51.2212
G01 X72.5127 Y51.2125
G01 X72.5177 Y51.2070
G01 X72.8855 Y50.8393
G01 X72.8947 Y50.8312
G01 X72.9006 Y50.8268
G01 X72.9080 Y50.8224
G01 X72.9179 Y50.8176
G01 X72.9283 Y50.8139
G01 X72.9391 Y50.8115
G01 X72.9464 Y50.8105
G01 X72.9537 Y50.8100
G01 X73.1738 Y50.8100
G01 X73.1848 Y50.8106
G01 X73.1957 Y50.8124
G01 X73.2028 Y50.8143
G01 X73.2098 Y50.8167
G01 X73.2199 Y50.8212
G01 X73.2294 Y50.8268
G01 X73.2382 Y50.8335
G01 X73.2462 Y50.8410
G01 X73.2511 Y50.8465
G01 X73.2556 Y50.8524
G01 X73.2614 Y50.8618
G01 X73.2671 Y50.8740
G01 X73.2695 Y50.8810
G01 X73.2719 Y50.8905
G01 X73.2735 Y50.9026
G01 X73.2738 Y50.9100
G01 X73.2734 Y50.9198
G01 X73.2719 Y50.9295
G01 X73.2702 Y50.9367
G01 X73.2662 Y50.9483
G01 X73.2620 Y50.9572
G01 X73.2583 Y50.9635
G01 X73.2503 Y50.9744
G01 X73.2445 Y50.9807
G01 X72.6658 Y51.5595
G01 X72.6566 Y51.5676
G01 X72.6507 Y51.5719
G01 X72.6422 Y51.5769
G01 X72.6334 Y51.5811
G01 X72.6241 Y51.5844
G01 X72.6146 Y51.5868
G01 X72.6049 Y51.5883
G01 X72.5951 Y51.5888
G01 X72.5853 Y51.5883
G01 X72.5756 Y51.5868
G01 X72.5660 Y51.5844
G01 X72.5568 Y51.5811
G01 X72.5479 Y51.5769
G01 X72.5395 Y51.5719
G01 X72.5316 Y51.5660
G01 X72.5244 Y51.5595
G01 X72.5178 Y51.5522
G01 X72.5119 Y51.5443
G01 X72.5069 Y51.5359
G01 X72.5027 Y51.5270
G01 X72.4994 Y51.5178
G01 X72.4970 Y51.5082
G01 X72.4954 Y51.4973
G01 X72.4951 Y51.4887
G01 X72.4955 Y51.4789
G01 X72.4968 Y51.4704
G01 X72.5000 Y51.4542
G01 X72.5000 Y51.3458
G01 X72.4899 Y51.2949
G00 Z1.0000
G00 X74.2100 Y51.1226
G01 F400.00
G01 Z-0.0400
G01 F2500.00
G01 X74.2102 Y50.9451
G01 X74.2110 Y50.9402
G01 X74.2125 Y50.9343
G01 X74.2143 Y50.9297
G01 X74.2171 Y50.9243
G01 X74.2206 Y50.9192
G01 X74.2246 Y50.9146
G01 X74.2292 Y50.9106
G01 X74.2333 Y50.9078
G01 X74.2397 Y50.9043
G01 X74.2455 Y50.9022
G01 X74.2527 Y50.9005
G01 X74.2588 Y50.9000
G01 X74.4925 Y50.9001
G01 X74.4985 Y50.9007
G01 X74.5045 Y50.9022
G01 X74.5091 Y50.9038
G01 X74.5146 Y50.9065
G01 X74.5198 Y50.9098
G01 X74.5245 Y50.9138
G01 X74.5287 Y50.9183
G01 X74.5322 Y50.9233
G01 X74.5357 Y50.9297
G01 X74.5382 Y50.9367
G01 X74.5395 Y50.9427
G01 X74.5400 Y50.9500
G01 X74.5401 Y52.6000
G01 X74.8275 Y52.6001
G01 X74.8667 Y52.6020
G01 X74.9055 Y52.6077
G01 X74.9495 Y52.6187
G01 X74.9876 Y52.6324
G01 X75.0253 Y52.6502
G01 X75.0611 Y52.6716
G01 X75.0946 Y52.6965
G01 X75.1255 Y52.7245
G01 X75.1535 Y52.7554
G01 X75.1784 Y52.7889
G01 X75.1992 Y52.8236
G01 X75.2176 Y52.8624
G01 X75.2324 Y52.9040
G01 X75.2418 Y52.9421
G01 X75.2477 Y52.9809
G01 X75.2499 Y53.0225
G01 X75.2500 Y53.7750
G01 X75.2480 Y53.8167
G01 X75.2416 Y53.8591
G01 X75.2317 Y53.8984
G01 X75.2185 Y53.9354
G01 X75.1998 Y53.9753
G01 X75.1770 Y54.0131
G01 X75.1535 Y54.0446
G01 X75.1255 Y54.0755
G01 X75.0946 Y54.1035
G01 X75.0631 Y54.1270
G01 X75.0253 Y54.1498
G01 X74.9876 Y54.1676
G01 X74.9507 Y54.1809
G01 X74.9079 Y54.1918
G01 X74.8667 Y54.1980
G01 X74.8250 Y54.2000
G01 X73.5750 Y54.2000
G01 X73.5333 Y54.1980
G01 X73.4909 Y54.1916
G01 X73.4516 Y54.1817
G01 X73.4146 Y54.1685
G01 X73.3747 Y54.1498
G01 X73.3369 Y54.1270
G01 X73.3054 Y54.1035
G01 X73.2763 Y54.0772
G01 X73.2465 Y54.0446
G01 X73.2203 Y54.0090
G01 X73.2002 Y53.9753
G01 X73.1833 Y53.9399
G01 X73.1680 Y53.8972
G01 X73.1582 Y53.8579
G01 X73.1523 Y53.8191
G01 X73.1500 Y53.7750
G01 X73.1500 Y53.0250
G01 X73.1520 Y52.9833
G01 X73.1584 Y52.9409
G01 X73.1683 Y52.9016
G01 X73.1815 Y52.8646
G01 X73.2002 Y52.8247
G01 X73.2230 Y52.7869
G01 X73.2465 Y52.7554
G01 X73.2728 Y52.7263
G01 X73.3054 Y52.6965
G01 X73.3410 Y52.6703
G01 X73.3747 Y52.6502
G01 X73.4101 Y52.6333
G01 X73.4505 Y52.6187
G01 X73.4945 Y52.6077
G01 X73.5333 Y52.6020
G01 X73.5738 Y52.6000
G01 X74.2099 Y52.6000
G01 X74.2100 Y51.1226
G00 Z1.0000
G00 X74.2888 Y50.3710
G01 F400.00
G01 Z-0.0400
G01 F2500.00
G01 X74.2847 Y50.3602
G01 X74.2819 Y50.3495
G01 X74.2805 Y50.3398
G01 X74.2800 Y50.3288
G01 X74.2808 Y50.3178
G01 X74.2819 Y50.3105
G01 X74.2836 Y50.3033
G01 X74.2867 Y50.2940
G01 X74.2888 Y50.2890
G01 X74.2978 Y50.2594
G01 X74.3012 Y50.2251
G01 X74.3012 Y50.0049
G01 X74.2978 Y49.9706
G01 X74.2888 Y49.9410
G01 X74.2843 Y49.9290
G01 X74.2825 Y49.9219
G01 X74.2805 Y49.9098
G01 X74.2800 Y49.8988
G01 X74.2808 Y49.8878
G01 X74.2819 Y49.8805
G01 X74.2836 Y49.8733
G01 X74.2867 Y49.8640
G01 X74.2888 Y49.8590
G01 X74.2978 Y49.8294
G01 X74.3012 Y49.7951
G01 X74.3012 Y49.5749
G01 X74.2978 Y49.5406
G01 X74.2888 Y49.5110
G01 X74.2843 Y49.4990
G01 X74.2825 Y49.4919
G01 X74.2805 Y49.4798
G01 X74.2801 Y49.4675
G01 X74.2808 Y49.4578
G01 X74.2819 Y49.4505
G01 X74.2836 Y49.4433
G01 X74.2867 Y49.4340
G01 X74.2888 Y49.4290
G01 X74.2978 Y49.3994
G01 X74.3012 Y49.3651
G01 X74.3012 Y49.1449
G01 X74.2974 Y49.1037
G01 X74.2977 Y49.0926
G01 X74.2989 Y49.0841
G01 X74.3013 Y49.0734
G01 X74.3050 Y49.0629
G01 X74.3092 Y49.0541
G01 X74.3149 Y49.0446
G01 X74.3209 Y49.0368
G01 X74.3284 Y49.0288
G01 X74.3339 Y49.0239
G01 X74.3398 Y49.0195
G01 X74.3492 Y49.0136
G01 X74.3591 Y49.0088
G01 X74.3684 Y49.0055
G01 X74.3779 Y49.0031
G01 X74.3876 Y49.0017
G01 X74.3974 Y49.0012
G01 X74.4851 Y49.0012
G01 X74.5194 Y48.9978
G01 X74.5490 Y48.9888
G01 X74.5540 Y48.9867
G01 X74.5633 Y48.9836
G01 X74.5705 Y48.9819
G01 X74.5778 Y48.9808
G01 X74.5888 Y48.9800
G01 X74.5998 Y48.9805
G01 X74.6119 Y48.9825
G01 X74.6190 Y48.9843
G01 X74.6310 Y48.9888
G01 X74.6606 Y48.9978
G01 X74.6949 Y49.0012
G01 X74.9151 Y49.0012
G01 X74.9494 Y48.9978
G01 X74.9790 Y48.9888
G01 X74.9840 Y48.9867
G01 X74.9933 Y48.9836
G01 X75.0005 Y48.9819
G01 X75.0078 Y48.9808
G01 X75.0200 Y48.9800
G01 X75.0322 Y48.9808
G01 X75.0395 Y48.9819
G01 X75.0467 Y48.9836
G01 X75.0560 Y48.9867
G01 X75.0610 Y48.9888
G01 X75.0906 Y48.9978
G01 X75.1249 Y49.0012
G01 X75.3451 Y49.0012
G01 X75.3794 Y48.9978
G01 X75.4090 Y48.9888
G01 X75.4140 Y48.9867
G01 X75.4233 Y48.9836
G01 X75.4305 Y48.9819
G01 X75.4378 Y48.9808
G01 X75.4500 Y48.9800
G01 X75.4622 Y48.9808
G01 X75.4695 Y48.9819
G01 X75.4767 Y48.9836
G01 X75.4860 Y48.9867
G01 X75.4910 Y48.9888
G01 X75.5206 Y48.9978
G01 X75.5549 Y49.0012
G01 X75.7751 Y49.0012
G01 X75.8094 Y48.9978
G01 X75.8390 Y48.9888
G01 X75.8440 Y48.9867
G01 X75.8533 Y48.9836
G01 X75.8605 Y48.9819
G01 X75.8678 Y48.9808
G01 X75.8800 Y48.9800
G01 X75.8922 Y48.9808
G01 X75.8995 Y48.9819
G01 X75.9067 Y48.9836
G01 X75.9160 Y48.9867
G01 X75.9210 Y48.9888
G01 X75.9506 Y48.9978
G01 X75.9849 Y49.0012
G01 X76.2051 Y49.0012
G01 X76.2394 Y48.9978
G01 X76.2690 Y48.9888
G01 X76.2810 Y48.9843
G01 X76.2881 Y48.9825
G01 X76.3002 Y48.9805
G01 X76.3112 Y48.9800
G01 X76.3222 Y48.9808
G01 X76.3295 Y48.9819
G01 X76.3367 Y48.9836
G01 X76.3460 Y48.9867
G01 X76.3510 Y48.9888
G01 X76.3806 Y48.9978
G01 X76.4149 Y49.0012
G01 X76.5051 Y49.0012
G01 X76.5149 Y49.0020
G01 X76.5221 Y49.0031
G01 X76.5293 Y49.0048
G01 X76.5398 Y49.0083
G01 X76.5487 Y49.0124
G01 X76.5582 Y49.0180
G01 X76.5651 Y49.0231
G01 X76.5733 Y49.0305
G01 X76.5799 Y49.0378
G01 X76.5858 Y49.0456
G01 X76.5902 Y49.0530
G01 X76.5950 Y49.0629
G01 X76.5990 Y49.0745
G01 X76.6007 Y49.0817
G01 X76.6019 Y49.0890
G01 X76.6026 Y49.1000
G01 X76.6023 Y49.1098
G01 X76.5988 Y49.1449
G01 X76.5988 Y49.3651
G01 X76.6022 Y49.3994
G01 X76.6112 Y49.4290
G01 X76.6133 Y49.4340
G01 X76.6164 Y49.4433
G01 X76.6181 Y49.4505
G01 X76.6192 Y49.4578
G01 X76.6200 Y49.4688
G01 X76.6195 Y49.4798
G01 X76.6175 Y49.4919
G01 X76.6157 Y49.4990
G01 X76.6112 Y49.5110
G01 X76.6022 Y49.5406
G01 X76.5988 Y49.5749
G01 X76.5988 Y49.7951
G01 X76.6022 Y49.8294
G01 X76.6112 Y49.8590
G01 X76.6133 Y49.8640
G01 X76.6164 Y49.8733
G01 X76.6181 Y49.8805
G01 X76.6192 Y49.8878
G01 X76.6200 Y49.9000
G01 X76.6192 Y49.9122
G01 X76.6181 Y49.9195
G01 X76.6164 Y49.9267
G01 X76.6133 Y49.9360
G01 X76.6112 Y49.9410
G01 X76.6022 Y49.9706
G01 X76.5988 Y50.0049
G01 X76.5988 Y50.2251
G01 X76.6022 Y50.2594
G01 X76.6112 Y50.2890
G01 X76.6157 Y50.3010
G01 X76.6175 Y50.3081
G01 X76.6195 Y50.3202
G01 X76.6200 Y50.3312
G01 X76.6192 Y50.3422
G01 X76.6181 Y50.3495
G01 X76.6164 Y50.3567
G01 X76.6133 Y50.3660
G01 X76.6112 Y50.3710
G01 X76.6022 Y50.4006
G01 X76.5988 Y50.4349
G01 X76.5988 Y50.6551
G01 X76.6026 Y50.6963
G01 X76.6023 Y50.7074
G01 X76.6011 Y50.7159
G01 X76.5987 Y50.7266
G01 X76.5950 Y50.7371
G01 X76.5908 Y50.7459
G01 X76.5851 Y50.7554
G01 X76.5791 Y50.7632
G01 X76.5716 Y50.7712
G01 X76.5661 Y50.7761
G01 X76.5602 Y50.7805
G01 X76.5508 Y50.7864
G01 X76.5409 Y50.7912
G01 X76.5316 Y50.7945
G01 X76.5221 Y50.7969
G01 X76.5124 Y50.7983
G01 X76.5026 Y50.7988
G01 X76.4149 Y50.7988
G01 X76.3806 Y50.8022
G01 X76.3510 Y50.8112
G01 X76.3460 Y50.8133
G01 X76.3367 Y50.8164
G01 X76.3295 Y50.8181
G01 X76.3222 Y50.8192
G01 X76.3100 Y50.8200
G01 X76.2978 Y50.8192
G01 X76.2905 Y50.8181
G01 X76.2833 Y50.8164
G01 X76.2740 Y50.8133
G01 X76.2690 Y50.8112
G01 X76.2394 Y50.8022
G01 X76.2051 Y50.7988
G01 X75.9849 Y50.7988
G01 X75.9506 Y50.8022
G01 X75.9210 Y50.8112
G01 X75.9160 Y50.8133
G01 X75.9067 Y50.8164
G01 X75.8995 Y50.8181
G01 X75.8922 Y50.8192
G01 X75.8800 Y50.8200
G01 X75.8678 Y50.8192
G01 X75.8605 Y50.8181
G01 X75.8533 Y50.8164
G01 X75.8440 Y50.8133
G01 X75.8390 Y50.8112
G01 X75.8094 Y50.8022
G01 X75.7751 Y50.7988
G01 X75.5549 Y50.7988
G01 X75.5206 Y50.8022
G01 X75.4910 Y50.8112
G01 X75.4860 Y50.8133
G01 X75.4767 Y50.8164
G01 X75.4695 Y50.8181
G01 X75.4622 Y50.8192
G01 X75.4500 Y50.8200
G01 X75.4378 Y50.8192
G01 X75.4305 Y50.8181
G01 X75.4233 Y50.8164
G01 X75.4140 Y50.8133
G01 X75.4090 Y50.8112
G01 X75.3794 Y50.8022
G01 X75.3451 Y50.7988
G01 X75.1249 Y50.7988
G01 X75.0906 Y50.8022
G01 X75.0610 Y50.8112
G01 X75.0560 Y50.8133
G01 X75.0467 Y50.8164
G01 X75.0395 Y50.8181
G01 X75.0322 Y50.8192
G01 X75.0200 Y50.8200
G01 X75.0078 Y50.8192
G01 X75.0005 Y50.8181
G01 X74.9933 Y50.8164
G01 X74.9840 Y50.8133
G01 X74.9790 Y50.8112
G01 X74.9494 Y50.8022
G01 X74.9151 Y50.7988
G01 X74.6949 Y50.7988
G01 X74.6606 Y50.8022
G01 X74.6310 Y50.8112
G01 X74.6260 Y50.8133
G01 X74.6167 Y50.8164
G01 X74.6095 Y50.8181
G01 X74.6022 Y50.8192
G01 X74.5900 Y50.8200
G01 X74.5778 Y50.8192
G01 X74.5705 Y50.8181
G01 X74.5633 Y50.8164
G01 X74.5540 Y50.8133
G01 X74.5490 Y50.8112
G01 X74.5194 Y50.8022
G01 X74.4851 Y50.7988
G01 X74.3962 Y50.7988
G01 X74.3876 Y50.7983
G01 X74.3791 Y50.7971
G01 X74.3660 Y50.7937
G01 X74.3591 Y50.7912
G01 X74.3502 Y50.7870
G01 X74.3398 Y50.7805
G01 X74.3339 Y50.7761
G01 X74.3267 Y50.7695
G01 X74.3186 Y50.7603
G01 X74.3142 Y50.7544
G01 X74.3092 Y50.7459
G01 X74.3041 Y50.7348
G01 X74.3017 Y50.7278
G01 X74.2995 Y50.7195
G01 X74.2978 Y50.7086
G01 X74.2974 Y50.6988
G01 X74.2978 Y50.6890
G01 X74.3012 Y50.6551
G01 X74.3012 Y50.4349
G01 X74.2978 Y50.4006
G01 X74.2888 Y50.3710
G00 Z1.0000
G00 X75.4999 Y51.6150
G01 F400.00
G01 Z-0.0400
G01 F2500.00
G01 X75.5000 Y50.9500
G01 X75.5010 Y50.9402
G01 X75.5038 Y50.9309
G01 X75.5071 Y50.9243
G01 X75.5106 Y50.9192
G01 X75.5155 Y50.9138
G01 X75.5202 Y50.9098
G01 X75.5254 Y50.9065
G01 X75.5320 Y50.9034
G01 X75.5390 Y50.9012
G01 X75.5451 Y50.9002
G01 X75.7800 Y50.9000
G01 X75.7898 Y50.9010
G01 X75.7968 Y50.9029
G01 X75.8046 Y50.9065
G01 X75.8117 Y50.9113
G01 X75.8179 Y50.9173
G01 X75.8229 Y50.9243
G01 X75.8262 Y50.9309
G01 X75.8288 Y50.9390
G01 X75.8299 Y50.9463
G01 X75.8301 Y51.5466
G01 X76.7684 Y52.4849
G01 X80.1316 Y52.4849
G01 X80.5349 Y52.0816
G01 X80.5349 Y51.7000
G01 X80.0738 Y51.7000
G01 X80.0309 Y51.6977
G01 X79.9921 Y51.6918
G01 X79.9528 Y51.6820
G01 X79.9124 Y51.6676
G01 X79.8747 Y51.6498
G01 X79.8389 Y51.6284
G01 X79.8054 Y51.6035
G01 X79.7745 Y51.5755
G01 X79.7465 Y51.5446
G01 X79.7216 Y51.5111
G01 X79.7002 Y51.4753
G01 X79.6824 Y51.4376
G01 X79.6683 Y51.3984
G01 X79.6582 Y51.3579
G01 X79.6519 Y51.3142
G01 X79.6500 Y51.2750
G01 X79.6501 Y50.5225
G01 X79.6520 Y50.4833
G01 X79.6582 Y50.4421
G01 X79.6683 Y50.4016
G01 X79.6815 Y50.3646
G01 X79.7014 Y50.3225
G01 X79.7216 Y50.2889
G01 X79.7457 Y50.2563
G01 X79.7745 Y50.2245
G01 X79.8054 Y50.1965
G01 X79.8389 Y50.1716
G01 X79.8747 Y50.1502
G01 X79.9124 Y50.1324
G01 X79.9516 Y50.1183
G01 X79.9921 Y50.1082
G01 X80.0333 Y50.1020
G01 X80.0750 Y50.1000
G01 X81.3250 Y50.1000
G01 X81.3667 Y50.1020
G01 X81.4079 Y50.1082
G01 X81.4460 Y50.1176
G01 X81.4899 Y50.1333
G01 X81.5253 Y50.1502
G01 X81.5611 Y50.1716
G01 X81.5946 Y50.1965
G01 X81.6237 Y50.2228
G01 X81.6550 Y50.2573
G01 X81.6784 Y50.2889
G01 X81.6998 Y50.3247
G01 X81.7176 Y50.3624
G01 X81.7309 Y50.3993
G01 X81.7418 Y50.4421
G01 X81.7480 Y50.4833
G01 X81.7500 Y50.5250
G01 X81.7500 Y51.2750
G01 X81.7481 Y51.3142
G01 X81.7418 Y51.3579
G01 X81.7309 Y51.4007
G01 X81.7176 Y51.4376
G01 X81.7009 Y51.4732
G01 X81.6790 Y51.5101
G01 X81.6535 Y51.5446
G01 X81.6255 Y51.5755
G01 X81.5946 Y51.6035
G01 X81.5611 Y51.6284
G01 X81.5253 Y51.6498
G01 X81.4876 Y51.6676
G01 X81.4484 Y51.6817
G01 X81.4091 Y51.6916
G01 X81.3667 Y51.6980
G01 X81.3262 Y51.7000
G01 X80.8651 Y51.7000
G01 X80.8650 Y52.1525
G01 X80.8640 Y52.1686
G01 X80.8619 Y52.1822
G01 X80.8586 Y52.1955
G01 X80.8525 Y52.2132
G01 X80.8450 Y52.2289
G01 X80.8372 Y52.2417
G01 X80.8291 Y52.2528
G01 X80.8167 Y52.2667
G01 X80.3158 Y52.7676
G01 X80.3047 Y52.7776
G01 X80.2937 Y52.7858
G01 X80.2778 Y52.7956
G01 X80.2609 Y52.8034
G01 X80.2479 Y52.8080
G01 X80.2322 Y52.8119
G01 X80.2162 Y52.8143
G01 X80.2000 Y52.8151
G01 X76.7000 Y52.8151
G01 X76.6814 Y52.8140
G01 X76.6678 Y52.8119
G01 X76.6545 Y52.8086
G01 X76.6368 Y52.8025
G01 X76.6201 Y52.7944
G01 X76.6083 Y52.7872
G01 X76.5972 Y52.7791
G01 X76.5842 Y52.7676
G01 X75.5474 Y51.7308
G01 X75.5374 Y51.7197
G01 X75.5278 Y51.7067
G01 X75.5194 Y51.6928
G01 X75.5125 Y51.6782
G01 X75.5070 Y51.6629
G01 X75.5031 Y51.6472
G01 X75.5007 Y51.6312
G01 X75.4999 Y51.6150
G00 Z1.0000
G00 X75.9299 Y51.4369
G01 F400.00
G01 Z-0.0400
G01 F2500.00
G01 X75.9301 Y50.9475
G01 X75.9307 Y50.9415
G01 X75.9325 Y50.9343
G01 X75.9353 Y50.9275
G01 X75.9384 Y50.9222
G01 X75.9430 Y50.9164
G01 X75.9473 Y50.9121
G01 X75.9533 Y50.9078
G01 X75.9586 Y50.9048
G01 X75.9632 Y50.9029
G01 X75.9690 Y50.9012
G01 X75.9788 Y50.9000
G01 X76.2125 Y50.9001
G01 X76.2185 Y50.9007
G01 X76.2245 Y50.9022
G01 X76.2291 Y50.9038
G01 X76.2346 Y50.9065
G01 X76.2398 Y50.9098
G01 X76.2436 Y50.9130
G01 X76.2479 Y50.9173
G01 X76.2509 Y50.9212
G01 X76.2547 Y50.9275
G01 X76.2575 Y50.9343
G01 X76.2593 Y50.9415
G01 X76.2600 Y50.9488
G01 X76.2601 Y51.3685
G01 X76.3599 Y51.4684
G01 X76.3600 Y50.9500
G01 X76.3605 Y50.9427
G01 X76.3618 Y50.9367
G01 X76.3638 Y50.9309
G01 X76.3665 Y50.9254
G01 X76.3698 Y50.9202
G01 X76.3738 Y50.9155
G01 X76.3783 Y50.9113
G01 X76.3843 Y50.9071
G01 X76.3897 Y50.9043
G01 X76.3955 Y50.9022
G01 X76.4015 Y50.9007
G01 X76.4075 Y50.9001
G01 X76.6425 Y50.9001
G01 X76.6498 Y50.9010
G01 X76.6568 Y50.9029
G01 X76.6646 Y50.9065
G01 X76.6708 Y50.9106
G01 X76.6754 Y50.9146
G01 X76.6787 Y50.9183
G01 X76.6816 Y50.9222
G01 X76.6847 Y50.9275
G01 X76.6866 Y50.9320
G01 X76.6885 Y50.9379
G01 X76.6895 Y50.9427
G01 X76.6900 Y50.9488
G01 X76.6901 Y51.4616
G01 X76.7806 Y51.5522
G01 X76.7899 Y51.5513
G01 X76.7900 Y50.9500
G01 X76.7902 Y50.9451
G01 X76.7912 Y50.9390
G01 X76.7943 Y50.9297
G01 X76.7978 Y50.9233
G01 X76.8013 Y50.9183
G01 X76.8055 Y50.9138
G01 X76.8112 Y50.9091
G01 X76.8164 Y50.9059
G01 X76.8232 Y50.9029
G01 X76.8290 Y50.9012
G01 X76.8351 Y50.9002
G01 X77.0725 Y50.9001
G01 X77.0810 Y50.9012
G01 X77.0903 Y50.9043
G01 X77.0978 Y50.9084
G01 X77.1054 Y50.9146
G01 X77.1109 Y50.9212
G01 X77.1152 Y50.9286
G01 X77.1182 Y50.9367
G01 X77.1199 Y50.9463
G01 X77.1201 Y51.5499
G01 X78.0550 Y51.5498
G01 X78.0999 Y51.5050
G01 X78.0999 Y51.4325
G01 X78.0758 Y51.4000
G01 X78.0543 Y51.3643
G01 X78.0343 Y51.3222
G01 X78.0187 Y51.2783
G01 X78.0086 Y51.2378
G01 X78.0023 Y51.1953
G01 X78.0001 Y51.1475
G01 X78.0022 Y51.1059
G01 X78.0082 Y51.0646
G01 X78.0194 Y51.0194
G01 X78.0338 Y50.9789
G01 X78.0375 Y50.9709
G01 X77.7766 Y50.7101
G01 X76.7500 Y50.7100
G01 X76.7439 Y50.7096
G01 X76.7379 Y50.7085
G01 X76.7309 Y50.7062
G01 X76.7243 Y50.7029
G01 X76.7183 Y50.6987
G01 X76.7130 Y50.6936
G01 X76.7084 Y50.6878
G01 X76.7048 Y50.6814
G01 X76.7022 Y50.6745
G01 X76.7004 Y50.6661
G01 X76.7000 Y50.6600
G01 X76.7000 Y50.4288
G01 X76.7012 Y50.4190
G01 X76.7038 Y50.4109
G01 X76.7084 Y50.4022
G01 X76.7146 Y50.3946
G01 X76.7212 Y50.3891
G01 X76.7297 Y50.3843
G01 X76.7379 Y50.3815
G01 X76.7475 Y50.3801
G01 X77.8450 Y50.3799
G01 X77.8612 Y50.3807
G01 X77.8772 Y50.3831
G01 X77.8905 Y50.3864
G01 X77.9082 Y50.3925
G01 X77.9249 Y50.4006
G01 X77.9367 Y50.4078
G01 X77.9488 Y50.4166
G01 X77.9617 Y50.4283
G01 X78.0998 Y50.5664
G01 X78.0998 Y50.2801
G01 X76.7500 Y50.2800
G01 X76.7402 Y50.2790
G01 X76.7332 Y50.2771
G01 X76.7254 Y50.2735
G01 X76.7192 Y50.2694
G01 X76.7138 Y50.2645
G01 X76.7091 Y50.2588
G01 X76.7053 Y50.2525
G01 X76.7022 Y50.2445
G01 X76.7005 Y50.2373
G01 X76.7000 Y50.2300
G01 X76.7000 Y49.9988
G01 X76.7012 Y49.9890
G01 X76.7038 Y49.9809
G01 X76.7084 Y49.9722
G01 X76.7146 Y49.9646
G01 X76.7212 Y49.9591
G01 X76.7297 Y49.9543
G01 X76.7390 Y49.9512
G01 X76.7488 Y49.9500
G01 X78.0998 Y49.9499
G01 X78.0998 Y49.8501
G01 X76.7500 Y49.8500
G01 X76.7402 Y49.8490
G01 X76.7332 Y49.8471
G01 X76.7254 Y49.8435
G01 X76.7192 Y49.8394
G01 X76.7138 Y49.8345
G01 X76.7091 Y49.8288
G01 X76.7053 Y49.8225
G01 X76.7022 Y49.8145
G01 X76.7005 Y49.8073
G01 X76.7000 Y49.8000
G01 X76.7000 Y49.5688
G01 X76.7012 Y49.5590
G01 X76.7038 Y49.5509
G01 X76.7084 Y49.5422
G01 X76.7146 Y49.5346
G01 X76.7212 Y49.5291
G01 X76.7297 Y49.5243
G01 X76.7390 Y49.5212
G01 X76.7488 Y49.5200
G01 X78.0998 Y49.5199
G01 X78.0998 Y49.4201
G01 X76.7500 Y49.4200
G01 X76.7402 Y49.4190
G01 X76.7332 Y49.4171
G01 X76.7254 Y49.4135
G01 X76.7183 Y49.4087
G01 X76.7130 Y49.4036
G01 X76.7084 Y49.3978
G01 X76.7048 Y49.3914
G01 X76.7022 Y49.3845
G01 X76.7004 Y49.3761
G01 X76.7000 Y49.3700
G01 X76.7000 Y49.1400
G01 X76.7004 Y49.1339
G01 X76.7015 Y49.1279
G01 X76.7043 Y49.1197
G01 X76.7084 Y49.1122
G01 X76.7138 Y49.1055
G01 X76.7192 Y49.1006
G01 X76.7264 Y49.0959
G01 X76.7332 Y49.0929
G01 X76.7402 Y49.0910
G01 X76.7488 Y49.0900
G01 X78.1053 Y49.0899
G01 X78.1068 Y49.0805
G01 X78.1153 Y49.0472
G01 X78.1265 Y49.0160
G01 X78.1412 Y48.9849
G01 X78.1589 Y48.9555
G01 X78.1778 Y48.9298
G01 X78.2033 Y48.9015
G01 X78.2279 Y48.8793
G01 X78.2535 Y48.8603
G01 X78.2871 Y48.8401
G01 X78.3160 Y48.8265
G01 X78.3484 Y48.8149
G01 X78.3817 Y48.8066
G01 X78.4145 Y48.8017
G01 X78.4500 Y48.7999
G01 X78.4868 Y48.8018
G01 X78.5183 Y48.8066
G01 X78.5493 Y48.8143
G01 X78.5817 Y48.8256
G01 X78.6151 Y48.8412
G01 X78.6445 Y48.8589
G01 X78.6721 Y48.8793
G01 X78.6993 Y48.9042
G01 X78.7207 Y48.9279
G01 X78.7411 Y48.9555
G01 X78.7588 Y48.9849
G01 X78.7725 Y49.0138
G01 X78.7857 Y49.0507
G01 X78.7934 Y49.0817
G01 X78.7985 Y49.1157
G01 X78.8001 Y49.1500
G01 X78.8002 Y50.8675
G01 X78.8242 Y50.9000
G01 X78.8469 Y50.9379
G01 X78.8657 Y50.9778
G01 X78.8806 Y51.0194
G01 X78.8914 Y51.0622
G01 X78.8978 Y51.1059
G01 X78.9000 Y51.1500
G01 X78.8979 Y51.1929
G01 X78.8908 Y51.2402
G01 X78.8806 Y51.2806
G01 X78.8657 Y51.3222
G01 X78.8457 Y51.3643
G01 X78.8242 Y51.4000
G01 X78.8001 Y51.4325
G01 X78.8001 Y51.6500
G01 X78.7986 Y51.6831
G01 X78.7934 Y51.7183
G01 X78.7857 Y51.7493
G01 X78.7725 Y51.7862
G01 X78.7588 Y51.8151
G01 X78.7425 Y51.8425
G01 X78.7191 Y51.8740
G01 X78.6976 Y51.8976
G01 X78.4458 Y52.1493
G01 X78.4221 Y52.1707
G01 X78.3945 Y52.1911
G01 X78.3651 Y52.2088
G01 X78.3362 Y52.2225
G01 X78.2993 Y52.2357
G01 X78.2683 Y52.2434
G01 X78.2319 Y52.2486
G01 X78.2000 Y52.2501
G01 X76.8198 Y52.2501
G01 X76.7830 Y52.2482
G01 X76.7514 Y52.2434
G01 X76.7193 Y52.2354
G01 X76.6858 Y52.2235
G01 X76.6526 Y52.2076
G01 X76.6252 Y52.1911
G01 X76.5996 Y52.1722
G01 X76.5739 Y52.1493
G01 X76.5491 Y52.1221
G01 X76.5300 Y52.0965
G01 X76.5115 Y52.0661
G01 X76.5070 Y52.0569
G01 X76.4950 Y52.0525
G01 X76.4825 Y52.0467
G01 X76.4685 Y52.0386
G01 X76.4534 Y52.0276
G01 X76.4423 Y52.0176
G01 X75.9783 Y51.5536
G01 X75.9674 Y51.5416
G01 X75.9578 Y51.5286
G01 X75.9494 Y51.5147
G01 X75.9425 Y51.5000
G01 X75.9370 Y51.4848
G01 X75.9331 Y51.4691
G01 X75.9307 Y51.4531
G01 X75.9299 Y51.4369
G00 Z1.0000
G00 X77.2205 Y51.3025
G01 F400.00
G01 Z-0.0400
G01 F2500.00
G01 X77.2212 Y51.2951
G01 X77.2212 Y50.9549
G01 X77.2175 Y50.9174
G01 X77.2173 Y50.9088
G01 X77.2179 Y50.8990
G01 X77.2192 Y50.8905
G01 X77.2209 Y50.8833
G01 X77.2244 Y50.8729
G01 X77.2291 Y50.8628
G01 X77.2355 Y50.8524
G01 X77.2399 Y50.8465
G01 X77.2448 Y50.8410
G01 X77.2538 Y50.8327
G01 X77.2638 Y50.8255
G01 X77.2701 Y50.8218
G01 X77.2767 Y50.8186
G01 X77.2871 Y50.8147
G01 X77.2966 Y50.8122
G01 X77.3075 Y50.8105
G01 X77.3173 Y50.8100
G01 X77.6938 Y50.8100
G01 X77.7061 Y50.8108
G01 X77.7133 Y50.8119
G01 X77.7217 Y50.8139
G01 X77.7321 Y50.8176
G01 X77.7431 Y50.8230
G01 X77.7494 Y50.8268
G01 X77.7553 Y50.8312
G01 X77.7637 Y50.8384
G01 X77.8832 Y50.9579
G01 X77.8889 Y50.9643
G01 X77.8947 Y50.9722
G01 X77.8998 Y50.9806
G01 X77.9030 Y50.9872
G01 X77.9069 Y50.9976
G01 X77.9097 Y51.0083
G01 X77.9111 Y51.0180
G01 X77.9116 Y51.0290
G01 X77.9111 Y51.0376
G01 X77.9099 Y51.0461
G01 X77.9000 Y51.0958
G01 X77.9000 Y51.2042
G01 X77.9212 Y51.3104
G01 X77.9250 Y51.3210
G01 X77.9274 Y51.3305
G01 X77.9290 Y51.3426
G01 X77.9293 Y51.3500
G01 X77.9289 Y51.3586
G01 X77.9274 Y51.3695
G01 X77.9242 Y51.3814
G01 X77.9217 Y51.3883
G01 X77.9181 Y51.3961
G01 X77.9118 Y51.4066
G01 X77.9066 Y51.4135
G01 X77.9017 Y51.4190
G01 X77.8927 Y51.4273
G01 X77.8828 Y51.4345
G01 X77.8764 Y51.4382
G01 X77.8698 Y51.4414
G01 X77.8595 Y51.4453
G01 X77.8500 Y51.4478
G01 X77.8391 Y51.4495
G01 X77.8293 Y51.4500
G01 X77.3200 Y51.4500
G01 X77.3102 Y51.4495
G01 X77.2993 Y51.4478
G01 X77.2898 Y51.4453
G01 X77.2795 Y51.4414
G01 X77.2728 Y51.4382
G01 X77.2665 Y51.4345
G01 X77.2585 Y51.4288
G01 X77.2502 Y51.4216
G01 X77.2435 Y51.4144
G01 X77.2368 Y51.4056
G01 X77.2318 Y51.3972
G01 X77.2276 Y51.3883
G01 X77.2243 Y51.3790
G01 X77.2219 Y51.3695
G01 X77.2206 Y51.3610
G01 X77.2200 Y51.3500
G01 X77.2200 Y51.3123
G01 X77.2205 Y51.3025
G00 Z1.0000
G00 X76.7899 Y48.6750
G01 F400.00
G01 Z-0.0400
G01 F2500.00
G01 X76.7899 Y47.4050
G01 X76.7909 Y47.3876
G01 X76.7931 Y47.3728
G01 X76.7970 Y47.3571
G01 X76.8025 Y47.3418
G01 X76.8094 Y47.3272
G01 X76.8178 Y47.3133
G01 X76.8274 Y47.3003
G01 X76.8383 Y47.2883
G01 X76.8503 Y47.2774
G01 X76.8633 Y47.2678
G01 X76.8772 Y47.2594
G01 X76.8918 Y47.2525
G01 X76.9071 Y47.2470
G01 X76.9228 Y47.2431
G01 X76.9388 Y47.2407
G01 X76.9550 Y47.2399
G01 X76.9724 Y47.2409
G01 X76.9872 Y47.2431
G01 X77.0029 Y47.2470
G01 X77.0182 Y47.2525
G01 X77.0306 Y47.2583
G01 X77.0487 Y47.2692
G01 X77.0597 Y47.2774
G01 X77.0717 Y47.2883
G01 X77.0826 Y47.3003
G01 X77.0922 Y47.3133
G01 X77.1006 Y47.3272
G01 X77.1065 Y47.3396
G01 X77.1136 Y47.3595
G01 X77.1169 Y47.3728
G01 X77.1194 Y47.3900
G01 X77.1201 Y47.4050
G01 X77.1200 Y48.8500
G01 X77.1195 Y48.8573
G01 X77.1178 Y48.8645
G01 X77.1152 Y48.8714
G01 X77.1122 Y48.8767
G01 X77.1087 Y48.8817
G01 X77.1045 Y48.8862
G01 X77.1008 Y48.8894
G01 X77.0957 Y48.8929
G01 X77.0903 Y48.8957
G01 X77.0845 Y48.8978
G01 X77.0785 Y48.8993
G01 X77.0725 Y48.8999
G01 X76.8388 Y48.9000
G01 X76.8327 Y48.8995
G01 X76.8255 Y48.8978
G01 X76.8197 Y48.8957
G01 X76.8133 Y48.8922
G01 X76.8092 Y48.8894
G01 X76.8046 Y48.8854
G01 X76.8006 Y48.8808
G01 X76.7971 Y48.8757
G01 X76.7948 Y48.8714
G01 X76.7925 Y48.8657
G01 X76.7912 Y48.8610
G01 X76.7902 Y48.8549
G01 X76.7899 Y48.6750
G00 Z1.0000
G00 X76.3599 Y48.6750
G01 F400.00
G01 Z-0.0400
G01 F2500.00
G01 X76.3599 Y47.4750
G01 X76.3609 Y47.4576
G01 X76.3631 Y47.4428
G01 X76.3670 Y47.4271
G01 X76.3725 Y47.4118
G01 X76.3794 Y47.3972
G01 X76.3878 Y47.3833
G01 X76.3974 Y47.3703
G01 X76.4083 Y47.3583
G01 X76.4203 Y47.3474
G01 X76.4333 Y47.3378
G01 X76.4472 Y47.3294
G01 X76.4618 Y47.3225
G01 X76.4771 Y47.3170
G01 X76.4928 Y47.3131
G01 X76.5088 Y47.3107
G01 X76.5250 Y47.3099
G01 X76.5424 Y47.3109
G01 X76.5572 Y47.3131
G01 X76.5729 Y47.3170
G01 X76.5882 Y47.3225
G01 X76.6006 Y47.3283
G01 X76.6187 Y47.3392
G01 X76.6297 Y47.3474
G01 X76.6417 Y47.3583
G01 X76.6526 Y47.3703
G01 X76.6622 Y47.3833
G01 X76.6706 Y47.3972
G01 X76.6765 Y47.4096
G01 X76.6836 Y47.4295
G01 X76.6869 Y47.4428
G01 X76.6893 Y47.4588
G01 X76.6901 Y47.4750
G01 X76.6900 Y48.8500
G01 X76.6895 Y48.8573
G01 X76.6878 Y48.8645
G01 X76.6857 Y48.8703
G01 X76.6822 Y48.8767
G01 X76.6787 Y48.8817
G01 X76.6745 Y48.8862
G01 X76.6698 Y48.8902
G01 X76.6646 Y48.8935
G01 X76.6603 Y48.8957
G01 X76.6545 Y48.8978
G01 X76.6485 Y48.8993
G01 X76.6425 Y48.8999
G01 X76.4088 Y48.9000
G01 X76.4027 Y48.8995
G01 X76.3955 Y48.8978
G01 X76.3897 Y48.8957
G01 X76.3833 Y48.8922
G01 X76.3792 Y48.8894
G01 X76.3746 Y48.8854
G01 X76.3706 Y48.8808
G01 X76.3671 Y48.8757
G01 X76.3648 Y48.8714
G01 X76.3625 Y48.8657
G01 X76.3612 Y48.8610
G01 X76.3602 Y48.8549
G01 X76.3599 Y48.6750
G00 Z1.0000
G00 X75.9300 Y48.6774
G01 F400.00
G01 Z-0.0400
G01 F2500.00
G01 X75.9299 Y47.7550
G01 X75.9307 Y47.7388
G01 X75.9329 Y47.7240
G01 X75.9370 Y47.7071
G01 X75.9425 Y47.6918
G01 X75.9494 Y47.6772
G01 X75.9578 Y47.6633
G01 X75.9674 Y47.6503
G01 X75.9783 Y47.6383
G01 X75.9903 Y47.6274
G01 X76.0033 Y47.6178
G01 X76.0172 Y47.6094
G01 X76.0318 Y47.6025
G01 X76.0471 Y47.5970
G01 X76.0628 Y47.5931
G01 X76.0788 Y47.5907
G01 X76.0950 Y47.5899
G01 X76.1112 Y47.5907
G01 X76.1260 Y47.5929
G01 X76.1452 Y47.5978
G01 X76.1582 Y47.6025
G01 X76.1728 Y47.6094
G01 X76.1867 Y47.6178
G01 X76.1978 Y47.6259
G01 X76.2134 Y47.6401
G01 X76.2226 Y47.6503
G01 X76.2322 Y47.6633
G01 X76.2406 Y47.6772
G01 X76.2465 Y47.6896
G01 X76.2536 Y47.7095
G01 X76.2569 Y47.7228
G01 X76.2593 Y47.7388
G01 X76.2601 Y47.7550
G01 X76.2600 Y48.8500
G01 X76.2595 Y48.8573
G01 X76.2578 Y48.8645
G01 X76.2552 Y48.8714
G01 X76.2522 Y48.8767
G01 X76.2487 Y48.8817
G01 X76.2445 Y48.8862
G01 X76.2398 Y48.8902
G01 X76.2346 Y48.8935
G01 X76.2291 Y48.8962
G01 X76.2233 Y48.8982
G01 X76.2185 Y48.8993
G01 X76.2125 Y48.8999
G01 X75.9788 Y48.9000
G01 X75.9715 Y48.8993
G01 X75.9655 Y48.8978
G01 X75.9597 Y48.8957
G01 X75.9533 Y48.8922
G01 X75.9483 Y48.8887
G01 X75.9446 Y48.8854
G01 X75.9413 Y48.8817
G01 X75.9378 Y48.8767
G01 X75.9353 Y48.8725
G01 X75.9329 Y48.8668
G01 X75.9312 Y48.8610
G01 X75.9302 Y48.8549
G01 X75.9300 Y48.6774
G00 Z1.0000
G00 X75.5000 Y48.6774
G01 F400.00
G01 Z-0.0400
G01 F2500.00
G01 X75.4999 Y47.6850
G01 X75.5007 Y47.6688
G01 X75.5029 Y47.6540
G01 X75.5070 Y47.6371
G01 X75.5125 Y47.6218
G01 X75.5194 Y47.6072
G01 X75.5278 Y47.5933
G01 X75.5374 Y47.5803
G01 X75.5483 Y47.5683
G01 X75.5603 Y47.5574
G01 X75.5733 Y47.5478
G01 X75.5872 Y47.5394
G01 X75.6018 Y47.5325
G01 X75.6171 Y47.5270
G01 X75.6328 Y47.5231
G01 X75.6488 Y47.5207
G01 X75.6650 Y47.5199
G01 X75.6812 Y47.5207
G01 X75.6960 Y47.5229
G01 X75.7152 Y47.5278
G01 X75.7282 Y47.5325
G01 X75.7428 Y47.5394
G01 X75.7567 Y47.5478
G01 X75.7678 Y47.5559
G01 X75.7834 Y47.5701
G01 X75.7926 Y47.5803
G01 X75.8022 Y47.5933
G01 X75.8106 Y47.6072
G01 X75.8165 Y47.6196
G01 X75.8236 Y47.6395
G01 X75.8269 Y47.6528
G01 X75.8293 Y47.6688
G01 X75.8301 Y47.6850
G01 X75.8300 Y48.8500
G01 X75.8295 Y48.8573
G01 X75.8278 Y48.8645
G01 X75.8252 Y48.8714
G01 X75.8222 Y48.8767
G01 X75.8187 Y48.8817
G01 X75.8145 Y48.8862
G01 X75.8098 Y48.8902
G01 X75.8046 Y48.8935
G01 X75.7991 Y48.8962
G01 X75.7933 Y48.8982
G01 X75.7885 Y48.8993
G01 X75.7825 Y48.8999
G01 X75.5488 Y48.9000
G01 X75.5415 Y48.8993
G01 X75.5355 Y48.8978
G01 X75.5297 Y48.8957
G01 X75.5233 Y48.8922
G01 X75.5183 Y48.8887
G01 X75.5146 Y48.8854
G01 X75.5113 Y48.8817
G01 X75.5078 Y48.8767
G01 X75.5053 Y48.8725
G01 X75.5029 Y48.8668
G01 X75.5012 Y48.8610
G01 X75.5002 Y48.8549
G01 X75.5000 Y48.6774
G00 Z1.0000
G00 X75.0700 Y48.6774
G01 F400.00
G01 Z-0.0400
G01 F2500.00
G01 X75.0699 Y47.6500
G01 X75.0707 Y47.6338
G01 X75.0729 Y47.6190
G01 X75.0770 Y47.6021
G01 X75.0825 Y47.5868
G01 X75.0894 Y47.5722
G01 X75.0978 Y47.5583
G01 X75.1074 Y47.5453
G01 X75.1183 Y47.5333
G01 X75.1303 Y47.5224
G01 X75.1433 Y47.5128
G01 X75.1572 Y47.5044
G01 X75.1718 Y47.4975
G01 X75.1871 Y47.4921
G01 X75.2028 Y47.4881
G01 X75.2188 Y47.4857
G01 X75.2350 Y47.4850
G01 X75.2512 Y47.4857
G01 X75.2660 Y47.4879
G01 X75.2852 Y47.4928
G01 X75.2982 Y47.4975
G01 X75.3128 Y47.5044
G01 X75.3267 Y47.5128
G01 X75.3378 Y47.5209
G01 X75.3534 Y47.5351
G01 X75.3626 Y47.5453
G01 X75.3722 Y47.5583
G01 X75.3806 Y47.5722
G01 X75.3865 Y47.5846
G01 X75.3936 Y47.6045
G01 X75.3969 Y47.6178
G01 X75.3993 Y47.6338
G01 X75.4001 Y47.6500
G01 X75.4000 Y48.8500
G01 X75.3995 Y48.8573
G01 X75.3978 Y48.8645
G01 X75.3952 Y48.8714
G01 X75.3922 Y48.8767
G01 X75.3887 Y48.8817
G01 X75.3845 Y48.8862
G01 X75.3798 Y48.8902
G01 X75.3746 Y48.8935
G01 X75.3691 Y48.8962
G01 X75.3633 Y48.8982
G01 X75.3585 Y48.8993
G01 X75.3525 Y48.8999
G01 X75.1188 Y48.9000
G01 X75.1115 Y48.8993
G01 X75.1055 Y48.8978
G01 X75.0997 Y48.8957
G01 X75.0933 Y48.8922
G01 X75.0883 Y48.8887
G01 X75.0846 Y48.8854
G01 X75.0813 Y48.8817
G01 X75.0778 Y48.8767
G01 X75.0753 Y48.8725
G01 X75.0729 Y48.8668
G01 X75.0712 Y48.8610
G01 X75.0702 Y48.8549
G01 X75.0700 Y48.6774
G00 Z1.0000
G00 X72.1184 Y47.8151
G01 F400.00
G01 Z-0.0400
G01 F2500.00
G01 X72.1153 Y47.8233
G01 X72.0969 Y47.8621
G01 X72.0742 Y47.9000
G01 X72.0479 Y47.9355
G01 X72.0182 Y47.9682
G01 X71.9855 Y47.9979
G01 X71.9500 Y48.0242
G01 X71.9121 Y48.0469
G01 X71.8722 Y48.0657
G01 X71.8306 Y48.0806
G01 X71.7878 Y48.0914
G01 X71.7441 Y48.0978
G01 X71.7000 Y48.1000
G01 X71.6559 Y48.0978
G01 X71.6122 Y48.0914
G01 X71.5694 Y48.0806
G01 X71.5278 Y48.0657
G01 X71.4879 Y48.0469
G01 X71.4500 Y48.0242
G01 X71.4145 Y47.9979
G01 X71.3818 Y47.9682
G01 X71.3521 Y47.9355
G01 X71.3258 Y47.9000
G01 X71.3031 Y47.8621
G01 X71.2843 Y47.8222
G01 X71.2694 Y47.7806
G01 X71.2586 Y47.7378
G01 X71.2522 Y47.6941
G01 X71.2500 Y47.6500
G01 X71.2522 Y47.6059
G01 X71.2586 Y47.5622
G01 X71.2694 Y47.5194
G01 X71.2843 Y47.4778
G01 X71.3031 Y47.4379
G01 X71.3245 Y47.4021
G01 X71.3521 Y47.3645
G01 X71.3836 Y47.3301
G01 X71.4145 Y47.3021
G01 X71.4500 Y47.2758
G01 X71.4879 Y47.2531
G01 X71.5255 Y47.2352
G01 X71.5694 Y47.2194
G01 X71.6146 Y47.2082
G01 X71.6559 Y47.2022
G01 X71.7000 Y47.2000
G01 X71.7441 Y47.2022
G01 X71.7854 Y47.2082
G01 X71.8306 Y47.2194
G01 X71.8722 Y47.2343
G01 X71.9099 Y47.2520
G01 X71.9500 Y47.2758
G01 X71.9855 Y47.3021
G01 X72.0164 Y47.3301
G01 X72.0479 Y47.3645
G01 X72.0742 Y47.4000
G01 X72.0957 Y47.4357
G01 X72.1148 Y47.4755
G01 X72.1184 Y47.4849
G01 X74.7000 Y47.4849
G01 X74.7162 Y47.4857
G01 X74.7322 Y47.4881
G01 X74.7479 Y47.4920
G01 X74.7609 Y47.4966
G01 X74.7767 Y47.5039
G01 X74.7896 Y47.5114
G01 X74.8066 Y47.5240
G01 X74.8167 Y47.5333
G01 X74.9217 Y47.6383
G01 X74.9310 Y47.6484
G01 X74.9429 Y47.6643
G01 X74.9506 Y47.6772
G01 X74.9565 Y47.6896
G01 X74.9630 Y47.7071
G01 X74.9673 Y47.7252
G01 X74.9693 Y47.7388
G01 X74.9701 Y47.7550
G01 X74.9701 Y48.6750
G01 X74.9700 Y48.8512
G01 X74.9693 Y48.8585
G01 X74.9671 Y48.8668
G01 X74.9647 Y48.8725
G01 X74.9609 Y48.8788
G01 X74.9570 Y48.8836
G01 X74.9517 Y48.8887
G01 X74.9457 Y48.8929
G01 X74.9391 Y48.8962
G01 X74.9321 Y48.8985
G01 X74.9261 Y48.8996
G01 X74.9200 Y48.9000
G01 X74.6900 Y48.9000
G01 X74.6827 Y48.8995
G01 X74.6743 Y48.8975
G01 X74.6664 Y48.8941
G01 X74.6602 Y48.8902
G01 X74.6546 Y48.8854
G01 X74.6498 Y48.8798
G01 X74.6459 Y48.8736
G01 X74.6425 Y48.8657
G01 X74.6407 Y48.8585
G01 X74.6400 Y48.8500
G01 X74.6399 Y47.8234
G01 X74.6316 Y47.8151
G01 X74.5396 Y47.8151
G01 X74.5401 Y47.8250
G01 X74.5399 Y48.8525
G01 X74.5385 Y48.8621
G01 X74.5352 Y48.8714
G01 X74.5309 Y48.8788
G01 X74.5245 Y48.8862
G01 X74.5167 Y48.8922
G01 X74.5080 Y48.8966
G01 X74.4998 Y48.8990
G01 X74.4900 Y48.9000
G01 X74.2600 Y48.9000
G01 X74.2539 Y48.8996
G01 X74.2467 Y48.8982
G01 X74.2409 Y48.8962
G01 X74.2343 Y48.8929
G01 X74.2283 Y48.8887
G01 X74.2230 Y48.8836
G01 X74.2184 Y48.8778
G01 X74.2148 Y48.8714
G01 X74.2125 Y48.8657
G01 X74.2107 Y48.8585
G01 X74.2100 Y48.8500
G01 X74.2099 Y47.8934
G01 X74.1316 Y47.8151
G01 X72.1184 Y47.8151
G00 Z1.0000
G00 X72.5000 Y43.4542
G01 F400.00
G01 Z-0.0400
G01 F2500.00
G01 X72.4788 Y43.5604
G01 X72.4374 Y43.6605
G01 X72.3772 Y43.7506
G01 X72.3006 Y43.8272
G01 X72.2105 Y43.8874
G01 X72.1104 Y43.9288
G01 X72.0042 Y43.9500
G01 X71.8958 Y43.9500
G01 X71.7896 Y43.9288
G01 X71.6895 Y43.8874
G01 X71.5994 Y43.8272
G01 X71.5228 Y43.7506
G01 X71.4626 Y43.6605
G01 X71.4212 Y43.5604
G01 X71.4000 Y43.4542
G01 X71.4000 Y43.3458
G01 X71.4212 Y43.2396
G01 X71.4626 Y43.1395
G01 X71.5228 Y43.0494
G01 X71.5994 Y42.9728
G01 X71.6895 Y42.9126
G01 X71.7896 Y42.8712
G01 X71.8958 Y42.8500
G01 X72.0042 Y42.8500
G01 X72.1104 Y42.8712
G01 X72.2105 Y42.9126
G01 X72.3006 Y42.9728
G01 X72.3772 Y43.0494
G01 X72.4374 Y43.1395
G01 X72.4788 Y43.2396
G01 X72.5000 Y43.3458
G01 X72.5000 Y43.4542
G00 Z1.0000
G00 X72.3999 Y43.4025
G01 F400.00
G01 Z-0.0400
G01 F2500.00
G01 X72.3978 Y43.4441
G01 X72.3914 Y43.4878
G01 X72.3806 Y43.5306
G01 X72.3657 Y43.5722
G01 X72.3469 Y43.6121
G01 X72.3242 Y43.6500
G01 X72.2979 Y43.6855
G01 X72.2682 Y43.7182
G01 X72.2355 Y43.7479
G01 X72.2000 Y43.7742
G01 X72.1621 Y43.7969
G01 X72.1222 Y43.8157
G01 X72.0806 Y43.8306
G01 X72.0378 Y43.8414
G01 X71.9941 Y43.8478
G01 X71.9500 Y43.8500
G01 X71.9059 Y43.8478
G01 X71.8622 Y43.8414
G01 X71.8194 Y43.8306
G01 X71.7778 Y43.8157
G01 X71.7379 Y43.7969
G01 X71.7000 Y43.7742
G01 X71.6645 Y43.7479
G01 X71.6318 Y43.7182
G01 X71.6021 Y43.6855
G01 X71.5758 Y43.6500
G01 X71.5531 Y43.6121
G01 X71.5343 Y43.5722
G01 X71.5194 Y43.5306
G01 X71.5086 Y43.4878
G01 X71.5022 Y43.4441
G01 X71.5000 Y43.4000
G01 X71.5022 Y43.3559
G01 X71.5086 Y43.3122
G01 X71.5194 Y43.2694
G01 X71.5343 Y43.2278
G01 X71.5531 Y43.1879
G01 X71.5758 Y43.1500
G01 X71.6021 Y43.1145
G01 X71.6318 Y43.0818
G01 X71.6645 Y43.0521
G01 X71.7000 Y43.0258
G01 X71.7379 Y43.0031
G01 X71.7778 Y42.9843
G01 X71.8194 Y42.9694
G01 X71.8622 Y42.9586
G01 X71.9059 Y42.9522
G01 X71.9500 Y42.9500
G01 X71.9941 Y42.9522
G01 X72.0378 Y42.9586
G01 X72.0806 Y42.9694
G01 X72.1222 Y42.9843
G01 X72.1621 Y43.0031
G01 X72.2000 Y43.0258
G01 X72.2355 Y43.0521
G01 X72.2682 Y43.0818
G01 X72.2979 Y43.1145
G01 X72.3242 Y43.1500
G01 X72.3469 Y43.1879
G01 X72.3657 Y43.2278
G01 X72.3806 Y43.2694
G01 X72.3914 Y43.3122
G01 X72.3978 Y43.3559
G01 X72.3999 Y43.4025
G00 Z1.0000
G00 X75.6500 Y40.2042
G01 F400.00
G01 Z-0.0400
G01 F2500.00
G01 X75.6500 Y40.0958
G01 X75.6712 Y39.9896
G01 X75.7126 Y39.8895
G01 X75.7728 Y39.7994
G01 X75.8494 Y39.7228
G01 X75.9395 Y39.6626
G01 X76.0396 Y39.6212
G01 X76.1458 Y39.6000
G01 X76.2542 Y39.6000
G01 X76.3604 Y39.6212
G01 X76.4605 Y39.6626
G01 X76.5506 Y39.7228
G01 X76.6272 Y39.7994
G01 X76.6874 Y39.8895
G01 X76.7288 Y39.9896
G01 X76.7500 Y40.0958
G01 X76.7500 Y40.2042
G01 X76.7288 Y40.3104
G01 X76.6874 Y40.4105
G01 X76.6272 Y40.5006
G01 X76.5506 Y40.5772
G01 X76.4605 Y40.6374
G01 X76.3604 Y40.6788
G01 X76.2542 Y40.7000
G01 X76.1458 Y40.7000
G01 X76.0396 Y40.6788
G01 X75.9395 Y40.6374
G01 X75.8494 Y40.5772
G01 X75.7728 Y40.5006
G01 X75.7126 Y40.4105
G01 X75.6712 Y40.3104
G01 X75.6500 Y40.2042
G00 Z1.0000
G00 X76.6499 Y40.1525
G01 F400.00
G01 Z-0.0400
G01 F2500.00
G01 X76.6478 Y40.1941
G01 X76.6414 Y40.2378
G01 X76.6306 Y40.2806
G01 X76.6157 Y40.3222
G01 X76.5969 Y40.3621
G01 X76.5742 Y40.4000
G01 X76.5479 Y40.4355
G01 X76.5182 Y40.4682
G01 X76.4855 Y40.4979
G01 X76.4500 Y40.5242
G01 X76.4121 Y40.5469
G01 X76.3722 Y40.5657
G01 X76.3306 Y40.5806
G01 X76.2878 Y40.5914
G01 X76.2441 Y40.5978
G01 X76.2000 Y40.6000
G01 X76.1559 Y40.5978
G01 X76.1122 Y40.5914
G01 X76.0694 Y40.5806
G01 X76.0278 Y40.5657
G01 X75.9879 Y40.5469
G01 X75.9500 Y40.5242
G01 X75.9145 Y40.4979
G01 X75.8818 Y40.4682
G01 X75.8521 Y40.4355
G01 X75.8258 Y40.4000
G01 X75.8031 Y40.3621
G01 X75.7843 Y40.3222
G01 X75.7694 Y40.2806
G01 X75.7586 Y40.2378
G01 X75.7522 Y40.1941
G01 X75.7500 Y40.1500
G01 X75.7522 Y40.1059
G01 X75.7586 Y40.0622
G01 X75.7694 Y40.0194
G01 X75.7843 Y39.9778
G01 X75.8031 Y39.9379
G01 X75.8258 Y39.9000
G01 X75.8521 Y39.8645
G01 X75.8818 Y39.8318
G01 X75.9145 Y39.8021
G01 X75.9500 Y39.7758
G01 X75.9879 Y39.7531
G01 X76.0278 Y39.7343
G01 X76.0694 Y39.7194
G01 X76.1122 Y39.7086
G01 X76.1559 Y39.7022
G01 X76.2000 Y39.7000
G01 X76.2441 Y39.7022
G01 X76.2878 Y39.7086
G01 X76.3306 Y39.7194
G01 X76.3722 Y39.7343
G01 X76.4121 Y39.7531
G01 X76.4500 Y39.7758
G01 X76.4855 Y39.8021
G01 X76.5182 Y39.8318
G01 X76.5479 Y39.8645
G01 X76.5742 Y39.9000
G01 X76.5969 Y39.9379
G01 X76.6157 Y39.9778
G01 X76.6306 Y40.0194
G01 X76.6414 Y40.0622
G01 X76.6478 Y40.1059
G01 X76.6499 Y40.1525
G00 Z1.0000
G00 X76.4750 Y37.6500
G01 F400.00
G01 Z-0.0400
G01 F2500.00
G01 X77.9250 Y37.6500
G01 X77.9335 Y37.6507
G01 X77.9418 Y37.6529
G01 X77.9486 Y37.6559
G01 X77.9548 Y37.6598
G01 X77.9604 Y37.6646
G01 X77.9652 Y37.6702
G01 X77.9691 Y37.6764
G01 X77.9721 Y37.6832
G01 X77.9740 Y37.6902
G01 X77.9749 Y37.6975
G01 X77.9750 Y38.1500
G01 X77.9743 Y38.1585
G01 X77.9721 Y38.1668
G01 X77.9685 Y38.1746
G01 X77.9644 Y38.1808
G01 X77.9595 Y38.1862
G01 X77.9538 Y38.1909
G01 X77.9475 Y38.1947
G01 X77.9407 Y38.1975
G01 X77.9335 Y38.1993
G01 X77.9262 Y38.2000
G01 X76.4750 Y38.2000
G01 X76.4665 Y38.1993
G01 X76.4582 Y38.1971
G01 X76.4514 Y38.1941
G01 X76.4462 Y38.1909
G01 X76.4405 Y38.1862
G01 X76.4356 Y38.1808
G01 X76.4315 Y38.1746
G01 X76.4284 Y38.1680
G01 X76.4262 Y38.1610
G01 X76.4251 Y38.1537
G01 X76.4250 Y37.6988
G01 X76.4262 Y37.6890
G01 X76.4288 Y37.6809
G01 X76.4334 Y37.6722
G01 X76.4396 Y37.6646
G01 X76.4472 Y37.6584
G01 X76.4559 Y37.6538
G01 X76.4652 Y37.6510
G01 X76.4750 Y37.6500
G00 Z1.0000
G00 X76.4750 Y36.3500
G01 F400.00
G01 Z-0.0400
G01 F2500.00
G01 X77.9262 Y36.3500
G01 X77.9323 Y36.3505
G01 X77.9383 Y36.3518
G01 X77.9453 Y36.3543
G01 X77.9507 Y36.3571
G01 X77.9558 Y36.3606
G01 X77.9604 Y36.3646
G01 X77.9644 Y36.3692
G01 X77.9682 Y36.3749
G01 X78.1966 Y36.3749
G01 X78.2223 Y36.3764
G01 X78.2442 Y36.3797
G01 X78.2668 Y36.3853
G01 X78.2911 Y36.3939
G01 X78.3154 Y36.4056
G01 X78.3343 Y36.4170
G01 X78.3521 Y36.4302
G01 X78.3714 Y36.4473
G01 X78.8768 Y36.9528
G01 X78.8933 Y36.9709
G01 X78.9086 Y36.9917
G01 X78.9206 Y37.0117
G01 X78.9301 Y37.0317
G01 X78.9393 Y37.0570
G01 X78.9457 Y37.0832
G01 X78.9489 Y37.1051
G01 X78.9501 Y37.1284
G01 X78.9501 Y39.2500
G01 X79.0775 Y39.2501
G01 X79.1167 Y39.2520
G01 X79.1579 Y39.2582
G01 X79.1984 Y39.2683
G01 X79.2376 Y39.2824
G01 X79.2753 Y39.3002
G01 X79.3121 Y39.3223
G01 X79.3446 Y39.3465
G01 X79.3772 Y39.3763
G01 X79.4035 Y39.4054
G01 X79.4270 Y39.4369
G01 X79.4486 Y39.4725
G01 X79.4676 Y39.5124
G01 X79.4817 Y39.5516
G01 X79.4918 Y39.5921
G01 X79.4980 Y39.6333
G01 X79.5000 Y39.6750
G01 X79.5000 Y40.4250
G01 X79.4980 Y40.4667
G01 X79.4921 Y40.5067
G01 X79.4817 Y40.5484
G01 X79.4676 Y40.5876
G01 X79.4498 Y40.6253
G01 X79.4284 Y40.6611
G01 X79.4035 Y40.6946
G01 X79.3755 Y40.7255
G01 X79.3446 Y40.7535
G01 X79.3101 Y40.7790
G01 X79.2753 Y40.7998
G01 X79.2399 Y40.8167
G01 X79.1984 Y40.8317
G01 X79.1555 Y40.8423
G01 X79.1167 Y40.8480
G01 X79.0775 Y40.8499
G01 X77.8250 Y40.8500
G01 X77.7846 Y40.8481
G01 X77.7421 Y40.8418
G01 X77.6993 Y40.8309
G01 X77.6601 Y40.8167
G01 X77.6247 Y40.7998
G01 X77.5910 Y40.7797
G01 X77.5554 Y40.7535
G01 X77.5245 Y40.7255
G01 X77.4965 Y40.6946
G01 X77.4710 Y40.6601
G01 X77.4491 Y40.6232
G01 X77.4324 Y40.5876
G01 X77.4191 Y40.5507
G01 X77.4082 Y40.5079
G01 X77.4019 Y40.4654
G01 X77.4000 Y40.4250
G01 X77.4000 Y39.6750
G01 X77.4023 Y39.6309
G01 X77.4082 Y39.5921
G01 X77.4183 Y39.5516
G01 X77.4324 Y39.5124
G01 X77.4491 Y39.4768
G01 X77.4723 Y39.4379
G01 X77.4965 Y39.4054
G01 X77.5245 Y39.3745
G01 X77.5554 Y39.3465
G01 X77.5889 Y39.3216
G01 X77.6247 Y39.3002
G01 X77.6624 Y39.2824
G01 X77.7016 Y39.2683
G01 X77.7421 Y39.2582
G01 X77.7833 Y39.2520
G01 X77.8250 Y39.2500
G01 X78.4499 Y39.2500
G01 X78.4499 Y37.2332
G01 X78.0918 Y36.8751
G01 X77.9682 Y36.8751
G01 X77.9644 Y36.8808
G01 X77.9604 Y36.8854
G01 X77.9558 Y36.8894
G01 X77.9507 Y36.8929
G01 X77.9441 Y36.8962
G01 X77.9383 Y36.8982
G01 X77.9323 Y36.8995
G01 X77.9262 Y36.9000
G01 X76.4750 Y36.9000
G01 X76.4689 Y36.8996
G01 X76.4640 Y36.8988
G01 X76.4547 Y36.8957
G01 X76.4493 Y36.8929
G01 X76.4433 Y36.8887
G01 X76.4380 Y36.8836
G01 X76.4334 Y36.8778
G01 X76.4298 Y36.8714
G01 X76.4275 Y36.8657
G01 X76.4260 Y36.8598
G01 X76.4251 Y36.8525
G01 X76.4251 Y36.3975
G01 X76.4265 Y36.3879
G01 X76.4298 Y36.3786
G01 X76.4341 Y36.3712
G01 X76.4405 Y36.3638
G01 X76.4472 Y36.3584
G01 X76.4559 Y36.3538
G01 X76.4652 Y36.3510
G01 X76.4750 Y36.3500
G00 Z1.0000
G00 X76.4750 Y35.7000
G01 F400.00
G01 Z-0.0400
G01 F2500.00
G01 X77.9262 Y35.7000
G01 X77.9323 Y35.7005
G01 X77.9383 Y35.7018
G01 X77.9453 Y35.7043
G01 X77.9507 Y35.7071
G01 X77.9558 Y35.7106
G01 X77.9604 Y35.7146
G01 X77.9644 Y35.7192
G01 X77.9682 Y35.7249
G01 X78.3939 Y35.7249
G01 X78.4160 Y35.7259
G01 X78.4427 Y35.7297
G01 X78.4665 Y35.7357
G01 X78.4897 Y35.7439
G01 X78.5118 Y35.7544
G01 X78.5329 Y35.7670
G01 X78.5507 Y35.7802
G01 X78.5708 Y35.7982
G01 X79.6268 Y36.8542
G01 X79.6448 Y36.8743
G01 X79.6580 Y36.8921
G01 X79.6700 Y36.9121
G01 X79.6811 Y36.9353
G01 X79.6900 Y36.9608
G01 X79.6953 Y36.9823
G01 X79.6986 Y37.0041
G01 X79.7001 Y37.0298
G01 X79.7001 Y38.0790
G01 X79.9710 Y38.3499
G01 X82.5840 Y38.3499
G01 X82.6110 Y38.3514
G01 X82.6328 Y38.3547
G01 X82.6566 Y38.3607
G01 X82.6797 Y38.3689
