(G-CODE GENERATED BY FLATCAM v8.992 - www.flatcam.org - Version Date: 2020/05/03)

(Name: MSP430G2553_I2C_array-B_Cu.gbr_iso_cnc)
(Type: G-code from Geometry)
(Units: MM)

(Created on Wednesday, 03 June 2020 at 18:15)

(This preprocessor is the default preprocessor used by FlatCAM.)
(It is made to work with MACH3 compatible motion controllers.)

(TOOL DIAMETER: 0.1 mm)
(Feedrate_XY: 2500.0 mm/min)
(Feedrate_Z: 400.0 mm/min)
(Feedrate rapids 1500.0 mm/min)

(Z_Cut: -0.04 mm)
(Z_Move: 1.0 mm)
(Z Start: None mm)
(Z End: 15.0 mm)
(Steps per circle: 64)
(Preprocessor Geometry: default)

(X range:   63.3000 ...   87.4500  mm)
(Y range:   25.8500 ...   90.1500  mm)

(Spindle Speed: None RPM)
G21
G90
G94



G01 F2500.00
G00 Z1.0000

M03
G00 X65.0975 Y26.8601
G01 F400.00
G01 Z-0.0400
G01 F2500.00
G01 X65.1882 Y26.8643
G01 X65.2756 Y26.8773
G01 X65.3613 Y26.8988
G01 X65.4444 Y26.9285
G01 X65.5243 Y26.9663
G01 X65.6000 Y27.0117
G01 X65.6710 Y27.0643
G01 X65.7364 Y27.1236
G01 X65.7957 Y27.1890
G01 X65.8483 Y27.2600
G01 X65.8937 Y27.3357
G01 X65.9315 Y27.4156
G01 X65.9612 Y27.4987
G01 X65.9827 Y27.5844
G01 X65.9957 Y27.6718
G01 X66.0000 Y27.7600
G01 X65.9957 Y27.8482
G01 X65.9827 Y27.9356
G01 X65.9612 Y28.0213
G01 X65.9315 Y28.1044
G01 X65.8937 Y28.1843
G01 X65.8483 Y28.2600
G01 X65.7957 Y28.3310
G01 X65.7364 Y28.3964
G01 X65.6710 Y28.4557
G01 X65.6000 Y28.5083
G01 X65.5243 Y28.5537
G01 X65.4444 Y28.5915
G01 X65.3613 Y28.6212
G01 X65.2756 Y28.6427
G01 X65.1882 Y28.6557
G01 X65.1000 Y28.6600
G01 X65.0118 Y28.6557
G01 X64.9244 Y28.6427
G01 X64.8387 Y28.6212
G01 X64.7556 Y28.5915
G01 X64.6757 Y28.5537
G01 X64.6000 Y28.5083
G01 X64.5290 Y28.4557
G01 X64.4636 Y28.3964
G01 X64.4043 Y28.3310
G01 X64.3517 Y28.2600
G01 X64.3063 Y28.1843
G01 X64.2685 Y28.1044
G01 X64.2388 Y28.0213
G01 X64.2173 Y27.9356
G01 X64.2043 Y27.8482
G01 X64.2000 Y27.7600
G01 X64.2043 Y27.6718
G01 X64.2173 Y27.5844
G01 X64.2388 Y27.4987
G01 X64.2685 Y27.4156
G01 X64.3063 Y27.3357
G01 X64.3517 Y27.2600
G01 X64.4043 Y27.1890
G01 X64.4636 Y27.1236
G01 X64.5290 Y27.0643
G01 X64.6000 Y27.0117
G01 X64.6757 Y26.9663
G01 X64.7556 Y26.9285
G01 X64.8387 Y26.8988
G01 X64.9244 Y26.8773
G01 X65.0118 Y26.8643
G01 X65.0975 Y26.8601
G00 Z1.0000
G00 X66.1000 Y27.8585
G01 F400.00
G01 Z-0.0400
G01 F2500.00
G01 X66.0615 Y28.0517
G01 X65.9862 Y28.2337
G01 X65.8767 Y28.3974
G01 X65.7374 Y28.5367
G01 X65.5737 Y28.6462
G01 X65.3917 Y28.7215
G01 X65.1985 Y28.7600
G01 X65.0015 Y28.7600
G01 X64.8083 Y28.7215
G01 X64.6263 Y28.6462
G01 X64.4626 Y28.5367
G01 X64.3233 Y28.3974
G01 X64.2138 Y28.2337
G01 X64.1385 Y28.0517
G01 X64.1000 Y27.8585
G01 X64.1000 Y27.6615
G01 X64.1385 Y27.4683
G01 X64.2138 Y27.2863
G01 X64.3233 Y27.1226
G01 X64.4626 Y26.9833
G01 X64.6263 Y26.8738
G01 X64.8083 Y26.7985
G01 X65.0015 Y26.7600
G01 X65.1985 Y26.7600
G01 X65.3917 Y26.7985
G01 X65.5737 Y26.8738
G01 X65.7374 Y26.9833
G01 X65.8767 Y27.1226
G01 X65.9862 Y27.2863
G01 X66.0615 Y27.4683
G01 X66.1000 Y27.6615
G01 X66.1000 Y27.8585
G00 Z1.0000
G00 X65.9500 Y29.4000
G01 F400.00
G01 Z-0.0400
G01 F2500.00
G01 X65.9598 Y29.4010
G01 X65.9691 Y29.4038
G01 X65.9767 Y29.4078
G01 X65.9845 Y29.4138
G01 X65.9909 Y29.4212
G01 X65.9957 Y29.4297
G01 X65.9988 Y29.4390
G01 X66.0000 Y29.4488
G01 X66.0000 Y31.1500
G01 X65.9990 Y31.1598
G01 X65.9962 Y31.1691
G01 X65.9916 Y31.1778
G01 X65.9862 Y31.1845
G01 X65.9788 Y31.1909
G01 X65.9703 Y31.1957
G01 X65.9657 Y31.1975
G01 X65.9598 Y31.1990
G01 X65.9500 Y31.2000
G01 X64.2500 Y31.2000
G01 X64.2402 Y31.1990
G01 X64.2309 Y31.1962
G01 X64.2222 Y31.1916
G01 X64.2155 Y31.1862
G01 X64.2091 Y31.1788
G01 X64.2059 Y31.1736
G01 X64.2038 Y31.1691
G01 X64.2010 Y31.1598
G01 X64.2000 Y31.1500
G01 X64.2000 Y29.4500
G01 X64.2010 Y29.4402
G01 X64.2038 Y29.4309
G01 X64.2084 Y29.4222
G01 X64.2138 Y29.4155
G01 X64.2212 Y29.4091
G01 X64.2254 Y29.4065
G01 X64.2309 Y29.4038
G01 X64.2402 Y29.4010
G01 X64.2500 Y29.4000
G01 X65.9500 Y29.4000
G00 Z1.0000
G00 X66.1012 Y31.1451
G01 F400.00
G01 Z-0.0400
G01 F2500.00
G01 X66.0978 Y31.1794
G01 X66.0892 Y31.2077
G01 X66.0753 Y31.2337
G01 X66.0566 Y31.2566
G01 X66.0337 Y31.2753
G01 X66.0077 Y31.2892
G01 X65.9794 Y31.2978
G01 X65.9451 Y31.3012
G01 X64.2549 Y31.3012
G01 X64.2206 Y31.2978
G01 X64.1923 Y31.2892
G01 X64.1663 Y31.2753
G01 X64.1434 Y31.2566
G01 X64.1247 Y31.2337
G01 X64.1108 Y31.2077
G01 X64.1022 Y31.1794
G01 X64.0988 Y31.1451
G01 X64.0988 Y29.4549
G01 X64.1022 Y29.4206
G01 X64.1108 Y29.3923
G01 X64.1247 Y29.3663
G01 X64.1434 Y29.3434
G01 X64.1663 Y29.3247
G01 X64.1923 Y29.3108
G01 X64.2206 Y29.3022
G01 X64.2549 Y29.2988
G01 X65.9451 Y29.2988
G01 X65.9794 Y29.3022
G01 X66.0077 Y29.3108
G01 X66.0337 Y29.3247
G01 X66.0566 Y29.3434
G01 X66.0753 Y29.3663
G01 X66.0892 Y29.3923
G01 X66.0978 Y29.4206
G01 X66.1012 Y29.4549
G01 X66.1012 Y31.1451
G00 Z1.0000
G00 X67.9488 Y31.6701
G01 F400.00
G01 Z-0.0400
G01 F2500.00
G01 X67.9488 Y30.9299
G01 X67.9594 Y30.8224
G01 X67.9893 Y30.7238
G01 X68.0379 Y30.6329
G01 X68.1033 Y30.5533
G01 X68.1829 Y30.4879
G01 X68.2738 Y30.4393
G01 X68.3724 Y30.4094
G01 X68.4799 Y30.3988
G01 X69.7201 Y30.3988
G01 X69.8276 Y30.4094
G01 X69.9262 Y30.4393
G01 X70.0171 Y30.4879
G01 X70.0967 Y30.5533
G01 X70.1621 Y30.6329
G01 X70.2107 Y30.7238
G01 X70.2406 Y30.8224
G01 X70.2512 Y30.9299
G01 X70.2512 Y31.6701
G01 X70.2406 Y31.7776
G01 X70.2107 Y31.8762
G01 X70.1621 Y31.9671
G01 X70.0967 Y32.0467
G01 X70.0171 Y32.1121
G01 X69.9262 Y32.1607
G01 X69.8276 Y32.1906
G01 X69.7201 Y32.2012
G01 X68.4799 Y32.2012
G01 X68.3724 Y32.1906
G01 X68.2738 Y32.1607
G01 X68.1829 Y32.1121
G01 X68.1033 Y32.0467
G01 X68.0379 Y31.9671
G01 X67.9893 Y31.8762
G01 X67.9594 Y31.7776
G01 X67.9488 Y31.6701
G00 Z1.0000
G00 X68.4358 Y32.0981
G01 F400.00
G01 Z-0.0400
G01 F2500.00
G01 X68.3897 Y32.0913
G01 X68.3516 Y32.0817
G01 X68.3124 Y32.0676
G01 X68.2747 Y32.0498
G01 X68.2410 Y32.0297
G01 X68.2035 Y32.0019
G01 X68.1745 Y31.9755
G01 X68.1465 Y31.9446
G01 X68.1216 Y31.9111
G01 X68.1014 Y31.8775
G01 X68.0815 Y31.8354
G01 X68.0683 Y31.7984
G01 X68.0579 Y31.7567
G01 X68.0520 Y31.7167
G01 X68.0500 Y31.6750
G01 X68.0500 Y30.9250
G01 X68.0520 Y30.8833
G01 X68.0582 Y30.8421
G01 X68.0683 Y30.8016
G01 X68.0824 Y30.7624
G01 X68.0991 Y30.7268
G01 X68.1230 Y30.6869
G01 X68.1465 Y30.6554
G01 X68.1763 Y30.6228
G01 X68.2054 Y30.5965
G01 X68.2389 Y30.5716
G01 X68.2747 Y30.5502
G01 X68.3101 Y30.5333
G01 X68.3540 Y30.5176
G01 X68.3921 Y30.5082
G01 X68.4346 Y30.5019
G01 X68.4750 Y30.5000
G01 X69.7250 Y30.5000
G01 X69.7667 Y30.5020
G01 X69.8079 Y30.5082
G01 X69.8484 Y30.5183
G01 X69.8876 Y30.5324
G01 X69.9253 Y30.5502
G01 X69.9611 Y30.5716
G01 X69.9946 Y30.5965
G01 X70.0272 Y30.6263
G01 X70.0535 Y30.6554
G01 X70.0784 Y30.6889
G01 X70.0998 Y30.7247
G01 X70.1167 Y30.7601
G01 X70.1324 Y30.8040
G01 X70.1418 Y30.8421
G01 X70.1478 Y30.8821
G01 X70.1500 Y30.9250
G01 X70.1500 Y31.6750
G01 X70.1480 Y31.7167
G01 X70.1418 Y31.7579
G01 X70.1317 Y31.7984
G01 X70.1176 Y31.8376
G01 X70.0998 Y31.8753
G01 X70.0784 Y31.9111
G01 X70.0535 Y31.9446
G01 X70.0237 Y31.9772
G01 X69.9946 Y32.0035
G01 X69.9611 Y32.0284
G01 X69.9253 Y32.0498
G01 X69.8899 Y32.0667
G01 X69.8460 Y32.0824
G01 X69.8079 Y32.0918
G01 X69.7654 Y32.0981
G01 X69.7250 Y32.1000
G01 X68.4750 Y32.1000
G01 X68.4358 Y32.0981
G00 Z1.0000
G00 X67.9557 Y34.0902
G01 F400.00
G01 Z-0.0400
G01 F2500.00
G01 X67.9488 Y34.0201
G01 X67.9488 Y33.2799
G01 X67.9594 Y33.1724
G01 X67.9893 Y33.0738
G01 X68.0379 Y32.9829
G01 X68.1033 Y32.9033
G01 X68.1829 Y32.8379
G01 X68.2738 Y32.7893
G01 X68.3724 Y32.7594
G01 X68.4799 Y32.7488
G01 X69.7201 Y32.7488
G01 X69.8276 Y32.7594
G01 X69.9262 Y32.7893
G01 X70.0171 Y32.8379
G01 X70.0967 Y32.9033
G01 X70.1621 Y32.9829
G01 X70.2107 Y33.0738
G01 X70.2406 Y33.1724
G01 X70.2512 Y33.2799
G01 X70.2512 Y34.0201
G01 X70.2406 Y34.1276
G01 X70.2107 Y34.2262
G01 X70.1621 Y34.3171
G01 X70.0967 Y34.3967
G01 X70.0171 Y34.4621
G01 X69.9262 Y34.5107
G01 X69.8276 Y34.5406
G01 X69.7201 Y34.5512
G01 X68.4799 Y34.5512
G01 X68.3724 Y34.5406
G01 X68.2738 Y34.5107
G01 X68.1829 Y34.4621
G01 X68.1033 Y34.3967
G01 X68.0379 Y34.3171
G01 X67.9893 Y34.2262
G01 X67.9594 Y34.1276
G01 X67.9557 Y34.0902
G00 Z1.0000
G00 X68.4358 Y34.4481
G01 F400.00
G01 Z-0.0400
G01 F2500.00
G01 X68.3897 Y34.4413
G01 X68.3516 Y34.4317
G01 X68.3124 Y34.4176
G01 X68.2747 Y34.3998
G01 X68.2410 Y34.3797
G01 X68.2035 Y34.3519
G01 X68.1745 Y34.3255
G01 X68.1465 Y34.2946
G01 X68.1216 Y34.2611
G01 X68.1014 Y34.2275
G01 X68.0815 Y34.1854
G01 X68.0683 Y34.1484
G01 X68.0579 Y34.1067
G01 X68.0520 Y34.0667
G01 X68.0500 Y34.0250
G01 X68.0500 Y33.2750
G01 X68.0520 Y33.2333
G01 X68.0582 Y33.1921
G01 X68.0683 Y33.1516
G01 X68.0824 Y33.1124
G01 X68.0991 Y33.0768
G01 X68.1230 Y33.0369
G01 X68.1465 Y33.0054
G01 X68.1763 Y32.9728
G01 X68.2054 Y32.9465
G01 X68.2389 Y32.9216
G01 X68.2747 Y32.9002
G01 X68.3101 Y32.8833
G01 X68.3540 Y32.8676
G01 X68.3921 Y32.8582
G01 X68.4346 Y32.8519
G01 X68.4750 Y32.8500
G01 X69.7250 Y32.8500
G01 X69.7667 Y32.8520
G01 X69.8079 Y32.8582
G01 X69.8484 Y32.8683
G01 X69.8876 Y32.8824
G01 X69.9253 Y32.9002
G01 X69.9611 Y32.9216
G01 X69.9946 Y32.9465
G01 X70.0272 Y32.9763
G01 X70.0535 Y33.0054
G01 X70.0784 Y33.0389
G01 X70.0998 Y33.0747
G01 X70.1167 Y33.1101
G01 X70.1324 Y33.1540
G01 X70.1418 Y33.1921
G01 X70.1478 Y33.2321
G01 X70.1500 Y33.2750
G01 X70.1500 Y34.0250
G01 X70.1480 Y34.0667
G01 X70.1418 Y34.1079
G01 X70.1317 Y34.1484
G01 X70.1176 Y34.1876
G01 X70.0998 Y34.2253
G01 X70.0784 Y34.2611
G01 X70.0535 Y34.2946
G01 X70.0237 Y34.3272
G01 X69.9946 Y34.3535
G01 X69.9611 Y34.3784
G01 X69.9253 Y34.3998
G01 X69.8899 Y34.4167
G01 X69.8460 Y34.4324
G01 X69.8079 Y34.4418
G01 X69.7654 Y34.4481
G01 X69.7250 Y34.4500
G01 X68.4750 Y34.4500
G01 X68.4358 Y34.4481
G00 Z1.0000
G00 X65.9667 Y34.3833
G01 F400.00
G01 Z-0.0400
G01 F2500.00
G01 X65.9168 Y34.3226
G01 X65.8798 Y34.2533
G01 X65.8570 Y34.1782
G01 X65.8488 Y34.0951
G01 X65.8488 Y33.2049
G01 X65.8570 Y33.1218
G01 X65.8798 Y33.0467
G01 X65.9168 Y32.9774
G01 X65.9667 Y32.9167
G01 X66.0274 Y32.8668
G01 X66.0967 Y32.8298
G01 X66.1718 Y32.8070
G01 X66.2549 Y32.7988
G01 X66.8951 Y32.7988
G01 X66.9782 Y32.8070
G01 X67.0533 Y32.8298
G01 X67.1226 Y32.8668
G01 X67.1833 Y32.9167
G01 X67.2332 Y32.9774
G01 X67.2702 Y33.0467
G01 X67.2930 Y33.1218
G01 X67.3012 Y33.2049
G01 X67.3012 Y34.0951
G01 X67.2930 Y34.1782
G01 X67.2702 Y34.2533
G01 X67.2332 Y34.3226
G01 X67.1833 Y34.3833
G01 X67.1226 Y34.4332
G01 X67.0533 Y34.4702
G01 X66.9763 Y34.4936
G01 X66.9656 Y34.4962
G01 X66.9575 Y34.4990
G01 X66.9475 Y34.5037
G01 X66.9391 Y34.5087
G01 X66.9312 Y34.5146
G01 X66.9248 Y34.5203
G01 X66.9158 Y34.5304
G01 X66.9115 Y34.5363
G01 X66.9070 Y34.5437
G01 X66.9027 Y34.5525
G01 X66.9002 Y34.5589
G01 X66.8674 Y34.6204
G01 X66.8237 Y34.6737
G01 X66.8132 Y34.6823
G01 X66.8068 Y34.6881
G01 X66.1585 Y35.3364
G01 X66.1520 Y35.3437
G01 X66.1461 Y35.3515
G01 X66.1411 Y35.3600
G01 X66.1369 Y35.3688
G01 X66.1336 Y35.3781
G01 X66.1314 Y35.3864
G01 X66.1296 Y35.3998
G01 X66.1293 Y35.4071
G01 X66.1297 Y35.4169
G01 X66.1312 Y35.4266
G01 X66.1332 Y35.4350
G01 X66.1369 Y35.4454
G01 X66.1417 Y35.4553
G01 X66.1475 Y35.4647
G01 X66.1621 Y35.4829
G01 X66.2107 Y35.5738
G01 X66.2406 Y35.6724
G01 X66.2512 Y35.7799
G01 X66.2512 Y36.5201
G01 X66.2406 Y36.6276
G01 X66.2107 Y36.7262
G01 X66.1621 Y36.8171
G01 X66.0967 Y36.8967
G01 X66.0171 Y36.9621
G01 X65.9262 Y37.0107
G01 X65.8276 Y37.0406
G01 X65.7201 Y37.0512
G01 X64.4799 Y37.0512
G01 X64.3724 Y37.0406
G01 X64.2738 Y37.0107
G01 X64.1829 Y36.9621
G01 X64.1033 Y36.8967
G01 X64.0379 Y36.8171
G01 X63.9893 Y36.7262
G01 X63.9594 Y36.6276
G01 X63.9488 Y36.5201
G01 X63.9488 Y35.7799
G01 X63.9594 Y35.6724
G01 X63.9893 Y35.5738
G01 X64.0379 Y35.4829
G01 X64.1033 Y35.4033
G01 X64.1829 Y35.3379
G01 X64.2738 Y35.2893
G01 X64.3724 Y35.2594
G01 X64.4799 Y35.2488
G01 X65.2160 Y35.2488
G01 X65.2271 Y35.2480
G01 X65.2343 Y35.2469
G01 X65.2415 Y35.2452
G01 X65.2531 Y35.2412
G01 X65.2630 Y35.2364
G01 X65.2704 Y35.2320
G01 X65.2763 Y35.2276
G01 X65.2855 Y35.2195
G01 X65.9738 Y34.5313
G01 X65.9804 Y34.5240
G01 X65.9862 Y34.5161
G01 X65.9913 Y34.5077
G01 X65.9955 Y34.4988
G01 X65.9988 Y34.4896
G01 X66.0012 Y34.4801
G01 X66.0026 Y34.4703
G01 X66.0031 Y34.4605
G01 X66.0026 Y34.4507
G01 X66.0012 Y34.4410
G01 X65.9988 Y34.4315
G01 X65.9955 Y34.4223
G01 X65.9913 Y34.4134
G01 X65.9862 Y34.4050
G01 X65.9804 Y34.3971
G01 X65.9738 Y34.3898
G01 X65.9667 Y34.3833
G00 Z1.0000
G00 X65.2512 Y34.0951
G01 F400.00
G01 Z-0.0400
G01 F2500.00
G01 X65.2430 Y34.1782
G01 X65.2202 Y34.2533
G01 X65.1832 Y34.3226
G01 X65.1333 Y34.3833
G01 X65.0726 Y34.4332
G01 X65.0033 Y34.4702
G01 X64.9282 Y34.4930
G01 X64.8451 Y34.5012
G01 X64.2049 Y34.5012
G01 X64.1218 Y34.4930
G01 X64.0467 Y34.4702
G01 X63.9774 Y34.4332
G01 X63.9167 Y34.3833
G01 X63.8668 Y34.3226
G01 X63.8298 Y34.2533
G01 X63.8070 Y34.1782
G01 X63.7988 Y34.0951
G01 X63.7988 Y33.2049
G01 X63.8070 Y33.1218
G01 X63.8298 Y33.0467
G01 X63.8668 Y32.9774
G01 X63.9167 Y32.9167
G01 X63.9774 Y32.8668
G01 X64.0467 Y32.8298
G01 X64.1218 Y32.8070
G01 X64.2049 Y32.7988
G01 X64.8451 Y32.7988
G01 X64.9282 Y32.8070
G01 X65.0033 Y32.8298
G01 X65.0726 Y32.8668
G01 X65.1333 Y32.9167
G01 X65.1832 Y32.9774
G01 X65.2202 Y33.0467
G01 X65.2430 Y33.1218
G01 X65.2512 Y33.2049
G01 X65.2512 Y34.0951
G00 Z1.0000
G00 X64.1730 Y34.3987
G01 F400.00
G01 Z-0.0400
G01 F2500.00
G01 X64.1391 Y34.3937
G01 X64.1129 Y34.3871
G01 X64.0852 Y34.3772
G01 X64.0586 Y34.3646
G01 X64.0354 Y34.3508
G01 X64.0078 Y34.3303
G01 X63.9879 Y34.3121
G01 X63.9681 Y34.2903
G01 X63.9506 Y34.2667
G01 X63.9366 Y34.2436
G01 X63.9220 Y34.2125
G01 X63.9129 Y34.1871
G01 X63.9055 Y34.1573
G01 X63.9014 Y34.1294
G01 X63.9000 Y34.1000
G01 X63.9000 Y33.1988
G01 X63.9017 Y33.1682
G01 X63.9058 Y33.1415
G01 X63.9123 Y33.1153
G01 X63.9228 Y33.0852
G01 X63.9360 Y33.0575
G01 X63.9520 Y33.0313
G01 X63.9681 Y33.0097
G01 X63.9862 Y32.9896
G01 X64.0097 Y32.9681
G01 X64.0333 Y32.9506
G01 X64.0586 Y32.9354
G01 X64.0875 Y32.9220
G01 X64.1129 Y32.9129
G01 X64.1391 Y32.9063
G01 X64.1694 Y32.9016
G01 X64.2000 Y32.9000
G01 X64.8525 Y32.9001
G01 X64.8818 Y32.9017
G01 X64.9085 Y32.9058
G01 X64.9347 Y32.9123
G01 X64.9648 Y32.9228
G01 X64.9925 Y32.9360
G01 X65.0187 Y32.9520
G01 X65.0403 Y32.9681
G01 X65.0604 Y32.9862
G01 X65.0819 Y33.0097
G01 X65.0994 Y33.0333
G01 X65.1157 Y33.0608
G01 X65.1272 Y33.0852
G01 X65.1363 Y33.1106
G01 X65.1442 Y33.1415
G01 X65.1486 Y33.1706
G01 X65.1500 Y33.2000
G01 X65.1500 Y34.1012
G01 X65.1483 Y34.1318
G01 X65.1442 Y34.1585
G01 X65.1377 Y34.1847
G01 X65.1272 Y34.2148
G01 X65.1140 Y34.2425
G01 X65.0994 Y34.2667
G01 X65.0803 Y34.2922
G01 X65.0621 Y34.3121
G01 X65.0422 Y34.3303
G01 X65.0187 Y34.3480
G01 X64.9914 Y34.3646
G01 X64.9648 Y34.3772
G01 X64.9371 Y34.3871
G01 X64.9073 Y34.3945
G01 X64.8794 Y34.3986
G01 X64.8500 Y34.4000
G01 X64.2000 Y34.4000
G01 X64.1730 Y34.3987
G00 Z1.0000
G00 X65.9430 Y35.4107
G01 F400.00
G01 Z-0.0400
G01 F2500.00
G01 X65.9621 Y35.4223
G01 X65.9937 Y35.4457
G01 X66.0264 Y35.4754
G01 X66.0535 Y35.5054
G01 X66.0770 Y35.5369
G01 X66.0992 Y35.5736
G01 X66.1176 Y35.6124
G01 X66.1324 Y35.6540
G01 X66.1418 Y35.6921
G01 X66.1477 Y35.7309
G01 X66.1500 Y35.7738
G01 X66.1500 Y36.5250
G01 X66.1477 Y36.5691
G01 X66.1418 Y36.6079
G01 X66.1317 Y36.6484
G01 X66.1176 Y36.6876
G01 X66.0998 Y36.7253
G01 X66.0784 Y36.7611
G01 X66.0535 Y36.7946
G01 X66.0255 Y36.8255
G01 X65.9937 Y36.8543
G01 X65.9611 Y36.8784
G01 X65.9275 Y36.8986
G01 X65.8876 Y36.9176
G01 X65.8484 Y36.9317
G01 X65.8103 Y36.9413
G01 X65.7654 Y36.9481
G01 X65.7250 Y36.9500
G01 X64.4738 Y36.9500
G01 X64.4333 Y36.9480
G01 X64.3897 Y36.9413
G01 X64.3493 Y36.9309
G01 X64.3124 Y36.9176
G01 X64.2768 Y36.9009
G01 X64.2389 Y36.8784
G01 X64.2054 Y36.8535
G01 X64.1745 Y36.8255
G01 X64.1457 Y36.7937
G01 X64.1216 Y36.7611
G01 X64.1002 Y36.7253
G01 X64.0824 Y36.6876
G01 X64.0691 Y36.6507
G01 X64.0577 Y36.6055
G01 X64.0520 Y36.5667
G01 X64.0500 Y36.5262
G01 X64.0500 Y35.7750
G01 X64.0519 Y35.7346
G01 X64.0587 Y35.6897
G01 X64.0683 Y35.6516
G01 X64.0815 Y35.6146
G01 X64.1002 Y35.5747
G01 X64.1230 Y35.5369
G01 X64.1465 Y35.5054
G01 X64.1745 Y35.4745
G01 X64.2054 Y35.4465
G01 X64.2389 Y35.4216
G01 X64.2747 Y35.4002
G01 X64.3124 Y35.3824
G01 X64.3516 Y35.3683
G01 X64.3945 Y35.3577
G01 X64.4333 Y35.3520
G01 X64.4750 Y35.3500
G01 X65.2963 Y35.3500
G01 X66.2464 Y34.3999
G01 X66.2206 Y34.3986
G01 X66.1915 Y34.3942
G01 X66.1629 Y34.3871
G01 X66.1375 Y34.3780
G01 X66.1064 Y34.3634
G01 X66.0833 Y34.3494
G01 X66.0597 Y34.3319
G01 X66.0379 Y34.3121
G01 X66.0181 Y34.2903
G01 X66.0006 Y34.2667
G01 X65.9866 Y34.2436
G01 X65.9720 Y34.2125
G01 X65.9629 Y34.1871
G01 X65.9555 Y34.1573
G01 X65.9514 Y34.1294
G01 X65.9500 Y34.1000
G01 X65.9501 Y33.1975
G01 X65.9514 Y33.1706
G01 X65.9553 Y33.1439
G01 X65.9629 Y33.1129
G01 X65.9728 Y33.0852
G01 X65.9843 Y33.0608
G01 X66.0013 Y33.0323
G01 X66.0181 Y33.0097
G01 X66.0396 Y32.9862
G01 X66.0597 Y32.9681
G01 X66.0813 Y32.9520
G01 X66.1064 Y32.9366
G01 X66.1352 Y32.9228
G01 X66.1629 Y32.9129
G01 X66.1915 Y32.9058
G01 X66.2206 Y32.9014
G01 X66.2500 Y32.9000
G01 X66.9012 Y32.9000
G01 X66.9294 Y32.9014
G01 X66.9585 Y32.9058
G01 X66.9871 Y32.9129
G01 X67.0159 Y32.9233
G01 X67.0414 Y32.9354
G01 X67.0646 Y32.9492
G01 X67.0903 Y32.9681
G01 X67.1138 Y32.9896
G01 X67.1319 Y33.0097
G01 X67.1480 Y33.0313
G01 X67.1646 Y33.0586
G01 X67.1780 Y33.0875
G01 X67.1871 Y33.1129
G01 X67.1937 Y33.1391
G01 X67.1984 Y33.1694
G01 X67.2000 Y33.2000
G01 X67.2000 Y34.1012
G01 X67.1986 Y34.1294
G01 X67.1942 Y34.1585
G01 X67.1871 Y34.1871
G01 X67.1767 Y34.2159
G01 X67.1646 Y34.2414
G01 X67.1494 Y34.2667
G01 X67.1319 Y34.2903
G01 X67.1138 Y34.3104
G01 X67.0884 Y34.3334
G01 X67.0667 Y34.3494
G01 X67.0414 Y34.3646
G01 X67.0148 Y34.3772
G01 X66.9894 Y34.3863
G01 X66.9573 Y34.3945
G01 X66.9294 Y34.3986
G01 X66.9025 Y34.3999
G01 X66.8251 Y34.4000
G01 X66.8251 Y34.4262
G01 X66.8239 Y34.4495
G01 X66.8203 Y34.4738
G01 X66.8143 Y34.4976
G01 X66.8061 Y34.5207
G01 X66.7956 Y34.5429
G01 X66.7830 Y34.5639
G01 X66.7675 Y34.5846
G01 X66.7518 Y34.6018
G01 X65.9430 Y35.4107
G00 Z1.0000
G00 X66.7498 Y36.4325
G01 F400.00
G01 Z-0.0400
G01 F2500.00
G01 X66.7258 Y36.4000
G01 X66.7031 Y36.3621
G01 X66.6842 Y36.3222
G01 X66.6694 Y36.2806
G01 X66.6586 Y36.2378
G01 X66.6522 Y36.1941
G01 X66.6500 Y36.1500
G01 X66.6522 Y36.1059
G01 X66.6586 Y36.0622
G01 X66.6694 Y36.0194
G01 X66.6842 Y35.9778
G01 X66.7031 Y35.9379
G01 X66.7258 Y35.9000
G01 X66.7521 Y35.8645
G01 X66.7818 Y35.8318
G01 X66.8145 Y35.8021
G01 X66.8500 Y35.7758
G01 X66.8879 Y35.7531
G01 X66.9278 Y35.7343
G01 X66.9694 Y35.7194
G01 X67.0122 Y35.7086
G01 X67.0559 Y35.7022
G01 X67.1000 Y35.7000
G01 X67.1441 Y35.7022
G01 X67.1878 Y35.7086
G01 X67.2306 Y35.7194
G01 X67.2722 Y35.7343
G01 X67.3121 Y35.7531
G01 X67.3500 Y35.7758
G01 X67.3855 Y35.8021
G01 X67.4182 Y35.8318
G01 X67.4478 Y35.8645
G01 X67.4742 Y35.9000
G01 X67.4969 Y35.9379
G01 X67.5157 Y35.9778
G01 X67.5298 Y36.0170
G01 X67.5418 Y36.0646
G01 X67.5478 Y36.1059
G01 X67.5500 Y36.1500
G01 X67.5478 Y36.1941
G01 X67.5418 Y36.2354
G01 X67.5298 Y36.2830
G01 X67.5157 Y36.3222
G01 X67.4969 Y36.3621
G01 X67.4742 Y36.4000
G01 X67.4501 Y36.4325
G01 X67.4501 Y39.2550
G01 X68.1478 Y39.9527
G01 X68.1878 Y39.9586
G01 X68.2283 Y39.9687
G01 X68.2699 Y39.9834
G01 X68.3121 Y40.0031
G01 X68.3500 Y40.0258
G01 X68.3873 Y40.0537
G01 X68.4182 Y40.0818
G01 X68.4463 Y40.1127
G01 X68.4742 Y40.1500
G01 X68.4974 Y40.1890
G01 X68.5157 Y40.2278
G01 X68.5313 Y40.2717
G01 X68.5418 Y40.3146
G01 X68.5478 Y40.3559
G01 X68.5499 Y40.3975
G01 X68.5478 Y40.4441
G01 X68.5414 Y40.4878
G01 X68.5306 Y40.5306
G01 X68.5157 Y40.5722
G01 X68.4969 Y40.6121
G01 X68.4742 Y40.6500
G01 X68.4479 Y40.6855
G01 X68.4164 Y40.7199
G01 X68.3855 Y40.7479
G01 X68.3520 Y40.7727
G01 X68.3143 Y40.7957
G01 X68.2722 Y40.8157
G01 X68.2318 Y40.8303
G01 X68.1878 Y40.8414
G01 X68.1417 Y40.8480
G01 X68.1000 Y40.8500
G01 X68.0583 Y40.8480
G01 X68.0122 Y40.8414
G01 X67.9670 Y40.8299
G01 X67.9278 Y40.8157
G01 X67.8901 Y40.7980
G01 X67.8500 Y40.7742
G01 X67.8136 Y40.7471
G01 X67.7818 Y40.7182
G01 X67.7521 Y40.6855
G01 X67.7258 Y40.6500
G01 X67.7031 Y40.6121
G01 X67.6843 Y40.5722
G01 X67.6694 Y40.5306
G01 X67.6586 Y40.4878
G01 X67.6527 Y40.4478
G01 X66.9550 Y39.7502
G01 X66.1500 Y39.7501
G01 X66.1500 Y39.7762
G01 X66.1478 Y39.8179
G01 X66.1418 Y39.8579
G01 X66.1313 Y39.8995
G01 X66.1176 Y39.9376
G01 X66.0998 Y39.9753
G01 X66.0784 Y40.0111
G01 X66.0527 Y40.0456
G01 X66.0255 Y40.0755
G01 X65.9946 Y40.1035
G01 X65.9611 Y40.1284
G01 X65.9253 Y40.1498
G01 X65.8876 Y40.1676
G01 X65.8484 Y40.1817
G01 X65.8079 Y40.1918
G01 X65.7642 Y40.1981
G01 X65.7250 Y40.2000
G01 X64.4750 Y40.2000
G01 X64.4333 Y40.1980
G01 X64.3933 Y40.1921
G01 X64.3493 Y40.1809
G01 X64.3124 Y40.1676
G01 X64.2768 Y40.1509
G01 X64.2389 Y40.1284
G01 X64.2035 Y40.1019
G01 X64.1745 Y40.0755
G01 X64.1481 Y40.0465
G01 X64.1216 Y40.0111
G01 X64.0991 Y39.9732
G01 X64.0824 Y39.9376
G01 X64.0687 Y39.8995
G01 X64.0577 Y39.8555
G01 X64.0520 Y39.8167
G01 X64.0500 Y39.7750
G01 X64.0500 Y39.0250
G01 X64.0520 Y38.9833
G01 X64.0584 Y38.9409
G01 X64.0683 Y38.9016
G01 X64.0815 Y38.8646
G01 X64.1002 Y38.8247
G01 X64.1230 Y38.7869
G01 X64.1465 Y38.7554
G01 X64.1728 Y38.7263
G01 X64.2054 Y38.6965
G01 X64.2410 Y38.6703
G01 X64.2747 Y38.6502
G01 X64.3101 Y38.6333
G01 X64.3505 Y38.6187
G01 X64.3945 Y38.6077
G01 X64.4333 Y38.6020
G01 X64.4750 Y38.6000
G01 X65.7250 Y38.6000
G01 X65.7667 Y38.6020
G01 X65.8067 Y38.6079
G01 X65.8484 Y38.6183
G01 X65.8876 Y38.6324
G01 X65.9253 Y38.6502
G01 X65.9590 Y38.6703
G01 X65.9965 Y38.6981
G01 X66.0255 Y38.7245
G01 X66.0543 Y38.7563
G01 X66.0784 Y38.7889
G01 X66.0998 Y38.8247
G01 X66.1176 Y38.8624
G01 X66.1313 Y38.9005
G01 X66.1418 Y38.9421
G01 X66.1478 Y38.9821
G01 X66.1500 Y39.0238
G01 X66.1500 Y39.0498
G01 X66.7498 Y39.0499
G01 X66.7498 Y36.4325
G00 Z1.0000
G00 X70.6065 Y37.4169
G01 F400.00
G01 Z-0.0400
G01 F2500.00
G01 X70.6424 Y37.4606
G01 X70.6749 Y37.5214
G01 X70.6949 Y37.5874
G01 X70.7017 Y37.6560
G01 X70.7004 Y37.6695
G01 X70.7000 Y37.6781
G01 X70.7000 Y41.7779
G01 X70.7004 Y41.7865
G01 X70.7017 Y41.8000
G01 X70.6949 Y41.8686
G01 X70.6749 Y41.9346
G01 X70.6424 Y41.9954
G01 X70.5987 Y42.0487
G01 X70.5882 Y42.0573
G01 X70.5818 Y42.0631
G01 X69.9733 Y42.6718
G01 X69.9669 Y42.6792
G01 X69.9625 Y42.6851
G01 X69.9587 Y42.6914
G01 X69.9538 Y42.7013
G01 X69.9503 Y42.7105
G01 X69.9476 Y42.7212
G01 X69.9461 Y42.7309
G01 X69.9457 Y42.7407
G01 X69.9463 Y42.7517
G01 X69.9476 Y42.7602
G01 X69.9500 Y42.7697
G01 X69.9533 Y42.7790
G01 X69.9575 Y42.7879
G01 X69.9625 Y42.7963
G01 X69.9684 Y42.8042
G01 X69.9750 Y42.8114
G01 X69.9822 Y42.8180
G01 X69.9901 Y42.8239
G01 X69.9996 Y42.8295
G01 X70.0097 Y42.8340
G01 X70.0262 Y42.8393
G01 X70.1171 Y42.8879
G01 X70.1967 Y42.9533
G01 X70.2621 Y43.0329
G01 X70.3107 Y43.1238
G01 X70.3406 Y43.2224
G01 X70.3512 Y43.3299
G01 X70.3512 Y44.0701
G01 X70.3480 Y44.1027
G01 X70.3476 Y44.1125
G01 X70.3481 Y44.1210
G01 X70.3491 Y44.1283
G01 X70.3519 Y44.1403
G01 X70.3562 Y44.1518
G01 X70.3594 Y44.1584
G01 X70.3638 Y44.1658
G01 X70.3703 Y44.1747
G01 X70.3769 Y44.1820
G01 X71.5818 Y45.3869
G01 X71.5882 Y45.3927
G01 X71.5987 Y45.4013
G01 X71.6424 Y45.4546
G01 X71.6749 Y45.5154
G01 X71.6949 Y45.5814
G01 X71.7017 Y45.6500
G01 X71.7004 Y45.6635
G01 X71.7000 Y45.6721
G01 X71.7000 Y46.4648
G01 X71.7005 Y46.4734
G01 X71.7017 Y46.4819
G01 X71.7051 Y46.4950
G01 X71.7076 Y46.5019
G01 X71.7118 Y46.5108
G01 X71.7168 Y46.5192
G01 X71.7212 Y46.5251
G01 X71.7293 Y46.5343
G01 X73.4657 Y48.2707
G01 X73.4749 Y48.2788
G01 X73.4808 Y48.2832
G01 X73.4882 Y48.2876
G01 X73.4981 Y48.2924
G01 X73.5097 Y48.2964
G01 X73.5169 Y48.2981
G01 X73.5242 Y48.2992
G01 X73.5364 Y48.3000
G01 X78.5779 Y48.3000
G01 X78.5865 Y48.2996
G01 X78.6000 Y48.2983
G01 X78.6686 Y48.3051
G01 X78.7346 Y48.3251
G01 X78.7954 Y48.3576
G01 X78.8487 Y48.4013
G01 X78.8573 Y48.4118
G01 X78.8631 Y48.4182
G01 X80.2601 Y49.8151
G01 X80.2674 Y49.8217
G01 X80.2773 Y49.8289
G01 X80.2837 Y49.8326
G01 X80.2903 Y49.8358
G01 X80.3018 Y49.8401
G01 X80.3125 Y49.8427
G01 X80.3210 Y49.8440
G01 X80.3296 Y49.8444
G01 X80.4097 Y49.8444
G01 X80.5160 Y49.8656
G01 X80.6161 Y49.9070
G01 X80.7062 Y49.9672
G01 X80.7828 Y50.0438
G01 X80.8430 Y50.1339
G01 X80.8844 Y50.2340
G01 X80.9056 Y50.3403
G01 X80.9056 Y50.4486
G01 X80.8844 Y50.5548
G01 X80.8430 Y50.6549
G01 X80.7828 Y50.7450
G01 X80.7062 Y50.8216
G01 X80.6161 Y50.8818
G01 X80.5160 Y50.9233
G01 X80.4097 Y50.9444
G01 X80.3014 Y50.9444
G01 X80.1952 Y50.9233
G01 X80.0951 Y50.8818
G01 X80.0050 Y50.8216
G01 X79.9284 Y50.7450
G01 X79.8682 Y50.6549
G01 X79.8267 Y50.5548
G01 X79.8056 Y50.4486
G01 X79.8056 Y50.3907
G01 X79.8051 Y50.3822
G01 X79.8037 Y50.3725
G01 X79.8005 Y50.3606
G01 X79.7980 Y50.3537
G01 X79.7949 Y50.3470
G01 X79.7887 Y50.3364
G01 X79.7821 Y50.3276
G01 X79.7763 Y50.3212
G01 X78.4843 Y49.0293
G01 X78.4751 Y49.0212
G01 X78.4692 Y49.0168
G01 X78.4608 Y49.0118
G01 X78.4496 Y49.0067
G01 X78.4426 Y49.0043
G01 X78.4355 Y49.0024
G01 X78.4246 Y49.0006
G01 X78.4136 Y49.0000
G01 X73.3721 Y49.0000
G01 X73.3635 Y49.0004
G01 X73.3500 Y49.0017
G01 X73.2814 Y48.9949
G01 X73.2154 Y48.9749
G01 X73.1546 Y48.9424
G01 X73.1013 Y48.8987
G01 X73.0927 Y48.8882
G01 X73.0869 Y48.8818
G01 X71.1182 Y46.9131
G01 X71.1118 Y46.9073
G01 X71.1013 Y46.8987
G01 X71.0576 Y46.8454
G01 X71.0251 Y46.7846
G01 X71.0051 Y46.7186
G01 X70.9983 Y46.6500
G01 X70.9996 Y46.6365
G01 X71.0000 Y46.6279
G01 X71.0000 Y45.8352
G01 X70.9992 Y45.8242
G01 X70.9981 Y45.8169
G01 X70.9964 Y45.8097
G01 X70.9924 Y45.7981
G01 X70.9876 Y45.7882
G01 X70.9832 Y45.7808
G01 X70.9788 Y45.7749
G01 X70.9707 Y45.7657
G01 X69.8338 Y44.6288
G01 X69.8283 Y44.6239
G01 X69.8204 Y44.6180
G01 X69.8120 Y44.6130
G01 X69.8031 Y44.6088
G01 X69.7938 Y44.6055
G01 X69.7843 Y44.6031
G01 X69.7746 Y44.6017
G01 X69.7660 Y44.6012
G01 X68.5799 Y44.6012
G01 X68.4724 Y44.5906
G01 X68.3738 Y44.5607
G01 X68.2829 Y44.5121
G01 X68.2033 Y44.4467
G01 X68.1379 Y44.3671
G01 X68.0893 Y44.2762
G01 X68.0594 Y44.1776
G01 X68.0488 Y44.0701
G01 X68.0488 Y43.3299
G01 X68.0594 Y43.2224
G01 X68.0893 Y43.1238
G01 X68.1379 Y43.0329
G01 X68.2033 Y42.9533
G01 X68.2829 Y42.8879
G01 X68.3738 Y42.8393
G01 X68.4724 Y42.8094
G01 X68.5799 Y42.7988
G01 X68.8240 Y42.7988
G01 X68.8328 Y42.7984
G01 X68.8465 Y42.7962
G01 X68.8538 Y42.7943
G01 X68.8632 Y42.7908
G01 X68.8744 Y42.7851
G01 X68.8808 Y42.7811
G01 X68.8878 Y42.7758
G01 X68.8952 Y42.7691
G01 X68.9007 Y42.7630
G01 X68.9513 Y42.7013
G01 X68.9618 Y42.6927
G01 X68.9682 Y42.6869
G01 X69.9716 Y41.6835
G01 X69.9773 Y41.6771
G01 X69.9818 Y41.6712
G01 X69.9882 Y41.6608
G01 X69.9924 Y41.6519
G01 X69.9949 Y41.6450
G01 X69.9983 Y41.6319
G01 X69.9995 Y41.6234
G01 X70.0000 Y41.6136
G01 X70.0000 Y37.8424
G01 X69.9992 Y37.8301
G01 X69.9981 Y37.8229
G01 X69.9957 Y37.8133
G01 X69.9924 Y37.8041
G01 X69.9893 Y37.7974
G01 X69.9825 Y37.7858
G01 X69.9773 Y37.7789
G01 X69.9724 Y37.7734
G01 X69.6754 Y37.4763
G01 X69.6662 Y37.4682
G01 X69.6602 Y37.4638
G01 X69.6539 Y37.4600
G01 X69.6441 Y37.4551
G01 X69.6337 Y37.4513
G01 X69.6230 Y37.4487
G01 X69.6145 Y37.4475
G01 X69.6059 Y37.4470
G01 X69.5369 Y37.4470
G01 X69.4306 Y37.4259
G01 X69.3305 Y37.3844
G01 X69.2405 Y37.3242
G01 X69.1638 Y37.2476
G01 X69.1037 Y37.1575
G01 X69.0622 Y37.0574
G01 X69.0411 Y36.9512
G01 X69.0411 Y36.8428
G01 X69.0622 Y36.7366
G01 X69.1037 Y36.6365
G01 X69.1638 Y36.5464
G01 X69.2405 Y36.4698
G01 X69.3305 Y36.4096
G01 X69.4306 Y36.3682
G01 X69.5369 Y36.3470
G01 X69.6452 Y36.3470
G01 X69.7515 Y36.3682
G01 X69.8516 Y36.4096
G01 X69.9416 Y36.4698
G01 X69.9904 Y36.5186
G01 X69.9968 Y36.5243
G01 X70.0047 Y36.5302
G01 X70.0131 Y36.5352
G01 X70.0198 Y36.5384
G01 X70.0312 Y36.5427
G01 X70.0432 Y36.5455
G01 X70.0505 Y36.5466
G01 X70.0591 Y36.5470
G01 X81.1666 Y36.5470
G01 X81.1764 Y36.5466
G01 X81.1861 Y36.5451
G01 X81.1956 Y36.5427
G01 X81.2060 Y36.5389
G01 X81.2137 Y36.5352
G01 X81.2222 Y36.5302
G01 X81.2300 Y36.5243
G01 X81.2373 Y36.5177
G01 X83.2207 Y34.5343
G01 X83.2281 Y34.5261
G01 X83.2345 Y34.5171
G01 X83.2382 Y34.5108
G01 X83.2414 Y34.5041
G01 X83.2457 Y34.4926
G01 X83.2485 Y34.4807
G01 X83.2495 Y34.4734
G01 X83.2500 Y34.4636
G01 X83.2500 Y31.8364
G01 X83.2495 Y31.8266
G01 X83.2485 Y31.8193
G01 X83.2457 Y31.8074
G01 X83.2419 Y31.7970
G01 X83.2370 Y31.7871
G01 X83.2332 Y31.7808
G01 X83.2288 Y31.7749
G01 X83.2216 Y31.7665
G01 X82.6843 Y31.2293
G01 X82.6771 Y31.2227
G01 X82.6712 Y31.2182
G01 X82.6618 Y31.2124
G01 X82.6519 Y31.2076
G01 X82.6426 Y31.2043
G01 X82.6319 Y31.2017
G01 X82.6234 Y31.2005
G01 X82.6148 Y31.2000
G01 X82.5458 Y31.2000
G01 X82.4396 Y31.1788
G01 X82.3395 Y31.1374
G01 X82.2494 Y31.0772
G01 X82.1728 Y31.0006
G01 X82.1126 Y30.9105
G01 X82.0712 Y30.8104
G01 X82.0500 Y30.7042
G01 X82.0500 Y30.5958
G01 X82.0712 Y30.4896
G01 X82.1126 Y30.3895
G01 X82.1728 Y30.2994
G01 X82.2494 Y30.2228
G01 X82.3395 Y30.1626
G01 X82.4396 Y30.1212
G01 X82.5458 Y30.1000
G01 X82.6542 Y30.1000
G01 X82.7604 Y30.1212
G01 X82.8605 Y30.1626
G01 X82.9506 Y30.2228
G01 X83.0272 Y30.2994
G01 X83.0874 Y30.3895
G01 X83.1288 Y30.4896
G01 X83.1500 Y30.5958
G01 X83.1500 Y30.6648
G01 X83.1505 Y30.6734
G01 X83.1517 Y30.6819
G01 X83.1543 Y30.6926
G01 X83.1576 Y30.7019
G01 X83.1618 Y30.7108
G01 X83.1675 Y30.7202
G01 X83.1727 Y30.7271
G01 X83.1793 Y30.7343
G01 X83.8318 Y31.3869
G01 X83.8382 Y31.3927
G01 X83.8487 Y31.4013
G01 X83.8924 Y31.4546
G01 X83.9249 Y31.5154
G01 X83.9449 Y31.5814
G01 X83.9517 Y31.6500
G01 X83.9504 Y31.6635
G01 X83.9500 Y31.6721
G01 X83.9500 Y34.6279
G01 X83.9504 Y34.6365
G01 X83.9517 Y34.6500
G01 X83.9449 Y34.7186
G01 X83.9249 Y34.7846
G01 X83.8924 Y34.8454
G01 X83.8487 Y34.8987
G01 X83.8382 Y34.9073
G01 X83.8318 Y34.9131
G01 X81.6161 Y37.1289
G01 X81.6103 Y37.1352
G01 X81.6017 Y37.1457
G01 X81.5484 Y37.1894
G01 X81.4876 Y37.2219
G01 X81.4216 Y37.2419
G01 X81.3530 Y37.2487
G01 X81.3395 Y37.2474
G01 X81.3309 Y37.2470
G01 X70.6774 Y37.2470
G01 X70.6688 Y37.2475
G01 X70.6615 Y37.2485
G01 X70.6495 Y37.2513
G01 X70.6381 Y37.2556
G01 X70.6314 Y37.2588
G01 X70.6230 Y37.2638
G01 X70.6151 Y37.2697
G01 X70.6096 Y37.2746
G01 X70.6013 Y37.2836
G01 X70.5954 Y37.2914
G01 X70.5916 Y37.2977
G01 X70.5862 Y37.3087
G01 X70.5829 Y37.3180
G01 X70.5810 Y37.3251
G01 X70.5790 Y37.3372
G01 X70.5786 Y37.3470
G01 X70.5789 Y37.3544
G01 X70.5805 Y37.3665
G01 X70.5836 Y37.3784
G01 X70.5862 Y37.3853
G01 X70.5898 Y37.3931
G01 X70.5961 Y37.4036
G01 X70.6065 Y37.4169
G00 Z1.0000
G00 X74.1501 Y40.1525
G01 F400.00
G01 Z-0.0400
G01 F2500.00
G01 X74.1522 Y40.1059
G01 X74.1586 Y40.0622
G01 X74.1694 Y40.0194
G01 X74.1843 Y39.9778
G01 X74.2031 Y39.9379
G01 X74.2258 Y39.9000
G01 X74.2521 Y39.8645
G01 X74.2818 Y39.8318
G01 X74.3145 Y39.8021
G01 X74.3500 Y39.7758
G01 X74.3879 Y39.7531
G01 X74.4278 Y39.7343
G01 X74.4694 Y39.7194
G01 X74.5122 Y39.7086
G01 X74.5559 Y39.7022
G01 X74.6000 Y39.7000
G01 X74.6441 Y39.7022
G01 X74.6878 Y39.7086
G01 X74.7306 Y39.7194
G01 X74.7722 Y39.7343
G01 X74.8121 Y39.7531
G01 X74.8500 Y39.7758
G01 X74.8855 Y39.8021
G01 X74.9182 Y39.8318
G01 X74.9479 Y39.8645
G01 X74.9742 Y39.9000
G01 X74.9969 Y39.9379
G01 X75.0157 Y39.9778
G01 X75.0306 Y40.0194
G01 X75.0414 Y40.0622
G01 X75.0478 Y40.1059
G01 X75.0500 Y40.1500
G01 X75.0478 Y40.1941
G01 X75.0414 Y40.2378
G01 X75.0306 Y40.2806
G01 X75.0157 Y40.3222
G01 X74.9969 Y40.3621
G01 X74.9742 Y40.4000
G01 X74.9479 Y40.4355
G01 X74.9182 Y40.4682
G01 X74.8855 Y40.4979
G01 X74.8500 Y40.5242
G01 X74.8121 Y40.5469
G01 X74.7722 Y40.5657
G01 X74.7306 Y40.5806
G01 X74.6878 Y40.5914
G01 X74.6441 Y40.5978
G01 X74.6000 Y40.6000
G01 X74.5559 Y40.5978
G01 X74.5122 Y40.5914
G01 X74.4694 Y40.5806
G01 X74.4278 Y40.5657
G01 X74.3879 Y40.5469
G01 X74.3500 Y40.5242
G01 X74.3145 Y40.4979
G01 X74.2818 Y40.4682
G01 X74.2521 Y40.4355
G01 X74.2258 Y40.4000
G01 X74.2031 Y40.3621
G01 X74.1843 Y40.3222
G01 X74.1694 Y40.2806
G01 X74.1586 Y40.2378
G01 X74.1522 Y40.1941
G01 X74.1501 Y40.1525
G00 Z1.0000
G00 X75.1500 Y40.2042
G01 F400.00
G01 Z-0.0400
G01 F2500.00
G01 X75.1288 Y40.3104
G01 X75.0874 Y40.4105
G01 X75.0272 Y40.5006
G01 X74.9506 Y40.5772
G01 X74.8605 Y40.6374
G01 X74.7604 Y40.6788
G01 X74.6542 Y40.7000
G01 X74.5458 Y40.7000
G01 X74.4396 Y40.6788
G01 X74.3395 Y40.6374
G01 X74.2494 Y40.5772
G01 X74.1728 Y40.5006
G01 X74.1126 Y40.4105
G01 X74.0712 Y40.3104
G01 X74.0500 Y40.2042
G01 X74.0500 Y40.0958
G01 X74.0712 Y39.9896
G01 X74.1126 Y39.8895
G01 X74.1728 Y39.7994
G01 X74.2494 Y39.7228
G01 X74.3395 Y39.6626
G01 X74.4396 Y39.6212
G01 X74.5458 Y39.6000
G01 X74.6542 Y39.6000
G01 X74.7604 Y39.6212
G01 X74.8605 Y39.6626
G01 X74.9506 Y39.7228
G01 X75.0272 Y39.7994
G01 X75.0874 Y39.8895
G01 X75.1288 Y39.9896
G01 X75.1500 Y40.0958
G01 X75.1500 Y40.2042
G00 Z1.0000
G00 X74.9500 Y42.3500
G01 F400.00
G01 Z-0.0400
G01 F2500.00
G01 X74.9598 Y42.3510
G01 X74.9691 Y42.3538
G01 X74.9778 Y42.3584
G01 X74.9845 Y42.3638
G01 X74.9909 Y42.3712
G01 X74.9957 Y42.3797
G01 X74.9988 Y42.3890
G01 X75.0000 Y42.3988
G01 X75.0000 Y44.2000
G01 X74.9990 Y44.2098
G01 X74.9978 Y44.2145
G01 X74.9957 Y44.2203
G01 X74.9909 Y44.2288
G01 X74.9870 Y44.2336
G01 X74.9836 Y44.2370
G01 X74.9767 Y44.2422
G01 X74.9680 Y44.2466
G01 X74.9585 Y44.2493
G01 X74.9500 Y44.2500
G01 X72.8500 Y44.2500
G01 X72.8415 Y44.2493
G01 X72.8332 Y44.2471
G01 X72.8254 Y44.2435
G01 X72.8183 Y44.2387
G01 X72.8138 Y44.2345
G01 X72.8106 Y44.2308
G01 X72.8071 Y44.2257
G01 X72.8048 Y44.2214
G01 X72.8025 Y44.2157
G01 X72.8012 Y44.2110
G01 X72.8004 Y44.2061
G01 X72.8000 Y44.2000
G01 X72.8000 Y42.4000
G01 X72.8010 Y42.3902
G01 X72.8034 Y42.3820
G01 X72.8065 Y42.3754
G01 X72.8113 Y42.3683
G01 X72.8164 Y42.3630
G01 X72.8222 Y42.3584
G01 X72.8297 Y42.3543
G01 X72.8379 Y42.3515
G01 X72.8451 Y42.3502
G01 X73.1963 Y42.3500
G01 X72.1732 Y41.3268
G01 X72.1567 Y41.3087
G01 X72.1435 Y41.2910
G01 X72.1294 Y41.2679
G01 X72.1181 Y41.2434
G01 X72.1107 Y41.2226
G01 X72.1052 Y41.2012
G01 X72.1011 Y41.1745
G01 X72.0999 Y41.1500
G01 X72.0999 Y40.8500
G01 X71.7238 Y40.8500
G01 X71.6809 Y40.8477
G01 X71.6421 Y40.8418
G01 X71.6040 Y40.8324
G01 X71.5601 Y40.8167
G01 X71.5247 Y40.7998
G01 X71.4869 Y40.7770
G01 X71.4554 Y40.7535
G01 X71.4245 Y40.7255
G01 X71.3965 Y40.6946
G01 X71.3703 Y40.6590
G01 X71.3502 Y40.6253
G01 X71.3333 Y40.5899
G01 X71.3191 Y40.5507
G01 X71.3082 Y40.5079
G01 X71.3019 Y40.4654
G01 X71.3000 Y40.4250
G01 X71.3000 Y39.6738
G01 X71.3020 Y39.6333
G01 X71.3082 Y39.5921
G01 X71.3183 Y39.5516
G01 X71.3315 Y39.5146
G01 X71.3514 Y39.4725
G01 X71.3716 Y39.4389
G01 X71.3965 Y39.4054
G01 X71.4245 Y39.3745
G01 X71.4554 Y39.3465
G01 X71.4889 Y39.3216
G01 X71.5268 Y39.2991
G01 X71.5624 Y39.2824
G01 X71.5993 Y39.2691
G01 X71.6397 Y39.2587
G01 X71.6833 Y39.2520
G01 X71.7238 Y39.2500
G01 X72.9750 Y39.2500
G01 X73.0154 Y39.2519
G01 X73.0603 Y39.2587
G01 X73.0984 Y39.2683
G01 X73.1376 Y39.2824
G01 X73.1753 Y39.3002
G01 X73.2090 Y39.3203
G01 X73.2446 Y39.3465
G01 X73.2755 Y39.3745
G01 X73.3035 Y39.4054
G01 X73.3284 Y39.4389
G01 X73.3498 Y39.4747
G01 X73.3676 Y39.5124
G01 X73.3817 Y39.5516
G01 X73.3918 Y39.5921
G01 X73.3980 Y39.6333
G01 X73.4000 Y39.6750
G01 X73.4000 Y40.4262
G01 X73.3980 Y40.4667
G01 X73.3918 Y40.5079
G01 X73.3817 Y40.5484
G01 X73.3681 Y40.5865
G01 X73.3498 Y40.6253
G01 X73.3284 Y40.6611
G01 X73.3035 Y40.6946
G01 X73.2737 Y40.7272
G01 X73.2446 Y40.7535
G01 X73.2131 Y40.7770
G01 X73.1775 Y40.7986
G01 X73.1376 Y40.8176
G01 X73.0995 Y40.8313
G01 X73.0555 Y40.8423
G01 X73.0167 Y40.8480
G01 X72.9775 Y40.8499
G01 X72.6001 Y40.8500
G01 X72.6001 Y41.0464
G01 X73.9037 Y42.3500
G01 X74.9500 Y42.3500
G00 Z1.0000
G00 X78.4759 Y43.1499
G01 F400.00
G01 Z-0.0400
G01 F2500.00
G01 X78.5021 Y43.1145
G01 X78.5318 Y43.0818
G01 X78.5645 Y43.0521
G01 X78.6000 Y43.0258
G01 X78.6379 Y43.0031
G01 X78.6778 Y42.9843
G01 X78.7194 Y42.9694
G01 X78.7622 Y42.9586
G01 X78.8059 Y42.9522
G01 X78.8500 Y42.9500
G01 X78.8941 Y42.9522
G01 X78.9378 Y42.9586
G01 X78.9806 Y42.9694
G01 X79.0222 Y42.9843
G01 X79.0621 Y43.0031
G01 X79.1000 Y43.0258
G01 X79.1355 Y43.0521
G01 X79.1682 Y43.0818
G01 X79.1979 Y43.1145
G01 X79.2242 Y43.1500
G01 X79.2469 Y43.1879
G01 X79.2657 Y43.2278
G01 X79.2806 Y43.2694
G01 X79.2914 Y43.3122
G01 X79.2978 Y43.3559
G01 X79.3000 Y43.4000
G01 X79.2978 Y43.4441
G01 X79.2914 Y43.4878
G01 X79.2806 Y43.5306
G01 X79.2657 Y43.5722
G01 X79.2469 Y43.6121
G01 X79.2242 Y43.6500
G01 X79.1979 Y43.6855
G01 X79.1664 Y43.7199
G01 X79.1355 Y43.7479
G01 X79.1020 Y43.7727
G01 X79.0621 Y43.7969
G01 X79.0199 Y43.8166
G01 X78.9806 Y43.8306
G01 X78.9402 Y43.8408
G01 X78.8941 Y43.8478
G01 X78.8500 Y43.8500
G01 X78.8059 Y43.8478
G01 X78.7598 Y43.8408
G01 X78.7194 Y43.8306
G01 X78.6801 Y43.8166
G01 X78.6379 Y43.7969
G01 X78.6000 Y43.7742
G01 X78.5627 Y43.7463
G01 X78.5318 Y43.7182
G01 X78.5037 Y43.6873
G01 X78.4759 Y43.6501
G01 X77.9000 Y43.6501
G01 X77.8999 Y44.2037
G01 X77.8985 Y44.2121
G01 X77.8957 Y44.2203
G01 X77.8916 Y44.2278
G01 X77.8870 Y44.2336
G01 X77.8808 Y44.2394
G01 X77.8746 Y44.2435
G01 X77.8668 Y44.2471
G01 X77.8585 Y44.2493
G01 X77.8500 Y44.2500
G01 X75.7488 Y44.2500
G01 X75.7415 Y44.2493
G01 X75.7343 Y44.2475
G01 X75.7275 Y44.2447
G01 X75.7212 Y44.2409
G01 X75.7155 Y44.2362
G01 X75.7106 Y44.2308
G01 X75.7065 Y44.2246
G01 X75.7034 Y44.2180
G01 X75.7007 Y44.2085
G01 X75.7000 Y44.2000
G01 X75.7000 Y42.3988
G01 X75.7007 Y42.3915
G01 X75.7025 Y42.3843
G01 X75.7053 Y42.3775
G01 X75.7091 Y42.3712
G01 X75.7138 Y42.3655
G01 X75.7192 Y42.3606
G01 X75.7254 Y42.3565
G01 X75.7320 Y42.3534
G01 X75.7415 Y42.3507
G01 X75.7500 Y42.3500
G01 X77.8500 Y42.3500
G01 X77.8573 Y42.3505
G01 X77.8645 Y42.3522
G01 X77.8714 Y42.3548
G01 X77.8778 Y42.3584
G01 X77.8836 Y42.3630
G01 X77.8894 Y42.3692
G01 X77.8935 Y42.3754
G01 X77.8971 Y42.3832
G01 X77.8990 Y42.3902
G01 X77.8999 Y42.3975
G01 X77.9000 Y43.1499
G01 X78.4759 Y43.1499
G00 Z1.0000
G00 X79.4724 Y44.4076
G01 F400.00
G01 Z-0.0400
G01 F2500.00
G01 X78.6585 Y45.2216
G01 X78.6521 Y45.2273
G01 X78.6442 Y45.2332
G01 X78.6358 Y45.2382
G01 X78.6269 Y45.2424
G01 X78.6176 Y45.2457
G01 X78.6081 Y45.2481
G01 X78.5984 Y45.2495
G01 X78.5898 Y45.2500
G01 X78.1012 Y45.2500
G01 X78.0939 Y45.2497
G01 X78.0793 Y45.2476
G01 X78.0710 Y45.2453
G01 X78.0618 Y45.2419
G01 X78.0541 Y45.2382
G01 X78.0456 Y45.2332
G01 X78.0378 Y45.2273
G01 X78.0314 Y45.2216
G01 X78.0247 Y45.2144
G01 X78.0195 Y45.2076
G01 X78.0119 Y45.1950
G01 X78.0083 Y45.1871
G01 X78.0051 Y45.1779
G01 X78.0031 Y45.1695
G01 X78.0016 Y45.1586
G01 X78.0012 Y45.1500
G01 X78.0012 Y44.7049
G01 X77.9978 Y44.6706
G01 X77.9892 Y44.6423
G01 X77.9753 Y44.6163
G01 X77.9566 Y44.5934
G01 X77.9337 Y44.5747
G01 X77.9077 Y44.5608
G01 X77.8794 Y44.5522
G01 X77.8452 Y44.5485
G01 X77.8309 Y44.5449
G01 X77.8229 Y44.5419
G01 X77.8140 Y44.5376
G01 X77.8067 Y44.5332
G01 X77.7979 Y44.5265
G01 X77.7915 Y44.5207
G01 X77.7842 Y44.5125
G01 X77.7784 Y44.5045
G01 X77.7730 Y44.4950
G01 X77.7699 Y44.4883
G01 X77.7673 Y44.4814
G01 X77.7647 Y44.4719
G01 X77.7629 Y44.4610
G01 X77.7623 Y44.4512
G01 X77.7627 Y44.4402
G01 X77.7642 Y44.4305
G01 X77.7669 Y44.4198
G01 X77.7709 Y44.4095
G01 X77.7741 Y44.4028
G01 X77.7778 Y44.3965
G01 X77.7834 Y44.3885
G01 X77.7907 Y44.3802
G01 X77.7979 Y44.3735
G01 X77.8067 Y44.3668
G01 X77.8140 Y44.3624
G01 X77.8229 Y44.3581
G01 X77.8309 Y44.3551
G01 X77.8452 Y44.3515
G01 X77.8794 Y44.3478
G01 X77.9077 Y44.3392
G01 X77.9337 Y44.3253
G01 X77.9566 Y44.3066
G01 X77.9753 Y44.2837
G01 X77.9892 Y44.2577
G01 X77.9978 Y44.2294
G01 X78.0012 Y44.1951
G01 X78.0012 Y43.8500
G01 X78.0018 Y43.8390
G01 X78.0036 Y43.8281
G01 X78.0055 Y43.8210
G01 X78.0079 Y43.8140
G01 X78.0124 Y43.8039
G01 X78.0180 Y43.7944
G01 X78.0255 Y43.7847
G01 X78.0305 Y43.7793
G01 X78.0359 Y43.7743
G01 X78.0456 Y43.7668
G01 X78.0551 Y43.7612
G01 X78.0652 Y43.7567
G01 X78.0722 Y43.7543
G01 X78.0793 Y43.7524
G01 X78.0902 Y43.7506
G01 X78.1000 Y43.7500
G01 X78.3808 Y43.7500
G01 X78.3906 Y43.7505
G01 X78.4015 Y43.7522
G01 X78.4098 Y43.7543
G01 X78.4190 Y43.7576
G01 X78.4279 Y43.7618
G01 X78.4373 Y43.7675
G01 X78.4442 Y43.7727
G01 X78.4506 Y43.7784
G01 X78.4994 Y43.8272
G01 X78.5895 Y43.8874
G01 X78.6896 Y43.9288
G01 X78.7958 Y43.9500
G01 X78.9042 Y43.9500
G01 X79.0104 Y43.9288
G01 X79.1105 Y43.8874
G01 X79.2006 Y43.8272
G01 X79.2772 Y43.7506
G01 X79.3182 Y43.6893
G01 X79.3227 Y43.6834
G01 X79.3276 Y43.6779
G01 X79.3365 Y43.6695
G01 X79.3444 Y43.6637
G01 X79.3518 Y43.6592
G01 X79.3640 Y43.6535
G01 X79.3710 Y43.6511
G01 X79.3805 Y43.6487
G01 X79.3902 Y43.6473
G01 X79.3988 Y43.6468
G01 X79.4098 Y43.6473
G01 X79.4183 Y43.6485
G01 X79.4279 Y43.6508
G01 X79.4360 Y43.6535
G01 X79.4493 Y43.6598
G01 X79.4566 Y43.6644
G01 X79.4653 Y43.6711
G01 X79.4707 Y43.6761
G01 X79.4773 Y43.6834
G01 X79.4832 Y43.6913
G01 X79.4882 Y43.6997
G01 X79.4924 Y43.7086
G01 X79.4957 Y43.7178
G01 X79.4981 Y43.7273
G01 X79.4995 Y43.7370
G01 X79.5000 Y43.7468
G01 X79.5000 Y44.3411
G01 X79.4995 Y44.3484
G01 X79.4981 Y44.3581
G01 X79.4957 Y44.3676
G01 X79.4924 Y44.3769
G01 X79.4882 Y44.3858
G01 X79.4832 Y44.3942
G01 X79.4773 Y44.4021
G01 X79.4724 Y44.4076
G00 Z1.0000
G00 X81.1598 Y43.6517
G01 F400.00
G01 Z-0.0400
G01 F2500.00
G01 X81.0718 Y43.6430
G01 X80.9967 Y43.6202
G01 X80.9274 Y43.5832
G01 X80.8667 Y43.5333
G01 X80.8168 Y43.4726
G01 X80.7798 Y43.4033
G01 X80.7570 Y43.3282
G01 X80.7488 Y43.2451
G01 X80.7488 Y42.6049
G01 X80.7570 Y42.5218
G01 X80.7798 Y42.4467
G01 X80.8168 Y42.3774
G01 X80.8667 Y42.3167
G01 X80.9274 Y42.2668
G01 X80.9967 Y42.2298
G01 X81.0718 Y42.2070
G01 X81.1549 Y42.1988
G01 X82.0451 Y42.1988
G01 X82.1282 Y42.2070
G01 X82.2033 Y42.2298
G01 X82.2726 Y42.2668
G01 X82.3333 Y42.3167
G01 X82.3832 Y42.3774
G01 X82.4202 Y42.4467
G01 X82.4430 Y42.5218
G01 X82.4512 Y42.6049
G01 X82.4512 Y43.2451
G01 X82.4430 Y43.3282
G01 X82.4202 Y43.4033
G01 X82.3832 Y43.4726
G01 X82.3333 Y43.5333
G01 X82.2726 Y43.5832
G01 X82.2033 Y43.6202
G01 X82.1282 Y43.6430
G01 X82.0402 Y43.6517
G01 X82.0317 Y43.6529
G01 X82.0221 Y43.6551
G01 X82.0140 Y43.6579
G01 X82.0018 Y43.6636
G01 X81.9944 Y43.6680
G01 X81.9885 Y43.6724
G01 X81.9793 Y43.6805
G01 X81.9712 Y43.6897
G01 X81.9668 Y43.6956
G01 X81.9630 Y43.7019
G01 X81.9576 Y43.7129
G01 X81.9539 Y43.7234
G01 X81.9515 Y43.7341
G01 X81.9505 Y43.7414
G01 X81.9500 Y43.7500
G01 X81.9500 Y44.4062
G01 X81.9505 Y44.4160
G01 X81.9519 Y44.4257
G01 X81.9543 Y44.4352
G01 X81.9581 Y44.4456
G01 X81.9618 Y44.4533
G01 X81.9668 Y44.4617
G01 X81.9727 Y44.4696
G01 X81.9776 Y44.4751
G01 X81.9875 Y44.4843
G01 X81.9944 Y44.4893
G01 X82.0028 Y44.4944
G01 X82.0140 Y44.4995
G01 X82.0210 Y44.5019
G01 X82.0305 Y44.5043
G01 X82.0402 Y44.5057
G01 X82.0776 Y44.5094
G01 X82.1762 Y44.5393
G01 X82.2671 Y44.5879
G01 X82.3467 Y44.6533
G01 X82.4121 Y44.7329
G01 X82.4607 Y44.8238
G01 X82.4906 Y44.9224
G01 X82.5012 Y45.0299
G01 X82.5012 Y46.2701
G01 X82.4906 Y46.3776
G01 X82.4607 Y46.4762
G01 X82.4121 Y46.5671
G01 X82.3467 Y46.6467
G01 X82.2671 Y46.7121
G01 X82.1762 Y46.7607
G01 X82.0776 Y46.7906
G01 X81.9701 Y46.8012
G01 X81.2299 Y46.8012
G01 X81.1224 Y46.7906
G01 X81.0238 Y46.7607
G01 X80.9329 Y46.7121
G01 X80.8533 Y46.6467
G01 X80.7879 Y46.5671
G01 X80.7393 Y46.4762
G01 X80.7094 Y46.3776
G01 X80.6988 Y46.2701
G01 X80.6988 Y45.0299
G01 X80.7094 Y44.9224
G01 X80.7393 Y44.8238
G01 X80.7879 Y44.7329
G01 X80.8533 Y44.6533
G01 X80.9329 Y44.5879
G01 X81.0238 Y44.5393
G01 X81.1224 Y44.5094
G01 X81.1598 Y44.5057
G01 X81.1695 Y44.5043
G01 X81.1790 Y44.5019
G01 X81.1860 Y44.4995
G01 X81.1982 Y44.4938
G01 X81.2056 Y44.4893
G01 X81.2135 Y44.4835
G01 X81.2207 Y44.4769
G01 X81.2273 Y44.4696
G01 X81.2332 Y44.4617
G01 X81.2382 Y44.4533
G01 X81.2424 Y44.4445
G01 X81.2449 Y44.4375
G01 X81.2483 Y44.4245
G01 X81.2495 Y44.4160
G01 X81.2500 Y44.4062
G01 X81.2500 Y43.7512
G01 X81.2495 Y43.7414
G01 X81.2481 Y43.7317
G01 X81.2457 Y43.7222
G01 X81.2424 Y43.7129
G01 X81.2393 Y43.7062
G01 X81.2325 Y43.6946
G01 X81.2273 Y43.6878
G01 X81.2207 Y43.6805
G01 X81.2135 Y43.6739
G01 X81.2056 Y43.6680
G01 X81.1972 Y43.6630
G01 X81.1905 Y43.6598
G01 X81.1779 Y43.6551
G01 X81.1695 Y43.6531
G01 X81.1598 Y43.6517
G00 Z1.0000
G00 X81.8501 Y43.5500
G01 F400.00
G01 Z-0.0400
G01 F2500.00
G01 X81.8501 Y44.6000
G01 X81.9775 Y44.6001
G01 X82.0167 Y44.6020
G01 X82.0579 Y44.6082
G01 X82.0984 Y44.6183
G01 X82.1376 Y44.6324
G01 X82.1753 Y44.6502
G01 X82.2101 Y44.6710
G01 X82.2446 Y44.6965
G01 X82.2755 Y44.7245
G01 X82.3035 Y44.7554
G01 X82.3284 Y44.7889
G01 X82.3498 Y44.8247
G01 X82.3676 Y44.8624
G01 X82.3817 Y44.9016
G01 X82.3918 Y44.9421
G01 X82.3980 Y44.9833
G01 X82.4000 Y45.0250
G01 X82.4000 Y46.2750
G01 X82.3980 Y46.3167
G01 X82.3916 Y46.3591
G01 X82.3817 Y46.3984
G01 X82.3685 Y46.4354
G01 X82.3498 Y46.4753
G01 X82.3270 Y46.5131
G01 X82.3035 Y46.5446
G01 X82.2772 Y46.5737
G01 X82.2446 Y46.6035
G01 X82.2090 Y46.6297
G01 X82.1753 Y46.6498
G01 X82.1399 Y46.6667
G01 X82.0972 Y46.6820
G01 X82.0579 Y46.6918
G01 X82.0191 Y46.6977
G01 X81.9750 Y46.7000
G01 X81.2250 Y46.7000
G01 X81.1833 Y46.6980
G01 X81.1409 Y46.6916
G01 X81.1016 Y46.6817
G01 X81.0624 Y46.6676
G01 X81.0247 Y46.6498
G01 X80.9910 Y46.6297
G01 X80.9535 Y46.6019
G01 X80.9245 Y46.5755
G01 X80.8965 Y46.5446
G01 X80.8716 Y46.5111
G01 X80.8514 Y46.4775
G01 X80.8315 Y46.4354
G01 X80.8183 Y46.3984
G01 X80.8082 Y46.3579
G01 X80.8020 Y46.3167
G01 X80.8000 Y46.2762
G01 X80.8000 Y45.0238
G01 X80.8020 Y44.9833
G01 X80.8077 Y44.9445
G01 X80.8187 Y44.9005
G01 X80.8324 Y44.8624
G01 X80.8502 Y44.8247
G01 X80.8716 Y44.7889
G01 X80.8965 Y44.7554
G01 X80.9245 Y44.7245
G01 X80.9554 Y44.6965
G01 X80.9889 Y44.6716
G01 X81.0236 Y44.6508
G01 X81.0624 Y44.6324
G01 X81.0993 Y44.6191
G01 X81.1445 Y44.6077
G01 X81.1833 Y44.6020
G01 X81.2225 Y44.6001
G01 X81.3499 Y44.6000
G01 X81.3499 Y43.5500
G01 X81.1500 Y43.5500
G01 X81.1206 Y43.5486
G01 X81.0915 Y43.5442
G01 X81.0629 Y43.5371
G01 X81.0352 Y43.5272
G01 X81.0097 Y43.5151
G01 X80.9833 Y43.4994
G01 X80.9578 Y43.4803
G01 X80.9379 Y43.4621
G01 X80.9197 Y43.4422
G01 X80.9020 Y43.4187
G01 X80.8854 Y43.3914
G01 X80.8728 Y43.3648
G01 X80.8629 Y43.3371
G01 X80.8555 Y43.3073
G01 X80.8514 Y43.2794
G01 X80.8500 Y43.2500
G01 X80.8500 Y42.6000
G01 X80.8516 Y42.5694
G01 X80.8558 Y42.5415
G01 X80.8629 Y42.5129
G01 X80.8728 Y42.4852
G01 X80.8866 Y42.4564
G01 X80.9006 Y42.4333
G01 X80.9197 Y42.4078
G01 X80.9379 Y42.3879
G01 X80.9578 Y42.3697
G01 X80.9813 Y42.3520
G01 X81.0108 Y42.3343
G01 X81.0352 Y42.3228
G01 X81.0629 Y42.3129
G01 X81.0939 Y42.3053
G01 X81.1206 Y42.3014
G01 X81.1475 Y42.3001
G01 X82.0500 Y42.3000
G01 X82.0770 Y42.3013
G01 X82.1085 Y42.3058
G01 X82.1371 Y42.3129
G01 X82.1648 Y42.3228
G01 X82.1936 Y42.3366
G01 X82.2167 Y42.3506
G01 X82.2422 Y42.3697
G01 X82.2621 Y42.3879
G01 X82.2803 Y42.4078
G01 X82.2980 Y42.4313
G01 X82.3157 Y42.4608
G01 X82.3272 Y42.4852
G01 X82.3371 Y42.5129
G01 X82.3447 Y42.5439
G01 X82.3486 Y42.5706
G01 X82.3500 Y42.5988
G01 X82.3500 Y43.2512
G01 X82.3486 Y43.2794
G01 X82.3442 Y43.3085
G01 X82.3371 Y43.3371
G01 X82.3272 Y43.3648
G01 X82.3146 Y43.3914
G01 X82.2994 Y43.4167
G01 X82.2819 Y43.4403
G01 X82.2621 Y43.4621
G01 X82.2403 Y43.4819
G01 X82.2167 Y43.4994
G01 X82.1914 Y43.5146
G01 X82.1637 Y43.5276
G01 X82.1371 Y43.5371
G01 X82.1109 Y43.5437
G01 X82.0782 Y43.5487
G01 X82.0500 Y43.5500
G01 X81.8501 Y43.5500
G00 Z1.0000
G00 X81.1230 Y41.4987
G01 F400.00
G01 Z-0.0400
G01 F2500.00
G01 X81.0891 Y41.4937
G01 X81.0629 Y41.4871
G01 X81.0352 Y41.4772
G01 X81.0086 Y41.4646
G01 X80.9854 Y41.4508
G01 X80.9578 Y41.4303
G01 X80.9379 Y41.4121
G01 X80.9181 Y41.3903
G01 X80.9006 Y41.3667
G01 X80.8866 Y41.3436
G01 X80.8728 Y41.3148
G01 X80.8637 Y41.2894
G01 X80.8553 Y41.2561
G01 X80.8514 Y41.2294
G01 X80.8500 Y41.2000
G01 X80.8500 Y40.5500
G01 X80.8514 Y40.5206
G01 X80.8558 Y40.4915
G01 X80.8623 Y40.4653
G01 X80.8738 Y40.4330
G01 X80.8854 Y40.4086
G01 X80.9006 Y40.3833
G01 X80.9181 Y40.3597
G01 X80.9379 Y40.3379
G01 X80.9597 Y40.3181
G01 X80.9833 Y40.3006
G01 X81.0086 Y40.2854
G01 X81.0352 Y40.2728
G01 X81.0629 Y40.2629
G01 X81.0915 Y40.2558
G01 X81.1206 Y40.2514
G01 X81.1500 Y40.2500
G01 X82.0500 Y40.2500
G01 X82.0782 Y40.2513
G01 X82.1085 Y40.2558
G01 X82.1347 Y40.2623
G01 X82.1670 Y40.2738
G01 X82.1914 Y40.2854
G01 X82.2167 Y40.3006
G01 X82.2403 Y40.3181
G01 X82.2621 Y40.3379
G01 X82.2819 Y40.3597
G01 X82.2994 Y40.3833
G01 X82.3146 Y40.4086
G01 X82.3272 Y40.4352
G01 X82.3371 Y40.4629
G01 X82.3442 Y40.4915
G01 X82.3486 Y40.5206
G01 X82.3500 Y40.5500
G01 X82.3500 Y41.2000
G01 X82.3486 Y41.2294
G01 X82.3442 Y41.2585
G01 X82.3377 Y41.2847
G01 X82.3262 Y41.3170
G01 X82.3146 Y41.3414
G01 X82.2994 Y41.3667
G01 X82.2819 Y41.3903
G01 X82.2621 Y41.4121
G01 X82.2403 Y41.4319
G01 X82.2167 Y41.4494
G01 X82.1914 Y41.4646
G01 X82.1670 Y41.4762
G01 X82.1347 Y41.4877
G01 X82.1085 Y41.4942
G01 X82.0782 Y41.4987
G01 X82.0500 Y41.5000
G01 X81.1500 Y41.5000
G01 X81.1230 Y41.4987
G00 Z1.0000
G00 X80.1000 Y41.6475
G01 F400.00
G01 Z-0.0400
G01 F2500.00
G01 X80.1001 Y44.5262
G01 X80.0989 Y44.5495
G01 X80.0953 Y44.5738
G01 X80.0893 Y44.5976
G01 X80.0819 Y44.6184
G01 X80.0706 Y44.6429
G01 X80.0593 Y44.6619
G01 X80.0417 Y44.6855
G01 X80.0268 Y44.7018
G01 X78.9518 Y45.7768
G01 X78.9317 Y45.7948
G01 X78.9139 Y45.8080
G01 X78.8929 Y45.8206
G01 X78.8707 Y45.8311
G01 X78.8452 Y45.8400
G01 X78.8238 Y45.8453
G01 X78.8019 Y45.8486
G01 X78.7762 Y45.8501
G01 X77.9000 Y45.8501
G01 X77.8999 Y46.5025
G01 X77.8993 Y46.5085
G01 X77.8975 Y46.5157
G01 X77.8947 Y46.5225
G01 X77.8909 Y46.5288
G01 X77.8870 Y46.5336
G01 X77.8817 Y46.5387
G01 X77.8757 Y46.5429
G01 X77.8691 Y46.5462
G01 X77.8598 Y46.5490
G01 X77.8500 Y46.5500
G01 X75.7500 Y46.5500
G01 X75.7415 Y46.5493
G01 X75.7320 Y46.5466
G01 X75.7243 Y46.5429
G01 X75.7164 Y46.5370
G01 X75.7098 Y46.5298
G01 X75.7065 Y46.5246
G01 X75.7043 Y46.5203
G01 X75.7012 Y46.5110
G01 X75.7004 Y46.5061
G01 X75.7000 Y46.5000
G01 X75.7000 Y44.7000
G01 X75.7005 Y44.6927
G01 X75.7018 Y44.6867
G01 X75.7043 Y44.6797
G01 X75.7071 Y44.6743
G01 X75.7106 Y44.6692
G01 X75.7155 Y44.6638
G01 X75.7202 Y44.6598
G01 X75.7264 Y44.6559
G01 X75.7320 Y44.6534
G01 X75.7379 Y44.6515
G01 X75.7439 Y44.6504
G01 X75.7500 Y44.6500
G01 X77.8500 Y44.6500
G01 X77.8549 Y44.6502
G01 X77.8610 Y44.6512
G01 X77.8691 Y44.6538
G01 X77.8757 Y44.6571
G01 X77.8827 Y44.6621
G01 X77.8887 Y44.6683
G01 X77.8935 Y44.6754
G01 X77.8966 Y44.6820
G01 X77.8990 Y44.6902
G01 X77.8999 Y44.6975
G01 X77.9000 Y45.3499
G01 X78.6714 Y45.3499
G01 X79.5999 Y44.4214
G01 X79.5999 Y41.7536
G01 X78.2464 Y40.4001
G01 X77.9000 Y40.4001
G01 X77.9000 Y40.4262
G01 X77.8978 Y40.4679
G01 X77.8918 Y40.5079
G01 X77.8813 Y40.5495
G01 X77.8676 Y40.5876
G01 X77.8498 Y40.6253
G01 X77.8284 Y40.6611
G01 X77.8043 Y40.6937
G01 X77.7755 Y40.7255
G01 X77.7465 Y40.7519
G01 X77.7090 Y40.7797
G01 X77.6753 Y40.7998
G01 X77.6376 Y40.8176
G01 X77.5984 Y40.8317
G01 X77.5567 Y40.8421
G01 X77.5167 Y40.8480
G01 X77.4750 Y40.8500
G01 X76.2225 Y40.8499
G01 X76.1833 Y40.8480
G01 X76.1445 Y40.8423
G01 X76.1016 Y40.8317
G01 X76.0601 Y40.8167
G01 X76.0247 Y40.7998
G01 X75.9899 Y40.7790
G01 X75.9554 Y40.7535
G01 X75.9245 Y40.7255
G01 X75.8965 Y40.6946
G01 X75.8703 Y40.6590
G01 X75.8502 Y40.6253
G01 X75.8333 Y40.5899
G01 X75.8191 Y40.5507
G01 X75.8082 Y40.5079
G01 X75.8019 Y40.4654
G01 X75.8000 Y40.4250
G01 X75.8000 Y39.6750
G01 X75.8020 Y39.6333
G01 X75.8082 Y39.5921
G01 X75.8176 Y39.5540
G01 X75.8324 Y39.5124
G01 X75.8502 Y39.4747
G01 X75.8703 Y39.4410
G01 X75.8981 Y39.4035
G01 X75.9245 Y39.3745
G01 X75.9554 Y39.3465
G01 X75.9889 Y39.3216
G01 X76.0247 Y39.3002
G01 X76.0624 Y39.2824
G01 X76.1016 Y39.2683
G01 X76.1421 Y39.2582
G01 X76.1858 Y39.2519
G01 X76.2250 Y39.2500
G01 X77.4762 Y39.2500
G01 X77.5191 Y39.2523
G01 X77.5579 Y39.2582
G01 X77.5960 Y39.2676
G01 X77.6376 Y39.2824
G01 X77.6753 Y39.3002
G01 X77.7111 Y39.3216
G01 X77.7446 Y39.3465
G01 X77.7755 Y39.3745
G01 X77.8019 Y39.4035
G01 X77.8297 Y39.4410
G01 X77.8498 Y39.4747
G01 X77.8681 Y39.5135
G01 X77.8817 Y39.5516
G01 X77.8913 Y39.5897
G01 X77.8981 Y39.6346
G01 X77.9000 Y39.6750
G01 X77.9000 Y39.8999
G01 X78.3500 Y39.8999
G01 X78.3745 Y39.9011
G01 X78.4012 Y39.9052
G01 X78.4226 Y39.9107
G01 X78.4457 Y39.9189
G01 X78.4700 Y39.9306
G01 X78.4889 Y39.9420
G01 X78.5077 Y39.9559
G01 X78.5268 Y39.9732
G01 X80.0277 Y41.4740
G01 X80.0433 Y41.4913
G01 X80.0580 Y41.5111
G01 X80.0706 Y41.5321
G01 X80.0811 Y41.5543
G01 X80.0893 Y41.5774
G01 X80.0953 Y41.6012
G01 X80.0989 Y41.6255
G01 X80.1000 Y41.6475
G00 Z1.0000
G00 X82.4512 Y41.1951
G01 F400.00
G01 Z-0.0400
G01 F2500.00
G01 X82.4430 Y41.2782
G01 X82.4202 Y41.3533
G01 X82.3832 Y41.4226
G01 X82.3333 Y41.4833
G01 X82.2726 Y41.5332
G01 X82.2033 Y41.5702
G01 X82.1282 Y41.5930
G01 X82.0451 Y41.6012
G01 X81.1549 Y41.6012
G01 X81.0718 Y41.5930
G01 X80.9967 Y41.5702
G01 X80.9274 Y41.5332
G01 X80.8667 Y41.4833
G01 X80.8168 Y41.4226
G01 X80.7798 Y41.3533
G01 X80.7570 Y41.2782
G01 X80.7488 Y41.1951
G01 X80.7488 Y40.5549
G01 X80.7570 Y40.4718
G01 X80.7798 Y40.3967
G01 X80.8168 Y40.3274
G01 X80.8667 Y40.2667
G01 X80.9274 Y40.2168
G01 X80.9967 Y40.1798
G01 X81.0718 Y40.1570
G01 X81.1549 Y40.1488
G01 X82.0451 Y40.1488
G01 X82.1282 Y40.1570
G01 X82.2033 Y40.1798
G01 X82.2726 Y40.2168
G01 X82.3333 Y40.2667
G01 X82.3832 Y40.3274
G01 X82.4202 Y40.3967
G01 X82.4430 Y40.4718
G01 X82.4512 Y40.5549
G01 X82.4512 Y41.1951
G00 Z1.0000
G00 X84.8451 Y41.1293
G01 F400.00
G01 Z-0.0400
G01 F2500.00
G01 X84.7733 Y41.0574
G01 X84.6638 Y40.8937
G01 X84.5885 Y40.7117
G01 X84.5500 Y40.5185
G01 X84.5500 Y40.3215
G01 X84.5885 Y40.1283
G01 X84.6638 Y39.9463
G01 X84.7733 Y39.7826
G01 X84.9126 Y39.6433
G01 X85.0763 Y39.5338
G01 X85.2583 Y39.4585
G01 X85.4515 Y39.4200
G01 X85.6485 Y39.4200
G01 X85.8417 Y39.4585
G01 X86.0237 Y39.5338
G01 X86.1874 Y39.6433
G01 X86.3267 Y39.7826
G01 X86.4362 Y39.9463
G01 X86.5115 Y40.1283
G01 X86.5500 Y40.3215
G01 X86.5500 Y40.5185
G01 X86.5115 Y40.7117
G01 X86.4362 Y40.8937
G01 X86.3267 Y41.0574
G01 X86.1874 Y41.1967
G01 X86.0237 Y41.3062
G01 X85.8417 Y41.3815
G01 X85.6485 Y41.4200
G01 X85.4515 Y41.4200
G01 X85.2583 Y41.3815
G01 X85.0763 Y41.3062
G01 X84.9126 Y41.1967
G01 X84.8451 Y41.1293
G00 Z1.0000
G00 X85.5475 Y42.0601
G01 F400.00
G01 Z-0.0400
G01 F2500.00
G01 X85.6382 Y42.0643
G01 X85.7256 Y42.0773
G01 X85.8113 Y42.0988
G01 X85.8944 Y42.1285
G01 X85.9743 Y42.1663
G01 X86.0500 Y42.2117
G01 X86.1210 Y42.2643
G01 X86.1864 Y42.3236
G01 X86.2457 Y42.3890
G01 X86.2983 Y42.4600
G01 X86.3437 Y42.5357
G01 X86.3815 Y42.6156
G01 X86.4112 Y42.6987
G01 X86.4327 Y42.7844
G01 X86.4457 Y42.8718
G01 X86.4500 Y42.9600
G01 X86.4457 Y43.0482
G01 X86.4327 Y43.1356
G01 X86.4112 Y43.2213
G01 X86.3815 Y43.3044
G01 X86.3437 Y43.3843
G01 X86.2983 Y43.4600
G01 X86.2457 Y43.5310
G01 X86.1864 Y43.5964
G01 X86.1210 Y43.6557
G01 X86.0500 Y43.7083
G01 X85.9743 Y43.7537
G01 X85.8944 Y43.7915
G01 X85.8113 Y43.8212
G01 X85.7256 Y43.8427
G01 X85.6382 Y43.8557
G01 X85.5500 Y43.8600
G01 X85.4618 Y43.8557
G01 X85.3744 Y43.8427
G01 X85.2887 Y43.8212
G01 X85.2056 Y43.7915
G01 X85.1257 Y43.7537
G01 X85.0500 Y43.7083
G01 X84.9790 Y43.6557
G01 X84.9136 Y43.5964
G01 X84.8543 Y43.5310
G01 X84.8017 Y43.4600
G01 X84.7563 Y43.3843
G01 X84.7185 Y43.3044
G01 X84.6888 Y43.2213
G01 X84.6673 Y43.1356
G01 X84.6543 Y43.0482
G01 X84.6500 Y42.9600
G01 X84.6543 Y42.8718
G01 X84.6673 Y42.7844
G01 X84.6888 Y42.6987
G01 X84.7185 Y42.6156
G01 X84.7563 Y42.5357
G01 X84.8017 Y42.4600
G01 X84.8543 Y42.3890
G01 X84.9136 Y42.3236
G01 X84.9790 Y42.2643
G01 X85.0500 Y42.2117
G01 X85.1257 Y42.1663
G01 X85.2056 Y42.1285
G01 X85.2887 Y42.0988
G01 X85.3744 Y42.0773
G01 X85.4618 Y42.0643
G01 X85.5475 Y42.0601
G00 Z1.0000
G00 X86.5500 Y43.0585
G01 F400.00
G01 Z-0.0400
G01 F2500.00
G01 X86.5115 Y43.2517
G01 X86.4362 Y43.4337
G01 X86.3267 Y43.5974
G01 X86.1874 Y43.7367
G01 X86.0237 Y43.8462
G01 X85.8417 Y43.9215
G01 X85.6485 Y43.9600
G01 X85.4515 Y43.9600
G01 X85.2583 Y43.9215
G01 X85.0763 Y43.8462
G01 X84.9126 Y43.7367
G01 X84.7733 Y43.5974
G01 X84.6638 Y43.4337
G01 X84.5885 Y43.2517
G01 X84.5500 Y43.0585
G01 X84.5500 Y42.8615
G01 X84.5885 Y42.6683
G01 X84.6638 Y42.4863
G01 X84.7733 Y42.3226
G01 X84.9126 Y42.1833
G01 X85.0763 Y42.0738
G01 X85.2583 Y41.9985
G01 X85.4515 Y41.9600
G01 X85.6485 Y41.9600
G01 X85.8417 Y41.9985
G01 X86.0237 Y42.0738
G01 X86.1874 Y42.1833
G01 X86.3267 Y42.3226
G01 X86.4362 Y42.4863
G01 X86.5115 Y42.6683
G01 X86.5500 Y42.8615
G01 X86.5500 Y43.0585
G00 Z1.0000
G00 X86.4000 Y44.6000
G01 F400.00
G01 Z-0.0400
G01 F2500.00
G01 X86.4098 Y44.6010
G01 X86.4191 Y44.6038
G01 X86.4267 Y44.6078
G01 X86.4345 Y44.6138
G01 X86.4409 Y44.6212
G01 X86.4457 Y44.6297
G01 X86.4488 Y44.6390
G01 X86.4500 Y44.6488
G01 X86.4500 Y46.3500
G01 X86.4490 Y46.3598
G01 X86.4462 Y46.3691
G01 X86.4422 Y46.3767
G01 X86.4362 Y46.3845
G01 X86.4327 Y46.3879
G01 X86.4278 Y46.3916
G01 X86.4191 Y46.3962
G01 X86.4098 Y46.3990
G01 X86.4000 Y46.4000
G01 X84.7000 Y46.4000
G01 X84.6902 Y46.3990
G01 X84.6820 Y46.3966
G01 X84.6733 Y46.3922
G01 X84.6655 Y46.3862
G01 X84.6591 Y46.3788
G01 X84.6559 Y46.3736
G01 X84.6538 Y46.3691
G01 X84.6510 Y46.3598
G01 X84.6500 Y46.3500
G01 X84.6500 Y44.6500
G01 X84.6510 Y44.6402
G01 X84.6538 Y44.6309
G01 X84.6578 Y44.6233
G01 X84.6638 Y44.6155
G01 X84.6712 Y44.6091
G01 X84.6797 Y44.6043
G01 X84.6843 Y44.6025
G01 X84.6902 Y44.6010
G01 X84.7000 Y44.6000
G01 X86.4000 Y44.6000
G00 Z1.0000
G00 X84.5488 Y46.3451
G01 F400.00
G01 Z-0.0400
G01 F2500.00
G01 X84.5488 Y44.6549
G01 X84.5522 Y44.6206
G01 X84.5608 Y44.5923
G01 X84.5747 Y44.5663
G01 X84.5934 Y44.5434
G01 X84.6163 Y44.5247
G01 X84.6423 Y44.5108
G01 X84.6706 Y44.5022
G01 X84.7049 Y44.4988
G01 X86.3951 Y44.4988
G01 X86.4294 Y44.5022
G01 X86.4577 Y44.5108
G01 X86.4837 Y44.5247
G01 X86.5066 Y44.5434
G01 X86.5253 Y44.5663
G01 X86.5392 Y44.5923
G01 X86.5478 Y44.6206
G01 X86.5512 Y44.6549
G01 X86.5512 Y46.3451
G01 X86.5478 Y46.3794
G01 X86.5392 Y46.4077
G01 X86.5253 Y46.4337
G01 X86.5066 Y46.4566
G01 X86.4837 Y46.4753
G01 X86.4577 Y46.4892
G01 X86.4294 Y46.4978
G01 X86.3951 Y46.5012
G01 X84.7049 Y46.5012
G01 X84.6706 Y46.4978
G01 X84.6423 Y46.4892
G01 X84.6163 Y46.4753
G01 X84.5934 Y46.4566
G01 X84.5747 Y46.4337
G01 X84.5608 Y46.4077
G01 X84.5522 Y46.3794
G01 X84.5488 Y46.3451
G00 Z1.0000
G00 X80.1124 Y47.2996
G01 F400.00
G01 Z-0.0400
G01 F2500.00
G01 X80.1686 Y47.3051
G01 X80.2346 Y47.3251
G01 X80.2954 Y47.3576
G01 X80.3487 Y47.4013
G01 X80.3573 Y47.4118
G01 X80.3631 Y47.4182
G01 X82.3318 Y49.3869
G01 X82.3382 Y49.3927
G01 X82.3487 Y49.4013
G01 X82.3924 Y49.4546
G01 X82.4249 Y49.5154
G01 X82.4449 Y49.5814
G01 X82.4517 Y49.6500
G01 X82.4504 Y49.6635
G01 X82.4500 Y49.6721
G01 X82.4500 Y53.1488
G01 X82.4505 Y53.1586
G01 X82.4519 Y53.1683
G01 X82.4551 Y53.1802
G01 X82.4576 Y53.1871
G01 X82.4618 Y53.1959
G01 X82.4682 Y53.2064
G01 X82.4727 Y53.2122
G01 X82.4776 Y53.2177
G01 X82.4865 Y53.2261
G01 X82.4955 Y53.2326
G01 X82.5028 Y53.2370
G01 X82.5095 Y53.2402
G01 X82.5210 Y53.2445
G01 X82.5329 Y53.2473
G01 X82.5402 Y53.2483
G01 X82.5488 Y53.2488
G01 X82.7201 Y53.2488
G01 X82.8276 Y53.2594
G01 X82.9262 Y53.2893
G01 X83.0171 Y53.3379
G01 X83.0967 Y53.4033
G01 X83.1621 Y53.4829
G01 X83.2107 Y53.5738
G01 X83.2406 Y53.6724
G01 X83.2512 Y53.7799
G01 X83.2512 Y54.5201
G01 X83.2406 Y54.6276
G01 X83.2107 Y54.7262
G01 X83.1621 Y54.8171
G01 X83.0967 Y54.8967
G01 X83.0171 Y54.9621
G01 X82.9262 Y55.0107
G01 X82.8276 Y55.0406
G01 X82.7201 Y55.0512
G01 X81.4799 Y55.0512
G01 X81.3724 Y55.0406
G01 X81.2738 Y55.0107
G01 X81.1829 Y54.9621
G01 X81.1033 Y54.8967
G01 X81.0379 Y54.8171
G01 X80.9893 Y54.7262
G01 X80.9594 Y54.6276
G01 X80.9488 Y54.5201
G01 X80.9488 Y53.7799
G01 X80.9594 Y53.6724
G01 X80.9893 Y53.5738
G01 X81.0379 Y53.4829
G01 X81.1033 Y53.4033
G01 X81.1829 Y53.3379
G01 X81.2738 Y53.2893
G01 X81.3724 Y53.2594
G01 X81.4799 Y53.2488
G01 X81.6512 Y53.2488
G01 X81.6598 Y53.2483
G01 X81.6671 Y53.2473
G01 X81.6790 Y53.2445
G01 X81.6883 Y53.2412
G01 X81.6950 Y53.2381
G01 X81.7056 Y53.2320
G01 X81.7153 Y53.2245
G01 X81.7207 Y53.2195
G01 X81.7265 Y53.2132
G01 X81.7338 Y53.2033
G01 X81.7382 Y53.1959
G01 X81.7414 Y53.1893
G01 X81.7457 Y53.1778
G01 X81.7485 Y53.1659
G01 X81.7495 Y53.1586
G01 X81.7500 Y53.1488
G01 X81.7500 Y49.8364
G01 X81.7495 Y49.8266
G01 X81.7483 Y49.8181
G01 X81.7449 Y49.8050
G01 X81.7424 Y49.7981
G01 X81.7393 Y49.7914
G01 X81.7345 Y49.7829
G01 X81.7281 Y49.7739
G01 X81.7207 Y49.7657
G01 X79.9843 Y48.0293
G01 X79.9771 Y48.0227
G01 X79.9692 Y48.0168
G01 X79.9608 Y48.0118
G01 X79.9541 Y48.0086
G01 X79.9426 Y48.0043
G01 X79.9307 Y48.0015
G01 X79.9234 Y48.0005
G01 X79.9148 Y48.0000
G01 X79.5692 Y48.0000
G01 X79.5594 Y48.0005
G01 X79.5521 Y48.0015
G01 X79.5414 Y48.0039
G01 X79.5310 Y48.0076
G01 X79.5221 Y48.0118
G01 X79.5127 Y48.0175
G01 X79.5058 Y48.0227
G01 X79.4994 Y48.0284
G01 X79.4506 Y48.0772
G01 X79.3605 Y48.1374
G01 X79.2604 Y48.1788
G01 X79.1542 Y48.2000
G01 X79.0458 Y48.2000
G01 X78.9396 Y48.1788
G01 X78.8395 Y48.1374
G01 X78.7494 Y48.0772
G01 X78.6728 Y48.0006
G01 X78.6126 Y47.9105
G01 X78.5712 Y47.8104
G01 X78.5500 Y47.7042
G01 X78.5500 Y47.5958
G01 X78.5712 Y47.4896
G01 X78.6126 Y47.3895
G01 X78.6728 Y47.2994
G01 X78.7494 Y47.2228
G01 X78.8395 Y47.1626
G01 X78.9396 Y47.1212
G01 X79.0458 Y47.1000
G01 X79.1542 Y47.1000
G01 X79.2604 Y47.1212
G01 X79.3605 Y47.1626
G01 X79.4506 Y47.2228
G01 X79.4994 Y47.2716
G01 X79.5058 Y47.2773
G01 X79.5127 Y47.2825
G01 X79.5221 Y47.2882
G01 X79.5310 Y47.2924
G01 X79.5414 Y47.2961
G01 X79.5521 Y47.2985
G01 X79.5594 Y47.2995
G01 X79.5692 Y47.3000
G01 X80.0779 Y47.3000
G01 X80.0865 Y47.2996
G01 X80.1000 Y47.2983
G01 X80.1124 Y47.2996
G00 Z1.0000
G00 X79.4741 Y47.3999
G01 F400.00
G01 Z-0.0400
G01 F2500.00
G01 X80.1000 Y47.3999
G01 X80.1233 Y47.4010
G01 X80.1512 Y47.4052
G01 X80.1726 Y47.4107
G01 X80.1957 Y47.4189
G01 X80.2200 Y47.4306
G01 X80.2389 Y47.4420
G01 X80.2567 Y47.4552
G01 X80.2768 Y47.4732
G01 X82.2768 Y49.4732
G01 X82.2933 Y49.4913
G01 X82.3080 Y49.5111
G01 X82.3206 Y49.5321
G01 X82.3306 Y49.5532
G01 X82.3393 Y49.5774
G01 X82.3453 Y49.6012
G01 X82.3489 Y49.6255
G01 X82.3501 Y49.6500
G01 X82.3501 Y53.3500
G01 X82.7250 Y53.3500
G01 X82.7654 Y53.3519
G01 X82.8079 Y53.3582
G01 X82.8484 Y53.3683
G01 X82.8876 Y53.3824
G01 X82.9232 Y53.3991
G01 X82.9611 Y53.4216
G01 X82.9965 Y53.4481
G01 X83.0255 Y53.4745
G01 X83.0519 Y53.5035
G01 X83.0784 Y53.5389
G01 X83.1009 Y53.5768
G01 X83.1176 Y53.6124
G01 X83.1309 Y53.6493
G01 X83.1418 Y53.6921
G01 X83.1480 Y53.7333
G01 X83.1500 Y53.7750
G01 X83.1500 Y54.5250
G01 X83.1480 Y54.5667
G01 X83.1416 Y54.6091
G01 X83.1309 Y54.6507
G01 X83.1176 Y54.6876
G01 X83.1009 Y54.7232
G01 X83.0784 Y54.7611
G01 X83.0535 Y54.7946
G01 X83.0255 Y54.8255
G01 X82.9927 Y54.8550
G01 X82.9611 Y54.8784
G01 X82.9275 Y54.8986
G01 X82.8888 Y54.9172
G01 X82.8484 Y54.9317
G01 X82.8079 Y54.9418
G01 X82.7667 Y54.9480
G01 X82.7262 Y54.9500
G01 X81.4750 Y54.9500
G01 X81.4321 Y54.9478
G01 X81.3897 Y54.9413
G01 X81.3516 Y54.9317
G01 X81.3146 Y54.9185
G01 X81.2747 Y54.8998
G01 X81.2369 Y54.8770
G01 X81.2054 Y54.8535
G01 X81.1763 Y54.8272
G01 X81.1465 Y54.7946
G01 X81.1203 Y54.7590
G01 X81.1002 Y54.7253
G01 X81.0828 Y54.6888
G01 X81.0683 Y54.6484
G01 X81.0582 Y54.6079
G01 X81.0520 Y54.5667
G01 X81.0500 Y54.5262
G01 X81.0500 Y53.7738
G01 X81.0523 Y53.7309
G01 X81.0582 Y53.6921
G01 X81.0676 Y53.6540
G01 X81.0824 Y53.6124
G01 X81.1008 Y53.5736
G01 X81.1216 Y53.5389
G01 X81.1465 Y53.5054
G01 X81.1745 Y53.4745
G01 X81.2054 Y53.4465
G01 X81.2389 Y53.4216
G01 X81.2747 Y53.4002
G01 X81.3124 Y53.3824
G01 X81.3516 Y53.3683
G01 X81.3945 Y53.3577
G01 X81.4333 Y53.3520
G01 X81.4738 Y53.3500
G01 X81.8499 Y53.3500
G01 X81.8499 Y49.7536
G01 X79.9964 Y47.9001
G01 X79.4741 Y47.9001
G01 X79.4463 Y47.9373
G01 X79.4182 Y47.9682
G01 X79.3873 Y47.9963
G01 X79.3500 Y48.0242
G01 X79.3121 Y48.0469
G01 X79.2699 Y48.0666
G01 X79.2306 Y48.0806
G01 X79.1902 Y48.0908
G01 X79.1441 Y48.0978
G01 X79.1000 Y48.1000
G01 X79.0559 Y48.0978
G01 X79.0098 Y48.0908
G01 X78.9694 Y48.0806
G01 X78.9301 Y48.0666
G01 X78.8879 Y48.0469
G01 X78.8480 Y48.0227
G01 X78.8145 Y47.9979
G01 X78.7836 Y47.9699
G01 X78.7521 Y47.9355
G01 X78.7258 Y47.9000
G01 X78.7031 Y47.8621
G01 X78.6843 Y47.8222
G01 X78.6694 Y47.7806
G01 X78.6586 Y47.7378
G01 X78.6522 Y47.6941
G01 X78.6500 Y47.6500
G01 X78.6522 Y47.6059
G01 X78.6586 Y47.5622
G01 X78.6694 Y47.5194
G01 X78.6843 Y47.4778
G01 X78.7031 Y47.4379
G01 X78.7258 Y47.4000
G01 X78.7521 Y47.3645
G01 X78.7818 Y47.3318
G01 X78.8145 Y47.3021
G01 X78.8500 Y47.2758
G01 X78.8879 Y47.2531
G01 X78.9278 Y47.2343
G01 X78.9694 Y47.2194
G01 X79.0122 Y47.2086
G01 X79.0559 Y47.2022
G01 X79.1000 Y47.2000
G01 X79.1441 Y47.2022
G01 X79.1878 Y47.2086
G01 X79.2306 Y47.2194
G01 X79.2722 Y47.2343
G01 X79.3121 Y47.2531
G01 X79.3500 Y47.2758
G01 X79.3855 Y47.3021
G01 X79.4182 Y47.3318
G01 X79.4479 Y47.3645
G01 X79.4741 Y47.3999
G00 Z1.0000
G00 X78.1988 Y53.7799
G01 F400.00
G01 Z-0.0400
G01 F2500.00
G01 X78.2094 Y53.6724
G01 X78.2393 Y53.5738
G01 X78.2879 Y53.4829
G01 X78.3533 Y53.4033
G01 X78.4329 Y53.3379
G01 X78.5238 Y53.2893
G01 X78.6224 Y53.2594
G01 X78.7299 Y53.2488
G01 X79.9701 Y53.2488
G01 X80.0776 Y53.2594
G01 X80.1762 Y53.2893
G01 X80.2671 Y53.3379
G01 X80.3467 Y53.4033
G01 X80.4121 Y53.4829
G01 X80.4607 Y53.5738
G01 X80.4906 Y53.6724
G01 X80.5012 Y53.7799
G01 X80.5012 Y54.5201
G01 X80.4906 Y54.6276
G01 X80.4607 Y54.7262
G01 X80.4121 Y54.8171
G01 X80.3467 Y54.8967
G01 X80.2671 Y54.9621
G01 X80.1762 Y55.0107
G01 X80.0776 Y55.0406
G01 X79.9701 Y55.0512
G01 X78.7299 Y55.0512
G01 X78.6224 Y55.0406
G01 X78.5238 Y55.0107
G01 X78.4329 Y54.9621
G01 X78.3533 Y54.8967
G01 X78.2879 Y54.8171
G01 X78.2393 Y54.7262
G01 X78.2094 Y54.6276
G01 X78.1988 Y54.5201
G01 X78.1988 Y53.7799
G00 Z1.0000
G00 X77.7512 Y53.7701
G01 F400.00
G01 Z-0.0400
G01 F2500.00
G01 X77.7406 Y53.8776
G01 X77.7107 Y53.9762
G01 X77.6621 Y54.0671
G01 X77.5967 Y54.1467
G01 X77.5171 Y54.2121
G01 X77.4262 Y54.2607
G01 X77.3276 Y54.2906
G01 X77.2201 Y54.3012
G01 X75.9799 Y54.3012
G01 X75.8724 Y54.2906
G01 X75.7738 Y54.2607
G01 X75.6829 Y54.2121
G01 X75.6033 Y54.1467
G01 X75.5379 Y54.0671
G01 X75.4893 Y53.9762
G01 X75.4594 Y53.8776
G01 X75.4488 Y53.7701
G01 X75.4488 Y53.0299
G01 X75.4594 Y52.9224
G01 X75.4893 Y52.8238
G01 X75.5379 Y52.7329
G01 X75.6033 Y52.6533
G01 X75.6829 Y52.5879
G01 X75.7738 Y52.5393
G01 X75.8724 Y52.5094
G01 X75.9799 Y52.4988
G01 X77.2201 Y52.4988
G01 X77.3276 Y52.5094
G01 X77.4262 Y52.5393
G01 X77.5171 Y52.5879
G01 X77.5967 Y52.6533
G01 X77.6621 Y52.7329
G01 X77.7107 Y52.8238
G01 X77.7406 Y52.9224
G01 X77.7512 Y53.0299
G01 X77.7512 Y53.7701
G00 Z1.0000
G00 X78.6858 Y54.9481
G01 F400.00
G01 Z-0.0400
G01 F2500.00
G01 X78.6397 Y54.9413
G01 X78.6016 Y54.9317
G01 X78.5624 Y54.9176
G01 X78.5247 Y54.8998
G01 X78.4910 Y54.8797
G01 X78.4535 Y54.8519
G01 X78.4245 Y54.8255
G01 X78.3965 Y54.7946
G01 X78.3716 Y54.7611
G01 X78.3514 Y54.7275
G01 X78.3315 Y54.6854
G01 X78.3183 Y54.6484
G01 X78.3079 Y54.6067
G01 X78.3020 Y54.5667
G01 X78.3000 Y54.5250
G01 X78.3000 Y53.7750
G01 X78.3020 Y53.7333
G01 X78.3082 Y53.6921
G01 X78.3183 Y53.6516
G01 X78.3324 Y53.6124
G01 X78.3491 Y53.5768
G01 X78.3730 Y53.5369
G01 X78.3965 Y53.5054
G01 X78.4263 Y53.4728
G01 X78.4554 Y53.4465
G01 X78.4889 Y53.4216
G01 X78.5247 Y53.4002
G01 X78.5601 Y53.3833
G01 X78.6040 Y53.3676
G01 X78.6421 Y53.3582
G01 X78.6846 Y53.3519
G01 X78.7250 Y53.3500
G01 X79.9750 Y53.3500
G01 X80.0167 Y53.3520
G01 X80.0579 Y53.3582
G01 X80.0984 Y53.3683
G01 X80.1376 Y53.3824
G01 X80.1753 Y53.4002
G01 X80.2111 Y53.4216
G01 X80.2446 Y53.4465
G01 X80.2772 Y53.4763
G01 X80.3035 Y53.5054
G01 X80.3284 Y53.5389
G01 X80.3498 Y53.5747
G01 X80.3667 Y53.6101
G01 X80.3824 Y53.6540
G01 X80.3918 Y53.6921
G01 X80.3978 Y53.7321
G01 X80.4000 Y53.7750
G01 X80.4000 Y54.5250
G01 X80.3980 Y54.5667
G01 X80.3918 Y54.6079
G01 X80.3817 Y54.6484
G01 X80.3676 Y54.6876
G01 X80.3498 Y54.7253
G01 X80.3284 Y54.7611
G01 X80.3035 Y54.7946
G01 X80.2737 Y54.8272
G01 X80.2446 Y54.8535
G01 X80.2111 Y54.8784
G01 X80.1753 Y54.8998
G01 X80.1399 Y54.9167
G01 X80.0960 Y54.9324
G01 X80.0579 Y54.9418
G01 X80.0154 Y54.9481
G01 X79.9750 Y54.9500
G01 X78.7250 Y54.9500
G01 X78.6858 Y54.9481
G00 Z1.0000
G00 X75.9358 Y54.1981
G01 F400.00
G01 Z-0.0400
G01 F2500.00
G01 X75.8897 Y54.1913
G01 X75.8516 Y54.1817
G01 X75.8124 Y54.1676
G01 X75.7747 Y54.1498
G01 X75.7410 Y54.1297
G01 X75.7035 Y54.1019
G01 X75.6745 Y54.0755
G01 X75.6465 Y54.0446
G01 X75.6216 Y54.0111
G01 X75.6014 Y53.9775
G01 X75.5815 Y53.9354
G01 X75.5683 Y53.8984
G01 X75.5579 Y53.8567
G01 X75.5520 Y53.8167
G01 X75.5500 Y53.7750
G01 X75.5500 Y53.0250
G01 X75.5520 Y52.9833
G01 X75.5582 Y52.9421
G01 X75.5683 Y52.9016
G01 X75.5824 Y52.8624
G01 X75.5991 Y52.8268
G01 X75.6230 Y52.7869
G01 X75.6465 Y52.7554
G01 X75.6763 Y52.7228
G01 X75.7054 Y52.6965
G01 X75.7389 Y52.6716
G01 X75.7747 Y52.6502
G01 X75.8101 Y52.6333
G01 X75.8540 Y52.6176
G01 X75.8921 Y52.6082
G01 X75.9346 Y52.6019
G01 X75.9750 Y52.6000
G01 X77.2250 Y52.6000
G01 X77.2667 Y52.6020
G01 X77.3079 Y52.6082
G01 X77.3484 Y52.6183
G01 X77.3876 Y52.6324
G01 X77.4253 Y52.6502
G01 X77.4611 Y52.6716
G01 X77.4946 Y52.6965
G01 X77.5272 Y52.7263
G01 X77.5535 Y52.7554
G01 X77.5784 Y52.7889
G01 X77.5998 Y52.8247
G01 X77.6167 Y52.8601
G01 X77.6324 Y52.9040
G01 X77.6418 Y52.9421
G01 X77.6478 Y52.9821
G01 X77.6500 Y53.0250
G01 X77.6500 Y53.7750
G01 X77.6480 Y53.8167
G01 X77.6418 Y53.8579
G01 X77.6317 Y53.8984
G01 X77.6176 Y53.9376
G01 X77.5998 Y53.9753
G01 X77.5784 Y54.0111
G01 X77.5535 Y54.0446
G01 X77.5237 Y54.0772
G01 X77.4946 Y54.1035
G01 X77.4611 Y54.1284
G01 X77.4253 Y54.1498
G01 X77.3899 Y54.1667
G01 X77.3460 Y54.1824
G01 X77.3079 Y54.1918
G01 X77.2654 Y54.1981
G01 X77.2250 Y54.2000
G01 X75.9750 Y54.2000
G01 X75.9358 Y54.1981
G00 Z1.0000
G00 X73.1858 Y54.9481
G01 F400.00
G01 Z-0.0400
G01 F2500.00
G01 X73.1397 Y54.9413
G01 X73.1016 Y54.9317
G01 X73.0624 Y54.9176
G01 X73.0247 Y54.8998
G01 X72.9910 Y54.8797
G01 X72.9535 Y54.8519
G01 X72.9245 Y54.8255
G01 X72.8965 Y54.7946
G01 X72.8716 Y54.7611
G01 X72.8514 Y54.7275
G01 X72.8315 Y54.6854
G01 X72.8183 Y54.6484
G01 X72.8079 Y54.6067
G01 X72.8020 Y54.5667
G01 X72.8000 Y54.5250
G01 X72.8000 Y53.7750
G01 X72.8020 Y53.7333
G01 X72.8082 Y53.6921
G01 X72.8183 Y53.6516
G01 X72.8324 Y53.6124
G01 X72.8491 Y53.5768
G01 X72.8730 Y53.5369
G01 X72.8965 Y53.5054
G01 X72.9263 Y53.4728
G01 X72.9554 Y53.4465
G01 X72.9889 Y53.4216
G01 X73.0247 Y53.4002
G01 X73.0601 Y53.3833
G01 X73.1040 Y53.3676
G01 X73.1421 Y53.3582
G01 X73.1846 Y53.3519
G01 X73.2250 Y53.3500
G01 X74.4750 Y53.3500
G01 X74.5167 Y53.3520
G01 X74.5579 Y53.3582
G01 X74.5984 Y53.3683
G01 X74.6376 Y53.3824
G01 X74.6753 Y53.4002
G01 X74.7111 Y53.4216
G01 X74.7446 Y53.4465
G01 X74.7772 Y53.4763
G01 X74.8035 Y53.5054
G01 X74.8284 Y53.5389
G01 X74.8498 Y53.5747
G01 X74.8667 Y53.6101
G01 X74.8824 Y53.6540
G01 X74.8918 Y53.6921
G01 X74.8978 Y53.7321
G01 X74.9000 Y53.7750
G01 X74.9000 Y54.5250
G01 X74.8980 Y54.5667
G01 X74.8918 Y54.6079
G01 X74.8817 Y54.6484
G01 X74.8676 Y54.6876
G01 X74.8498 Y54.7253
G01 X74.8284 Y54.7611
G01 X74.8035 Y54.7946
G01 X74.7737 Y54.8272
G01 X74.7446 Y54.8535
G01 X74.7111 Y54.8784
G01 X74.6753 Y54.8998
G01 X74.6399 Y54.9167
G01 X74.5960 Y54.9324
G01 X74.5579 Y54.9418
G01 X74.5154 Y54.9481
G01 X74.4750 Y54.9500
G01 X73.2250 Y54.9500
G01 X73.1858 Y54.9481
G00 Z1.0000
G00 X72.6988 Y54.5201
G01 F400.00
G01 Z-0.0400
G01 F2500.00
G01 X72.6988 Y53.7799
G01 X72.7094 Y53.6724
G01 X72.7393 Y53.5738
G01 X72.7879 Y53.4829
G01 X72.8533 Y53.4033
G01 X72.9329 Y53.3379
G01 X73.0238 Y53.2893
G01 X73.1224 Y53.2594
G01 X73.2299 Y53.2488
G01 X74.4701 Y53.2488
G01 X74.5776 Y53.2594
G01 X74.6762 Y53.2893
G01 X74.7671 Y53.3379
G01 X74.8467 Y53.4033
G01 X74.9121 Y53.4829
G01 X74.9607 Y53.5738
G01 X74.9906 Y53.6724
G01 X75.0012 Y53.7799
G01 X75.0012 Y54.5201
G01 X74.9906 Y54.6276
G01 X74.9607 Y54.7262
G01 X74.9121 Y54.8171
G01 X74.8467 Y54.8967
G01 X74.7671 Y54.9621
G01 X74.6762 Y55.0107
G01 X74.5776 Y55.0406
G01 X74.4701 Y55.0512
G01 X73.2299 Y55.0512
G01 X73.1224 Y55.0406
G01 X73.0238 Y55.0107
G01 X72.9329 Y54.9621
G01 X72.8533 Y54.8967
G01 X72.7879 Y54.8171
G01 X72.7393 Y54.7262
G01 X72.7094 Y54.6276
G01 X72.6988 Y54.5201
G00 Z1.0000
G00 X72.2512 Y54.5201
G01 F400.00
G01 Z-0.0400
G01 F2500.00
G01 X72.2406 Y54.6276
G01 X72.2107 Y54.7262
G01 X72.1621 Y54.8171
G01 X72.0967 Y54.8967
G01 X72.0171 Y54.9621
G01 X71.9262 Y55.0107
G01 X71.8276 Y55.0406
G01 X71.7201 Y55.0512
G01 X70.4799 Y55.0512
G01 X70.3724 Y55.0406
G01 X70.2738 Y55.0107
G01 X70.1829 Y54.9621
G01 X70.1033 Y54.8967
G01 X70.0379 Y54.8171
G01 X69.9893 Y54.7262
G01 X69.9594 Y54.6276
G01 X69.9488 Y54.5201
G01 X69.9488 Y53.7799
G01 X69.9594 Y53.6724
G01 X69.9893 Y53.5738
G01 X70.0379 Y53.4829
G01 X70.1033 Y53.4033
G01 X70.1829 Y53.3379
G01 X70.2738 Y53.2893
G01 X70.3724 Y53.2594
G01 X70.4799 Y53.2488
G01 X71.7201 Y53.2488
G01 X71.8276 Y53.2594
G01 X71.9262 Y53.2893
G01 X72.0171 Y53.3379
G01 X72.0967 Y53.4033
G01 X72.1621 Y53.4829
G01 X72.2107 Y53.5738
G01 X72.2406 Y53.6724
G01 X72.2512 Y53.7799
G01 X72.2512 Y54.5201
G00 Z1.0000
G00 X70.4358 Y54.9481
G01 F400.00
G01 Z-0.0400
G01 F2500.00
G01 X70.3897 Y54.9413
G01 X70.3516 Y54.9317
G01 X70.3124 Y54.9176
G01 X70.2747 Y54.8998
G01 X70.2410 Y54.8797
G01 X70.2035 Y54.8519
G01 X70.1745 Y54.8255
G01 X70.1465 Y54.7946
G01 X70.1216 Y54.7611
G01 X70.1014 Y54.7275
G01 X70.0815 Y54.6854
G01 X70.0683 Y54.6484
G01 X70.0579 Y54.6067
G01 X70.0520 Y54.5667
G01 X70.0500 Y54.5250
G01 X70.0500 Y53.7750
G01 X70.0520 Y53.7333
G01 X70.0582 Y53.6921
G01 X70.0683 Y53.6516
G01 X70.0824 Y53.6124
G01 X70.0991 Y53.5768
G01 X70.1230 Y53.5369
G01 X70.1465 Y53.5054
G01 X70.1763 Y53.4728
G01 X70.2054 Y53.4465
G01 X70.2389 Y53.4216
G01 X70.2747 Y53.4002
G01 X70.3101 Y53.3833
G01 X70.3540 Y53.3676
G01 X70.3921 Y53.3582
G01 X70.4346 Y53.3519
G01 X70.4750 Y53.3500
G01 X71.7250 Y53.3500
G01 X71.7667 Y53.3520
G01 X71.8079 Y53.3582
G01 X71.8484 Y53.3683
G01 X71.8876 Y53.3824
G01 X71.9253 Y53.4002
G01 X71.9611 Y53.4216
G01 X71.9946 Y53.4465
G01 X72.0272 Y53.4763
G01 X72.0535 Y53.5054
G01 X72.0784 Y53.5389
G01 X72.0998 Y53.5747
G01 X72.1167 Y53.6101
G01 X72.1324 Y53.6540
G01 X72.1418 Y53.6921
G01 X72.1478 Y53.7321
G01 X72.1500 Y53.7750
G01 X72.1500 Y54.5250
G01 X72.1480 Y54.5667
G01 X72.1418 Y54.6079
G01 X72.1317 Y54.6484
G01 X72.1176 Y54.6876
G01 X72.0998 Y54.7253
G01 X72.0784 Y54.7611
G01 X72.0535 Y54.7946
G01 X72.0237 Y54.8272
G01 X71.9946 Y54.8535
G01 X71.9611 Y54.8784
G01 X71.9253 Y54.8998
G01 X71.8899 Y54.9167
G01 X71.8460 Y54.9324
G01 X71.8079 Y54.9418
G01 X71.7654 Y54.9481
G01 X71.7250 Y54.9500
G01 X70.4750 Y54.9500
G01 X70.4358 Y54.9481
G00 Z1.0000
G00 X69.4358 Y51.6981
G01 F400.00
G01 Z-0.0400
G01 F2500.00
G01 X69.3897 Y51.6913
G01 X69.3516 Y51.6817
G01 X69.3124 Y51.6676
G01 X69.2747 Y51.6498
G01 X69.2410 Y51.6297
G01 X69.2035 Y51.6019
G01 X69.1745 Y51.5755
G01 X69.1465 Y51.5446
G01 X69.1216 Y51.5111
G01 X69.1014 Y51.4775
G01 X69.0815 Y51.4354
G01 X69.0683 Y51.3984
G01 X69.0579 Y51.3567
G01 X69.0520 Y51.3167
G01 X69.0500 Y51.2750
G01 X69.0500 Y50.5250
G01 X69.0520 Y50.4833
G01 X69.0582 Y50.4421
G01 X69.0683 Y50.4016
G01 X69.0824 Y50.3624
G01 X69.0991 Y50.3268
G01 X69.1230 Y50.2869
G01 X69.1465 Y50.2554
G01 X69.1763 Y50.2228
G01 X69.2054 Y50.1965
G01 X69.2389 Y50.1716
G01 X69.2747 Y50.1502
G01 X69.3101 Y50.1333
G01 X69.3540 Y50.1176
G01 X69.3921 Y50.1082
G01 X69.4346 Y50.1019
G01 X69.4750 Y50.1000
G01 X70.7250 Y50.1000
G01 X70.7667 Y50.1020
G01 X70.8079 Y50.1082
G01 X70.8484 Y50.1183
G01 X70.8876 Y50.1324
G01 X70.9253 Y50.1502
G01 X70.9611 Y50.1716
G01 X70.9946 Y50.1965
G01 X71.0272 Y50.2263
G01 X71.0535 Y50.2554
G01 X71.0784 Y50.2889
G01 X71.0998 Y50.3247
G01 X71.1167 Y50.3601
G01 X71.1324 Y50.4040
G01 X71.1418 Y50.4421
G01 X71.1478 Y50.4821
G01 X71.1500 Y50.5250
G01 X71.1500 Y51.2750
G01 X71.1480 Y51.3167
G01 X71.1418 Y51.3579
G01 X71.1317 Y51.3984
G01 X71.1176 Y51.4376
G01 X71.0998 Y51.4753
G01 X71.0784 Y51.5111
G01 X71.0535 Y51.5446
G01 X71.0237 Y51.5772
G01 X70.9946 Y51.6035
G01 X70.9611 Y51.6284
G01 X70.9253 Y51.6498
G01 X70.8899 Y51.6667
G01 X70.8460 Y51.6824
G01 X70.8079 Y51.6918
G01 X70.7654 Y51.6981
G01 X70.7250 Y51.7000
G01 X69.4750 Y51.7000
G01 X69.4358 Y51.6981
G00 Z1.0000
G00 X71.2512 Y51.2701
G01 F400.00
G01 Z-0.0400
G01 F2500.00
G01 X71.2406 Y51.3776
G01 X71.2107 Y51.4762
G01 X71.1621 Y51.5671
G01 X71.0967 Y51.6467
G01 X71.0171 Y51.7121
G01 X70.9262 Y51.7607
G01 X70.8276 Y51.7906
G01 X70.7201 Y51.8012
G01 X69.4799 Y51.8012
G01 X69.3724 Y51.7906
G01 X69.2738 Y51.7607
G01 X69.1829 Y51.7121
G01 X69.1033 Y51.6467
G01 X69.0379 Y51.5671
G01 X68.9893 Y51.4762
G01 X68.9594 Y51.3776
G01 X68.9488 Y51.2701
G01 X68.9488 Y50.5299
G01 X68.9594 Y50.4224
G01 X68.9893 Y50.3238
G01 X69.0379 Y50.2329
G01 X69.1033 Y50.1533
G01 X69.1829 Y50.0879
G01 X69.2738 Y50.0393
G01 X69.3724 Y50.0094
G01 X69.4799 Y49.9988
G01 X70.7201 Y49.9988
G01 X70.8276 Y50.0094
G01 X70.9262 Y50.0393
G01 X71.0171 Y50.0879
G01 X71.0967 Y50.1533
G01 X71.1621 Y50.2329
G01 X71.2107 Y50.3238
G01 X71.2406 Y50.4224
G01 X71.2512 Y50.5299
G01 X71.2512 Y51.2701
G00 Z1.0000
G00 X71.8102 Y51.2555
G01 F400.00
G01 Z-0.0400
G01 F2500.00
G01 X71.8000 Y51.2042
G01 X71.8000 Y51.0958
G01 X71.8212 Y50.9896
G01 X71.8626 Y50.8895
G01 X71.9228 Y50.7994
G01 X71.9994 Y50.7228
G01 X72.0895 Y50.6626
G01 X72.1896 Y50.6212
G01 X72.2958 Y50.6000
G01 X72.4042 Y50.6000
G01 X72.5104 Y50.6212
G01 X72.6105 Y50.6626
G01 X72.7006 Y50.7228
G01 X72.7772 Y50.7994
G01 X72.8374 Y50.8895
G01 X72.8788 Y50.9896
G01 X72.9000 Y51.0958
G01 X72.9000 Y51.2042
G01 X72.8788 Y51.3104
G01 X72.8374 Y51.4105
G01 X72.7772 Y51.5006
G01 X72.7006 Y51.5772
G01 X72.6105 Y51.6374
G01 X72.5104 Y51.6788
G01 X72.4042 Y51.7000
G01 X72.2958 Y51.7000
G01 X72.1896 Y51.6788
G01 X72.0895 Y51.6374
G01 X71.9994 Y51.5772
G01 X71.9228 Y51.5006
G01 X71.8626 Y51.4105
G01 X71.8212 Y51.3104
G01 X71.8102 Y51.2555
G00 Z1.0000
G00 X71.9001 Y51.1525
G01 F400.00
G01 Z-0.0400
G01 F2500.00
G01 X71.9022 Y51.1059
G01 X71.9086 Y51.0622
G01 X71.9194 Y51.0194
G01 X71.9343 Y50.9778
G01 X71.9531 Y50.9379
G01 X71.9758 Y50.9000
G01 X72.0021 Y50.8645
G01 X72.0318 Y50.8318
G01 X72.0645 Y50.8021
G01 X72.1000 Y50.7758
G01 X72.1379 Y50.7531
G01 X72.1778 Y50.7343
G01 X72.2194 Y50.7194
G01 X72.2622 Y50.7086
G01 X72.3059 Y50.7022
G01 X72.3500 Y50.7000
G01 X72.3941 Y50.7022
G01 X72.4378 Y50.7086
G01 X72.4806 Y50.7194
G01 X72.5222 Y50.7343
G01 X72.5621 Y50.7531
G01 X72.6000 Y50.7758
G01 X72.6355 Y50.8021
G01 X72.6682 Y50.8318
G01 X72.6979 Y50.8645
G01 X72.7242 Y50.9000
G01 X72.7469 Y50.9379
G01 X72.7657 Y50.9778
G01 X72.7806 Y51.0194
G01 X72.7914 Y51.0622
G01 X72.7978 Y51.1059
G01 X72.8000 Y51.1500
G01 X72.7978 Y51.1941
G01 X72.7914 Y51.2378
G01 X72.7806 Y51.2806
G01 X72.7657 Y51.3222
G01 X72.7469 Y51.3621
G01 X72.7242 Y51.4000
G01 X72.6979 Y51.4355
G01 X72.6682 Y51.4682
G01 X72.6355 Y51.4979
G01 X72.6000 Y51.5242
G01 X72.5621 Y51.5469
G01 X72.5222 Y51.5657
G01 X72.4806 Y51.5806
G01 X72.4378 Y51.5914
G01 X72.3941 Y51.5978
G01 X72.3500 Y51.6000
G01 X72.3059 Y51.5978
G01 X72.2622 Y51.5914
G01 X72.2194 Y51.5806
G01 X72.1778 Y51.5657
G01 X72.1379 Y51.5469
G01 X72.1000 Y51.5242
G01 X72.0645 Y51.4979
G01 X72.0318 Y51.4682
G01 X72.0021 Y51.4355
G01 X71.9758 Y51.4000
G01 X71.9531 Y51.3621
G01 X71.9343 Y51.3222
G01 X71.9194 Y51.2806
G01 X71.9086 Y51.2378
G01 X71.9022 Y51.1941
G01 X71.9001 Y51.1525
G00 Z1.0000
G00 X68.1500 Y46.5450
G01 F400.00
G01 Z-0.0400
G01 F2500.00
G01 X68.1274 Y46.5393
G01 X68.1066 Y46.5319
G01 X68.0821 Y46.5206
G01 X68.0611 Y46.5080
G01 X68.0433 Y46.4948
G01 X68.0232 Y46.4768
G01 X67.1723 Y45.6260
G01 X67.1552 Y45.6067
G01 X67.1420 Y45.5889
G01 X67.1306 Y45.5700
G01 X67.1189 Y45.5457
G01 X67.1103 Y45.5214
G01 X67.1047 Y45.4988
G01 X67.1014 Y45.4769
G01 X67.0999 Y45.4500
G01 X67.0999 Y42.9000
G01 X67.1011 Y42.8755
G01 X67.1047 Y42.8512
G01 X67.1107 Y42.8274
G01 X67.1189 Y42.8043
G01 X67.1294 Y42.7821
G01 X67.1420 Y42.7611
G01 X67.1567 Y42.7413
G01 X67.1723 Y42.7240
G01 X68.8499 Y41.0464
G01 X68.8499 Y39.5036
G01 X68.1732 Y38.8268
G01 X68.1583 Y38.8105
G01 X68.1407 Y38.7869
G01 X68.1294 Y38.7679
G01 X68.1189 Y38.7457
G01 X68.1100 Y38.7202
G01 X68.1047 Y38.6988
G01 X68.1011 Y38.6745
G01 X68.0999 Y38.6500
G01 X68.0999 Y36.4000
G01 X68.1009 Y36.3779
G01 X68.1047 Y36.3512
G01 X68.1114 Y36.3251
G01 X68.1189 Y36.3043
G01 X68.1283 Y36.2843
G01 X68.1414 Y36.2621
G01 X68.1567 Y36.2413
G01 X68.1715 Y36.2249
G01 X68.2345 Y36.1618
G01 X68.2252 Y36.1490
G01 X68.2026 Y36.1110
G01 X68.1843 Y36.0722
G01 X68.1690 Y36.0294
G01 X68.1587 Y35.9878
G01 X68.1522 Y35.9441
G01 X68.1500 Y35.9000
G01 X68.1521 Y35.8571
G01 X68.1587 Y35.8122
G01 X68.1687 Y35.7717
G01 X68.1853 Y35.7255
G01 X68.2031 Y35.6879
G01 X68.2258 Y35.6500
G01 X68.2522 Y35.6145
G01 X68.2818 Y35.5818
G01 X68.3145 Y35.5521
G01 X68.3521 Y35.5245
G01 X68.3879 Y35.5031
G01 X68.4256 Y35.4852
G01 X68.4694 Y35.4694
G01 X68.5122 Y35.4586
G01 X68.5583 Y35.4520
G01 X68.6000 Y35.4500
G01 X68.6417 Y35.4520
G01 X68.6877 Y35.4586
G01 X68.9232 Y35.2232
G01 X68.9433 Y35.2052
G01 X68.9611 Y35.1920
G01 X68.9821 Y35.1794
G01 X69.0043 Y35.1689
G01 X69.0251 Y35.1614
G01 X69.0536 Y35.1543
G01 X69.0755 Y35.1511
G01 X69.0976 Y35.1500
G01 X79.4964 Y35.1499
G01 X81.9086 Y32.7377
G01 X81.9020 Y32.6917
G01 X81.9000 Y32.6500
G01 X81.9020 Y32.6083
G01 X81.9086 Y32.5622
G01 X81.9201 Y32.5170
G01 X81.9343 Y32.4778
G01 X81.9520 Y32.4401
G01 X81.9758 Y32.4000
G01 X82.0037 Y32.3627
G01 X82.0318 Y32.3318
G01 X82.0627 Y32.3037
G01 X82.1000 Y32.2758
G01 X82.1379 Y32.2531
G01 X82.1778 Y32.2343
G01 X82.2170 Y32.2201
G01 X82.2646 Y32.2082
G01 X82.3059 Y32.2022
G01 X82.3525 Y32.2001
G01 X82.3941 Y32.2022
G01 X82.4378 Y32.2086
G01 X82.4806 Y32.2194
G01 X82.5222 Y32.2343
G01 X82.5621 Y32.2531
G01 X82.6000 Y32.2758
G01 X82.6355 Y32.3021
G01 X82.6682 Y32.3318
G01 X82.6979 Y32.3645
G01 X82.7242 Y32.4000
G01 X82.7469 Y32.4379
G01 X82.7657 Y32.4778
G01 X82.7806 Y32.5194
G01 X82.7914 Y32.5622
G01 X82.7978 Y32.6059
G01 X82.7999 Y32.6475
G01 X82.7978 Y32.6941
G01 X82.7918 Y32.7354
G01 X82.7799 Y32.7830
G01 X82.7657 Y32.8222
G01 X82.7469 Y32.8621
G01 X82.7242 Y32.9000
G01 X82.6963 Y32.9373
G01 X82.6682 Y32.9682
G01 X82.6373 Y32.9963
G01 X82.6000 Y33.0242
G01 X82.5599 Y33.0480
G01 X82.5222 Y33.0657
G01 X82.4830 Y33.0799
G01 X82.4378 Y33.0914
G01 X82.3917 Y33.0980
G01 X82.3500 Y33.1000
G01 X82.3083 Y33.0980
G01 X82.2623 Y33.0914
G01 X79.7768 Y35.5768
G01 X79.7587 Y35.5933
G01 X79.7369 Y35.6093
G01 X79.7179 Y35.6206
G01 X79.6980 Y35.6301
G01 X79.6726 Y35.6393
G01 X79.6488 Y35.6453
G01 X79.6269 Y35.6486
G01 X79.6000 Y35.6501
G01 X69.2036 Y35.6501
G01 X69.0414 Y35.8123
G01 X69.0478 Y35.8559
G01 X69.0500 Y35.9000
G01 X69.0478 Y35.9441
G01 X69.0414 Y35.9878
G01 X69.0306 Y36.0306
G01 X69.0158 Y36.0722
G01 X68.9969 Y36.1121
G01 X68.9735 Y36.1510
G01 X68.9479 Y36.1855
G01 X68.9173 Y36.2191
G01 X68.8855 Y36.2479
G01 X68.8510 Y36.2735
G01 X68.8132 Y36.2963
G01 X68.7967 Y36.3042
G01 X68.7925 Y36.3096
G01 X68.7769 Y36.3268
G01 X68.6001 Y36.5036
G01 X68.6001 Y38.5464
G01 X69.2777 Y39.2240
G01 X69.2948 Y39.2433
G01 X69.3080 Y39.2611
G01 X69.3194 Y39.2800
G01 X69.3311 Y39.3043
G01 X69.3397 Y39.3286
G01 X69.3453 Y39.3512
G01 X69.3486 Y39.3731
G01 X69.3501 Y39.4000
G01 X69.3501 Y41.1500
G01 X69.3488 Y41.1757
G01 X69.3453 Y41.1988
G01 X69.3393 Y41.2226
G01 X69.3311 Y41.2457
G01 X69.3217 Y41.2657
G01 X69.3065 Y41.2910
G01 X69.2933 Y41.3087
G01 X69.2777 Y41.3260
G01 X67.6001 Y43.0036
G01 X67.6001 Y45.3464
G01 X68.1513 Y45.8976
G01 X68.1522 Y45.8821
G01 X68.1584 Y45.8409
G01 X68.1683 Y45.8016
G01 X68.1819 Y45.7635
G01 X68.2002 Y45.7247
G01 X68.2203 Y45.6910
G01 X68.2473 Y45.6544
G01 X68.2745 Y45.6245
G01 X68.3054 Y45.5965
G01 X68.3389 Y45.5716
G01 X68.3725 Y45.5514
G01 X68.4124 Y45.5324
G01 X68.4493 Y45.5191
G01 X68.4945 Y45.5077
G01 X68.5333 Y45.5020
G01 X68.5750 Y45.5000
G01 X69.8250 Y45.5000
G01 X69.8642 Y45.5019
G01 X69.9103 Y45.5087
G01 X69.9484 Y45.5183
G01 X69.9876 Y45.5324
G01 X70.0253 Y45.5502
G01 X70.0590 Y45.5703
G01 X70.0946 Y45.5965
G01 X70.1255 Y45.6245
G01 X70.1535 Y45.6554
G01 X70.1784 Y45.6889
G01 X70.1998 Y45.7247
G01 X70.2176 Y45.7624
G01 X70.2317 Y45.8016
G01 X70.2418 Y45.8421
G01 X70.2477 Y45.8809
G01 X70.2500 Y45.9250
G01 X70.2500 Y46.6762
G01 X70.2477 Y46.7191
G01 X70.2418 Y46.7579
G01 X70.2324 Y46.7960
G01 X70.2176 Y46.8376
G01 X70.2004 Y46.8743
G01 X70.1784 Y46.9111
G01 X70.1527 Y46.9456
G01 X70.1246 Y46.9764
G01 X70.0946 Y47.0035
G01 X70.0732 Y47.0195
G01 X72.4536 Y49.3999
G01 X77.1000 Y49.3999
G01 X77.1245 Y49.4011
G01 X77.1464 Y49.4043
G01 X77.1749 Y49.4114
G01 X77.1980 Y49.4199
G01 X77.2179 Y49.4294
G01 X77.2369 Y49.4407
G01 X77.2587 Y49.4567
G01 X77.2760 Y49.4723
G01 X78.7623 Y50.9586
G01 X78.8083 Y50.9520
G01 X78.8500 Y50.9500
G01 X78.8917 Y50.9520
G01 X78.9378 Y50.9586
G01 X78.9830 Y50.9701
G01 X79.0222 Y50.9843
G01 X79.0599 Y51.0020
G01 X79.1000 Y51.0258
G01 X79.1373 Y51.0537
G01 X79.1682 Y51.0818
G01 X79.1971 Y51.1136
G01 X79.2242 Y51.1500
G01 X79.2469 Y51.1879
G01 X79.2657 Y51.2278
G01 X79.2799 Y51.2670
G01 X79.2918 Y51.3146
G01 X79.2978 Y51.3559
G01 X79.2999 Y51.4025
G01 X79.2978 Y51.4441
G01 X79.2914 Y51.4878
G01 X79.2806 Y51.5306
G01 X79.2657 Y51.5722
G01 X79.2469 Y51.6121
G01 X79.2242 Y51.6500
G01 X79.1979 Y51.6855
G01 X79.1682 Y51.7182
G01 X79.1355 Y51.7479
G01 X79.1000 Y51.7742
G01 X79.0621 Y51.7969
G01 X79.0245 Y51.8148
G01 X78.9806 Y51.8306
G01 X78.9402 Y51.8408
G01 X78.8917 Y51.8480
G01 X78.8500 Y51.8500
G01 X78.8059 Y51.8478
G01 X78.7622 Y51.8414
G01 X78.7194 Y51.8306
G01 X78.6778 Y51.8157
G01 X78.6379 Y51.7969
G01 X78.6000 Y51.7742
G01 X78.5645 Y51.7479
G01 X78.5301 Y51.7164
G01 X78.5021 Y51.6855
G01 X78.4773 Y51.6520
G01 X78.4531 Y51.6121
G01 X78.4334 Y51.5699
G01 X78.4194 Y51.5306
G01 X78.4092 Y51.4902
G01 X78.4022 Y51.4441
G01 X78.4001 Y51.3975
G01 X78.4022 Y51.3559
G01 X78.4086 Y51.3123
G01 X76.9964 Y49.9001
G01 X72.3500 Y49.9001
G01 X72.3255 Y49.8989
G01 X72.3012 Y49.8953
G01 X72.2774 Y49.8893
G01 X72.2520 Y49.8801
G01 X72.2321 Y49.8706
G01 X72.2111 Y49.8580
G01 X72.1913 Y49.8433
G01 X72.1732 Y49.8268
G01 X69.4463 Y47.1000
G01 X68.5738 Y47.1000
G01 X68.5333 Y47.0980
G01 X68.4921 Y47.0918
G01 X68.4516 Y47.0817
G01 X68.4124 Y47.0676
G01 X68.3747 Y47.0498
G01 X68.3389 Y47.0284
G01 X68.3054 Y47.0035
G01 X68.2763 Y46.9772
G01 X68.2450 Y46.9427
G01 X68.2216 Y46.9111
G01 X68.1996 Y46.8743
G01 X68.1824 Y46.8376
G01 X68.1691 Y46.8007
G01 X68.1577 Y46.7555
G01 X68.1520 Y46.7167
G01 X68.1500 Y46.6762
G01 X68.1500 Y46.5450
G00 Z1.0000
G00 X65.9500 Y46.2500
G01 F400.00
G01 Z-0.0400
G01 F2500.00
G01 X65.9598 Y46.2510
G01 X65.9691 Y46.2538
G01 X65.9767 Y46.2578
G01 X65.9845 Y46.2638
G01 X65.9909 Y46.2712
G01 X65.9957 Y46.2797
G01 X65.9988 Y46.2890
G01 X66.0000 Y46.2988
G01 X66.0000 Y48.0000
G01 X65.9990 Y48.0098
G01 X65.9962 Y48.0191
G01 X65.9922 Y48.0267
G01 X65.9862 Y48.0345
G01 X65.9827 Y48.0379
G01 X65.9778 Y48.0416
G01 X65.9691 Y48.0462
G01 X65.9598 Y48.0490
G01 X65.9500 Y48.0500
G01 X64.2500 Y48.0500
G01 X64.2402 Y48.0490
G01 X64.2320 Y48.0466
G01 X64.2233 Y48.0422
G01 X64.2155 Y48.0362
G01 X64.2091 Y48.0288
G01 X64.2059 Y48.0236
G01 X64.2038 Y48.0191
G01 X64.2010 Y48.0098
G01 X64.2000 Y48.0000
G01 X64.2000 Y46.3000
G01 X64.2010 Y46.2902
G01 X64.2038 Y46.2809
G01 X64.2078 Y46.2733
G01 X64.2138 Y46.2655
G01 X64.2212 Y46.2591
G01 X64.2297 Y46.2543
G01 X64.2343 Y46.2525
G01 X64.2402 Y46.2510
G01 X64.2500 Y46.2500
G01 X65.9500 Y46.2500
G00 Z1.0000
G00 X66.1000 Y44.7085
G01 F400.00
G01 Z-0.0400
G01 F2500.00
G01 X66.0615 Y44.9017
G01 X65.9862 Y45.0837
G01 X65.8767 Y45.2474
G01 X65.7374 Y45.3867
G01 X65.5737 Y45.4962
G01 X65.3917 Y45.5715
G01 X65.1985 Y45.6100
G01 X65.0015 Y45.6100
G01 X64.8083 Y45.5715
G01 X64.6263 Y45.4962
G01 X64.4626 Y45.3867
G01 X64.3233 Y45.2474
G01 X64.2138 Y45.0837
G01 X64.1385 Y44.9017
G01 X64.1000 Y44.7085
G01 X64.1000 Y44.5115
G01 X64.1385 Y44.3183
G01 X64.2138 Y44.1363
G01 X64.3233 Y43.9726
G01 X64.4626 Y43.8333
G01 X64.6263 Y43.7238
G01 X64.8083 Y43.6485
G01 X65.0015 Y43.6100
G01 X65.1985 Y43.6100
G01 X65.3917 Y43.6485
G01 X65.5737 Y43.7238
G01 X65.7374 Y43.8333
G01 X65.8767 Y43.9726
G01 X65.9862 Y44.1363
G01 X66.0615 Y44.3183
G01 X66.1000 Y44.5115
G01 X66.1000 Y44.7085
G00 Z1.0000
G00 X65.0975 Y43.7101
G01 F400.00
G01 Z-0.0400
G01 F2500.00
G01 X65.1882 Y43.7143
G01 X65.2756 Y43.7273
G01 X65.3613 Y43.7488
G01 X65.4444 Y43.7785
G01 X65.5243 Y43.8163
G01 X65.6000 Y43.8617
G01 X65.6710 Y43.9143
G01 X65.7364 Y43.9736
G01 X65.7957 Y44.0390
G01 X65.8483 Y44.1100
G01 X65.8937 Y44.1857
G01 X65.9315 Y44.2656
G01 X65.9612 Y44.3487
G01 X65.9827 Y44.4344
G01 X65.9957 Y44.5218
G01 X66.0000 Y44.6100
G01 X65.9957 Y44.6982
G01 X65.9827 Y44.7856
G01 X65.9612 Y44.8713
G01 X65.9315 Y44.9544
G01 X65.8937 Y45.0343
G01 X65.8483 Y45.1100
G01 X65.7957 Y45.1810
G01 X65.7364 Y45.2464
G01 X65.6710 Y45.3057
G01 X65.6000 Y45.3583
G01 X65.5243 Y45.4037
G01 X65.4444 Y45.4415
G01 X65.3613 Y45.4712
G01 X65.2756 Y45.4927
G01 X65.1882 Y45.5057
G01 X65.1000 Y45.5100
G01 X65.0118 Y45.5057
G01 X64.9244 Y45.4927
G01 X64.8387 Y45.4712
G01 X64.7556 Y45.4415
G01 X64.6757 Y45.4037
G01 X64.6000 Y45.3583
G01 X64.5290 Y45.3057
G01 X64.4636 Y45.2464
G01 X64.4043 Y45.1810
G01 X64.3517 Y45.1100
G01 X64.3063 Y45.0343
G01 X64.2685 Y44.9544
G01 X64.2388 Y44.8713
G01 X64.2173 Y44.7856
G01 X64.2043 Y44.6982
G01 X64.2000 Y44.6100
G01 X64.2043 Y44.5218
G01 X64.2173 Y44.4344
G01 X64.2388 Y44.3487
G01 X64.2685 Y44.2656
G01 X64.3063 Y44.1857
G01 X64.3517 Y44.1100
G01 X64.4043 Y44.0390
G01 X64.4636 Y43.9736
G01 X64.5290 Y43.9143
G01 X64.6000 Y43.8617
G01 X64.6757 Y43.8163
G01 X64.7556 Y43.7785
G01 X64.8387 Y43.7488
G01 X64.9244 Y43.7273
G01 X65.0118 Y43.7143
G01 X65.0975 Y43.7101
G00 Z1.0000
G00 X64.4358 Y42.4481
G01 F400.00
G01 Z-0.0400
G01 F2500.00
G01 X64.3897 Y42.4413
G01 X64.3516 Y42.4317
G01 X64.3124 Y42.4176
G01 X64.2747 Y42.3998
G01 X64.2410 Y42.3797
G01 X64.2035 Y42.3519
G01 X64.1745 Y42.3255
G01 X64.1465 Y42.2946
G01 X64.1216 Y42.2611
G01 X64.1014 Y42.2275
G01 X64.0815 Y42.1854
G01 X64.0683 Y42.1484
G01 X64.0579 Y42.1067
G01 X64.0520 Y42.0667
G01 X64.0500 Y42.0250
G01 X64.0500 Y41.2750
G01 X64.0520 Y41.2333
G01 X64.0582 Y41.1921
G01 X64.0683 Y41.1516
G01 X64.0824 Y41.1124
G01 X64.0991 Y41.0768
G01 X64.1230 Y41.0369
G01 X64.1465 Y41.0054
G01 X64.1763 Y40.9728
G01 X64.2054 Y40.9465
G01 X64.2389 Y40.9216
G01 X64.2747 Y40.9002
G01 X64.3101 Y40.8833
G01 X64.3540 Y40.8676
G01 X64.3921 Y40.8582
G01 X64.4346 Y40.8519
G01 X64.4750 Y40.8500
G01 X65.7250 Y40.8500
G01 X65.7667 Y40.8520
G01 X65.8079 Y40.8582
G01 X65.8484 Y40.8683
G01 X65.8876 Y40.8824
G01 X65.9253 Y40.9002
G01 X65.9611 Y40.9216
G01 X65.9946 Y40.9465
G01 X66.0272 Y40.9763
G01 X66.0535 Y41.0054
G01 X66.0784 Y41.0389
G01 X66.0998 Y41.0747
G01 X66.1167 Y41.1101
G01 X66.1324 Y41.1540
G01 X66.1418 Y41.1921
G01 X66.1478 Y41.2321
G01 X66.1500 Y41.2750
G01 X66.1500 Y42.0250
G01 X66.1480 Y42.0667
G01 X66.1418 Y42.1079
G01 X66.1317 Y42.1484
G01 X66.1176 Y42.1876
G01 X66.0998 Y42.2253
G01 X66.0784 Y42.2611
G01 X66.0535 Y42.2946
G01 X66.0237 Y42.3272
G01 X65.9946 Y42.3535
G01 X65.9611 Y42.3784
G01 X65.9253 Y42.3998
G01 X65.8899 Y42.4167
G01 X65.8460 Y42.4324
G01 X65.8079 Y42.4418
G01 X65.7654 Y42.4481
G01 X65.7250 Y42.4500
G01 X64.4750 Y42.4500
G01 X64.4358 Y42.4481
G00 Z1.0000
G00 X66.2512 Y42.0201
G01 F400.00
G01 Z-0.0400
G01 F2500.00
G01 X66.2406 Y42.1276
G01 X66.2107 Y42.2262
G01 X66.1621 Y42.3171
G01 X66.0967 Y42.3967
G01 X66.0171 Y42.4621
G01 X65.9262 Y42.5107
G01 X65.8276 Y42.5406
G01 X65.7201 Y42.5512
G01 X64.4799 Y42.5512
G01 X64.3724 Y42.5406
G01 X64.2738 Y42.5107
G01 X64.1829 Y42.4621
G01 X64.1033 Y42.3967
G01 X64.0379 Y42.3171
G01 X63.9893 Y42.2262
G01 X63.9594 Y42.1276
G01 X63.9488 Y42.0201
G01 X63.9488 Y41.2799
G01 X63.9594 Y41.1724
G01 X63.9893 Y41.0738
G01 X64.0379 Y40.9829
G01 X64.1033 Y40.9033
G01 X64.1829 Y40.8379
G01 X64.2738 Y40.7893
G01 X64.3724 Y40.7594
G01 X64.4799 Y40.7488
G01 X65.7201 Y40.7488
G01 X65.8276 Y40.7594
G01 X65.9262 Y40.7893
G01 X66.0171 Y40.8379
G01 X66.0967 Y40.9033
G01 X66.1621 Y40.9829
G01 X66.2107 Y41.0738
G01 X66.2406 Y41.1724
G01 X66.2512 Y41.2799
G01 X66.2512 Y42.0201
G00 Z1.0000
G00 X66.9996 Y42.8876
G01 F400.00
G01 Z-0.0400
G01 F2500.00
G01 X67.0051 Y42.8314
G01 X67.0251 Y42.7654
G01 X67.0576 Y42.7046
G01 X67.1013 Y42.6513
G01 X67.1118 Y42.6427
G01 X67.1182 Y42.6369
G01 X68.7207 Y41.0343
G01 X68.7281 Y41.0261
G01 X68.7332 Y41.0192
G01 X68.7370 Y41.0129
G01 X68.7424 Y41.0019
G01 X68.7457 Y40.9926
G01 X68.7476 Y40.9855
G01 X68.7496 Y40.9722
G01 X68.7500 Y40.9636
G01 X68.7500 Y40.7456
G01 X68.7495 Y40.7370
G01 X68.7481 Y40.7273
G01 X68.7457 Y40.7178
G01 X68.7424 Y40.7086
G01 X68.7382 Y40.6997
G01 X68.7332 Y40.6913
G01 X68.7273 Y40.6834
G01 X68.7207 Y40.6761
G01 X68.7135 Y40.6695
G01 X68.7066 Y40.6644
G01 X68.6950 Y40.6575
G01 X68.6883 Y40.6544
G01 X68.6790 Y40.6511
G01 X68.6695 Y40.6487
G01 X68.6622 Y40.6476
G01 X68.6488 Y40.6468
G01 X68.6402 Y40.6473
G01 X68.6317 Y40.6485
G01 X68.6186 Y40.6519
G01 X68.6117 Y40.6544
G01 X68.6028 Y40.6586
G01 X68.5944 Y40.6637
G01 X68.5865 Y40.6695
G01 X68.5793 Y40.6761
G01 X68.5743 Y40.6815
G01 X68.5668 Y40.6913
G01 X68.5272 Y40.7506
G01 X68.4506 Y40.8272
G01 X68.3605 Y40.8874
G01 X68.2604 Y40.9288
G01 X68.1542 Y40.9500
G01 X68.0458 Y40.9500
G01 X67.9396 Y40.9288
G01 X67.8395 Y40.8874
G01 X67.7494 Y40.8272
G01 X67.6728 Y40.7506
G01 X67.6126 Y40.6605
G01 X67.5712 Y40.5604
G01 X67.5637 Y40.5229
G01 X67.5616 Y40.5146
G01 X67.5583 Y40.5054
G01 X67.5541 Y40.4965
G01 X67.5490 Y40.4881
G01 X67.5432 Y40.4802
G01 X67.5383 Y40.4747
G01 X66.9420 Y39.8784
G01 X66.9356 Y39.8727
G01 X66.9298 Y39.8682
G01 X66.9193 Y39.8618
G01 X66.9105 Y39.8576
G01 X66.9035 Y39.8551
G01 X66.8917 Y39.8519
G01 X66.8820 Y39.8505
G01 X66.8722 Y39.8500
G01 X66.3232 Y39.8500
G01 X66.3133 Y39.8505
G01 X66.3036 Y39.8519
G01 X66.2941 Y39.8543
G01 X66.2849 Y39.8576
G01 X66.2760 Y39.8618
G01 X66.2697 Y39.8655
G01 X66.2597 Y39.8727
G01 X66.2524 Y39.8793
G01 X66.2474 Y39.8847
G01 X66.2400 Y39.8944
G01 X66.2344 Y39.9039
G01 X66.2299 Y39.9140
G01 X66.2274 Y39.9210
G01 X66.2107 Y39.9762
G01 X66.1621 Y40.0671
G01 X66.0967 Y40.1467
G01 X66.0171 Y40.2121
G01 X65.9262 Y40.2607
G01 X65.8276 Y40.2906
G01 X65.7201 Y40.3012
G01 X64.4799 Y40.3012
G01 X64.3724 Y40.2906
G01 X64.2738 Y40.2607
G01 X64.1829 Y40.2121
G01 X64.1033 Y40.1467
G01 X64.0379 Y40.0671
G01 X63.9893 Y39.9762
G01 X63.9594 Y39.8776
G01 X63.9488 Y39.7701
G01 X63.9488 Y39.0299
G01 X63.9594 Y38.9224
G01 X63.9893 Y38.8238
G01 X64.0379 Y38.7329
G01 X64.1033 Y38.6533
G01 X64.1829 Y38.5879
G01 X64.2738 Y38.5393
G01 X64.3724 Y38.5094
G01 X64.4799 Y38.4988
G01 X65.7201 Y38.4988
G01 X65.8276 Y38.5094
G01 X65.9262 Y38.5393
G01 X66.0171 Y38.5879
G01 X66.0967 Y38.6533
G01 X66.1621 Y38.7329
G01 X66.2107 Y38.8238
G01 X66.2282 Y38.8814
G01 X66.2307 Y38.8883
G01 X66.2338 Y38.8950
G01 X66.2393 Y38.9045
G01 X66.2466 Y38.9144
G01 X66.2524 Y38.9207
G01 X66.2578 Y38.9257
G01 X66.2676 Y38.9332
G01 X66.2771 Y38.9388
G01 X66.2860 Y38.9429
G01 X66.2965 Y38.9464
G01 X66.3036 Y38.9481
G01 X66.3109 Y38.9492
G01 X66.3207 Y38.9500
G01 X66.5500 Y38.9500
G01 X66.5598 Y38.9495
G01 X66.5695 Y38.9481
G01 X66.5802 Y38.9453
G01 X66.5894 Y38.9419
G01 X66.5993 Y38.9370
G01 X66.6076 Y38.9318
G01 X66.6134 Y38.9273
G01 X66.6189 Y38.9224
G01 X66.6265 Y38.9144
G01 X66.6325 Y38.9066
G01 X66.6393 Y38.8950
G01 X66.6424 Y38.8883
G01 X66.6457 Y38.8790
G01 X66.6481 Y38.8695
G01 X66.6492 Y38.8622
G01 X66.6500 Y38.8500
G01 X66.6500 Y36.4956
G01 X66.6495 Y36.4870
G01 X66.6481 Y36.4773
G01 X66.6457 Y36.4678
G01 X66.6424 Y36.4586
G01 X66.6382 Y36.4497
G01 X66.6338 Y36.4423
G01 X66.6126 Y36.4105
G01 X66.5711 Y36.3104
G01 X66.5500 Y36.2042
G01 X66.5500 Y36.0958
G01 X66.5711 Y35.9896
G01 X66.6126 Y35.8895
G01 X66.6728 Y35.7994
G01 X66.7494 Y35.7228
G01 X66.8395 Y35.6626
G01 X66.9396 Y35.6212
G01 X67.0458 Y35.6000
G01 X67.1542 Y35.6000
G01 X67.2604 Y35.6212
G01 X67.3605 Y35.6626
G01 X67.4506 Y35.7228
G01 X67.5272 Y35.7994
G01 X67.5874 Y35.8895
G01 X67.6288 Y35.9896
G01 X67.6500 Y36.0958
G01 X67.6500 Y36.2042
G01 X67.6288 Y36.3104
G01 X67.5874 Y36.4105
G01 X67.5662 Y36.4423
G01 X67.5618 Y36.4497
G01 X67.5576 Y36.4586
G01 X67.5543 Y36.4678
G01 X67.5519 Y36.4773
G01 X67.5504 Y36.4870
G01 X67.5500 Y36.4956
G01 X67.5500 Y39.1722
G01 X67.5504 Y39.1820
G01 X67.5519 Y39.1917
G01 X67.5543 Y39.2012
G01 X67.5576 Y39.2105
G01 X67.5618 Y39.2193
G01 X67.5668 Y39.2277
G01 X67.5727 Y39.2356
G01 X67.5793 Y39.2429
G01 X68.1729 Y39.8366
G01 X68.1793 Y39.8424
G01 X68.1871 Y39.8483
G01 X68.1944 Y39.8528
G01 X68.2065 Y39.8587
G01 X68.2146 Y39.8616
G01 X68.2229 Y39.8637
G01 X68.2604 Y39.8712
G01 X68.3605 Y39.9126
G01 X68.4506 Y39.9728
G01 X68.5272 Y40.0494
G01 X68.5682 Y40.1107
G01 X68.5727 Y40.1166
G01 X68.5784 Y40.1230
G01 X68.5875 Y40.1313
G01 X68.5955 Y40.1370
G01 X68.6050 Y40.1425
G01 X68.6117 Y40.1456
G01 X68.6186 Y40.1481
G01 X68.6281 Y40.1507
G01 X68.6390 Y40.1526
G01 X68.6488 Y40.1532
G01 X68.6598 Y40.1527
G01 X68.6695 Y40.1513
G01 X68.6790 Y40.1489
G01 X68.6860 Y40.1465
G01 X68.6982 Y40.1408
G01 X68.7056 Y40.1363
G01 X68.7125 Y40.1313
G01 X68.7224 Y40.1221
G01 X68.7273 Y40.1166
G01 X68.7332 Y40.1087
G01 X68.7382 Y40.1003
G01 X68.7414 Y40.0937
G01 X68.7461 Y40.0810
G01 X68.7481 Y40.0727
G01 X68.7494 Y40.0642
G01 X68.7500 Y40.0532
G01 X68.7500 Y39.5852
G01 X68.7495 Y39.5766
G01 X68.7481 Y39.5669
G01 X68.7457 Y39.5574
G01 X68.7419 Y39.5470
G01 X68.7382 Y39.5392
G01 X68.7332 Y39.5308
G01 X68.7273 Y39.5229
G01 X68.7207 Y39.5157
G01 X68.1182 Y38.9131
G01 X68.1118 Y38.9073
G01 X68.1013 Y38.8987
G01 X68.0576 Y38.8454
G01 X68.0251 Y38.7846
G01 X68.0051 Y38.7186
G01 X67.9983 Y38.6500
G01 X67.9996 Y38.6365
G01 X68.0000 Y38.6279
G01 X68.0000 Y36.4221
G01 X67.9996 Y36.4135
G01 X67.9983 Y36.4000
G01 X68.0051 Y36.3314
G01 X68.0251 Y36.2654
G01 X68.0576 Y36.2046
G01 X68.0690 Y36.1907
G01 X68.0734 Y36.1847
G01 X68.0803 Y36.1731
G01 X68.0843 Y36.1641
G01 X68.0867 Y36.1572
G01 X68.0885 Y36.1501
G01 X68.0904 Y36.1392
G01 X68.0910 Y36.1294
G01 X68.0902 Y36.1159
G01 X68.0891 Y36.1086
G01 X68.0870 Y36.1003
G01 X68.0838 Y36.0910
G01 X68.0712 Y36.0604
G01 X68.0500 Y35.9542
G01 X68.0500 Y35.8458
G01 X68.0712 Y35.7396
G01 X68.1126 Y35.6395
G01 X68.1728 Y35.5494
G01 X68.2494 Y35.4728
G01 X68.3395 Y35.4126
G01 X68.4396 Y35.3712
G01 X68.5458 Y35.3500
G01 X68.6136 Y35.3500
G01 X68.6234 Y35.3495
G01 X68.6331 Y35.3481
G01 X68.6426 Y35.3457
G01 X68.6519 Y35.3424
G01 X68.6586 Y35.3393
G01 X68.6702 Y35.3325
G01 X68.6771 Y35.3273
G01 X68.6835 Y35.3216
G01 X68.8369 Y35.1682
G01 X68.8427 Y35.1618
G01 X68.8513 Y35.1513
G01 X68.9046 Y35.1076
G01 X68.9654 Y35.0751
G01 X69.0314 Y35.0551
G01 X69.1000 Y35.0483
G01 X69.1135 Y35.0496
G01 X69.1221 Y35.0500
G01 X79.4136 Y35.0500
G01 X79.4234 Y35.0495
G01 X79.4331 Y35.0481
G01 X79.4450 Y35.0449
G01 X79.4519 Y35.0424
G01 X79.4608 Y35.0382
G01 X79.4692 Y35.0332
G01 X79.4751 Y35.0288
G01 X79.4843 Y35.0207
G01 X81.7724 Y32.7326
G01 X81.7773 Y32.7271
G01 X81.7818 Y32.7212
G01 X81.7882 Y32.7108
G01 X81.7924 Y32.7019
G01 X81.7949 Y32.6950
G01 X81.7981 Y32.6831
G01 X81.7995 Y32.6734
G01 X81.8000 Y32.6648
G01 X81.8000 Y32.5958
G01 X81.8212 Y32.4896
G01 X81.8626 Y32.3895
G01 X81.9228 Y32.2994
G01 X81.9994 Y32.2228
G01 X82.0895 Y32.1626
G01 X82.1896 Y32.1212
G01 X82.2958 Y32.1000
G01 X82.4042 Y32.1000
G01 X82.5104 Y32.1212
G01 X82.6105 Y32.1626
G01 X82.7006 Y32.2228
G01 X82.7772 Y32.2994
G01 X82.8374 Y32.3895
G01 X82.8788 Y32.4896
G01 X82.9000 Y32.5958
G01 X82.9000 Y32.7042
G01 X82.8788 Y32.8104
G01 X82.8374 Y32.9105
G01 X82.7772 Y33.0006
G01 X82.7006 Y33.0772
G01 X82.6105 Y33.1374
G01 X82.5104 Y33.1788
G01 X82.4042 Y33.2000
G01 X82.3352 Y33.2000
G01 X82.3266 Y33.2005
G01 X82.3169 Y33.2019
G01 X82.3050 Y33.2051
G01 X82.2981 Y33.2076
G01 X82.2914 Y33.2107
G01 X82.2808 Y33.2168
G01 X82.2720 Y33.2235
G01 X82.2657 Y33.2293
G01 X79.8631 Y35.6318
G01 X79.8573 Y35.6382
G01 X79.8487 Y35.6487
G01 X79.7954 Y35.6924
G01 X79.7346 Y35.7249
G01 X79.6686 Y35.7449
G01 X79.6000 Y35.7517
G01 X79.5865 Y35.7504
G01 X79.5779 Y35.7500
G01 X69.2864 Y35.7500
G01 X69.2778 Y35.7504
G01 X69.2645 Y35.7524
G01 X69.2574 Y35.7543
G01 X69.2481 Y35.7576
G01 X69.2371 Y35.7630
G01 X69.2308 Y35.7668
G01 X69.2239 Y35.7719
G01 X69.2157 Y35.7793
G01 X69.1776 Y35.8174
G01 X69.1727 Y35.8229
G01 X69.1675 Y35.8298
G01 X69.1612 Y35.8403
G01 X69.1576 Y35.8481
G01 X69.1543 Y35.8574
G01 X69.1519 Y35.8669
G01 X69.1505 Y35.8766
G01 X69.1500 Y35.8864
G01 X69.1500 Y35.9542
G01 X69.1288 Y36.0604
G01 X69.0874 Y36.1605
G01 X69.0272 Y36.2506
G01 X68.9506 Y36.3272
G01 X68.8661 Y36.3837
G01 X68.8583 Y36.3896
G01 X68.8497 Y36.3978
G01 X68.8327 Y36.4122
G01 X68.7293 Y36.5157
G01 X68.7235 Y36.5220
G01 X68.7168 Y36.5308
G01 X68.7107 Y36.5414
G01 X68.7076 Y36.5481
G01 X68.7051 Y36.5550
