%
(1001)
(T102  D=3.175 CR=0 - ZMIN=-2.75 - flat end mill)
G90
G17
G21
G28 G91 Z0
G90

(TestHoles 8)
T102 M6
S10000 M3
G54
G0 X90.051 Y18.017
Z15
Z1.25
G1 Z-2.432 F200
G18 G3 X89.734 Z-2.749 I-0.317 K0
G1 X89.575 Z-2.75
G17 G3 X89.258 Y17.7 I0 J-0.317
X91.242 I0.992 J0
X89.258 I-0.992 J0
X89.575 Y17.383 I0.317 J0
G1 X89.734 Y17.382
G18 G2 X90.052 Z-2.433 I0 K0.318
G0 X90.051 Z5
X49.251 Y18.017
Z1.25
G1 Z-2.432 F200
G3 X48.934 Z-2.749 I-0.317 K0
G1 X48.775 Z-2.75
G17 G3 X48.458 Y17.7 I0 J-0.317
X50.442 I0.992 J0
X48.458 I-0.992 J0
X48.775 Y17.383 I0.317 J0
G1 X48.934 Y17.382
G18 G2 X49.252 Z-2.433 I0 K0.318
G0 X49.251 Z5
Y84.217
Z1.25
G1 Z-2.432 F200
G3 X48.934 Z-2.749 I-0.317 K0
G1 X48.775 Z-2.75
G17 G3 X48.458 Y83.9 I0 J-0.317
X50.442 I0.992 J0
X48.458 I-0.992 J0
X48.775 Y83.583 I0.317 J0
G1 X48.934 Y83.582
G18 G2 X49.252 Z-2.433 I0 K0.318
G0 X49.251 Z5
X90.051 Y84.217
Z1.25
G1 Z-2.432 F200
G3 X89.734 Z-2.749 I-0.317 K0
G1 X89.575 Z-2.75
G17 G3 X89.258 Y83.9 I0 J-0.317
X91.242 I0.992 J0
X89.258 I-0.992 J0
X89.575 Y83.583 I0.317 J0
G1 X89.734 Y83.582
G18 G2 X90.052 Z-2.433 I0 K0.318
G0 X90.051 Z15
G17
G28 G91 Z0
G90
G28 G91 X0 Y0
G90
M30
%
