(G-CODE GENERATED BY FLATCAM v8.992 - www.flatcam.org - Version Date: 2020/05/03)

(Name: I2CSensors-F_Cu.gbr_iso_cnc)
(Type: G-code from Geometry)
(Units: MM)

(Created on Sunday, 10 May 2020 at 23:23)

(This preprocessor is the default preprocessor used by FlatCAM.)
(It is made to work with MACH3 compatible motion controllers.)

(TOOL DIAMETER: 0.1 mm)
(Feedrate_XY: 120.0 mm/min)
(Feedrate_Z: 60.0 mm/min)
(Feedrate rapids 1500.0 mm/min)

(Z_Cut: -2.4 mm)
(Z_Move: 2.0 mm)
(Z Start: None mm)
(Z End: 15.0 mm)
(Steps per circle: 64)
(Preprocessor Geometry: default)

(X range:  100.5781 ...  130.2219  mm)
(Y range:  -93.3219 ...  -81.6781  mm)

(Spindle Speed: None RPM)
G21
G90
G94



G01 F120.00
G00 Z2.0000

M03
G00 X100.5781 Y-81.8552
G01 F60.00
G01 Z-2.4000
G01 F120.00
G01 X100.5781 Y-93.1448
G01 X100.5793 Y-93.1646
G01 X100.5815 Y-93.1793
G01 X100.5858 Y-93.1962
G01 X100.5916 Y-93.2126
G01 X100.5979 Y-93.2261
G01 X100.6080 Y-93.2432
G01 X100.6183 Y-93.2571
G01 X100.6283 Y-93.2682
G01 X100.6429 Y-93.2817
G01 X100.6568 Y-93.2920
G01 X100.6696 Y-93.2997
G01 X100.6886 Y-93.3088
G01 X100.7038 Y-93.3142
G01 X100.7207 Y-93.3185
G01 X100.7378 Y-93.3210
G01 X100.7552 Y-93.3219
G01 X130.0448 Y-93.3219
G01 X130.0646 Y-93.3207
G01 X130.0793 Y-93.3185
G01 X130.0962 Y-93.3143
G01 X130.1148 Y-93.3074
G01 X130.1282 Y-93.3010
G01 X130.1431 Y-93.2920
G01 X130.1590 Y-93.2801
G01 X130.1700 Y-93.2700
G01 X130.1816 Y-93.2572
G01 X130.1920 Y-93.2432
G01 X130.1997 Y-93.2304
G01 X130.2088 Y-93.2114
G01 X130.2142 Y-93.1962
G01 X130.2185 Y-93.1794
G01 X130.2210 Y-93.1622
G01 X130.2219 Y-93.1448
G01 X130.2219 Y-81.8552
G01 X130.2207 Y-81.8354
G01 X130.2185 Y-81.8207
G01 X130.2142 Y-81.8038
G01 X130.2074 Y-81.7852
G01 X130.2010 Y-81.7717
G01 X130.1920 Y-81.7568
G01 X130.1817 Y-81.7429
G01 X130.1717 Y-81.7318
G01 X130.1571 Y-81.7183
G01 X130.1432 Y-81.7080
G01 X130.1304 Y-81.7003
G01 X130.1114 Y-81.6912
G01 X130.0962 Y-81.6858
G01 X130.0793 Y-81.6815
G01 X130.0622 Y-81.6790
G01 X130.0448 Y-81.6781
G01 X100.7552 Y-81.6781
G01 X100.7378 Y-81.6790
G01 X100.7207 Y-81.6815
G01 X100.7038 Y-81.6858
G01 X100.6874 Y-81.6916
G01 X100.6717 Y-81.6990
G01 X100.6568 Y-81.7080
G01 X100.6429 Y-81.7183
G01 X100.6300 Y-81.7300
G01 X100.6183 Y-81.7429
G01 X100.6080 Y-81.7568
G01 X100.5990 Y-81.7717
G01 X100.5916 Y-81.7874
G01 X100.5858 Y-81.8038
G01 X100.5815 Y-81.8207
G01 X100.5790 Y-81.8378
G01 X100.5781 Y-81.8552
G00 Z2.0000
G00 X102.3820 Y-86.8080
G01 F60.00
G01 Z-2.4000
G01 F120.00
G01 X102.3820 Y-88.0080
G01 X102.3827 Y-88.0165
G01 X102.3849 Y-88.0248
G01 X102.3873 Y-88.0305
G01 X102.3898 Y-88.0347
G01 X102.3926 Y-88.0388
G01 X102.3966 Y-88.0434
G01 X102.6966 Y-88.3434
G01 X102.7012 Y-88.3474
G01 X102.7063 Y-88.3509
G01 X102.7117 Y-88.3537
G01 X102.7175 Y-88.3558
G01 X102.7235 Y-88.3573
G01 X102.7308 Y-88.3580
G01 X102.9319 Y-88.3580
G01 X102.9319 Y-91.6320
G01 X102.9332 Y-91.6540
G01 X102.9358 Y-91.6710
G01 X102.9402 Y-91.6889
G01 X102.9472 Y-91.7086
G01 X102.9568 Y-91.7284
G01 X102.9656 Y-91.7432
G01 X102.9758 Y-91.7570
G01 X102.9897 Y-91.7726
G01 X103.8594 Y-92.6423
G01 X103.8731 Y-92.6547
G01 X103.8888 Y-92.6664
G01 X103.9057 Y-92.6765
G01 X103.9212 Y-92.6839
G01 X103.9443 Y-92.6921
G01 X103.9610 Y-92.6962
G01 X103.9828 Y-92.6993
G01 X104.0000 Y-92.7001
G01 X108.4000 Y-92.7001
G01 X108.4196 Y-92.6991
G01 X108.4390 Y-92.6962
G01 X108.4581 Y-92.6915
G01 X108.4766 Y-92.6848
G01 X108.4943 Y-92.6765
G01 X108.5112 Y-92.6664
G01 X108.5269 Y-92.6547
G01 X108.5415 Y-92.6415
G01 X109.9925 Y-91.1905
G01 X110.0057 Y-91.1759
G01 X110.0174 Y-91.1602
G01 X110.0275 Y-91.1433
G01 X110.0358 Y-91.1256
G01 X110.0425 Y-91.1071
G01 X110.0472 Y-91.0880
G01 X110.0501 Y-91.0686
G01 X110.0511 Y-91.0490
G01 X110.0511 Y-88.8271
G01 X111.4820 Y-88.8271
G01 X111.4822 Y-89.1319
G01 X111.4835 Y-89.1391
G01 X111.4858 Y-89.1461
G01 X111.4891 Y-89.1527
G01 X111.4933 Y-89.1587
G01 X111.4984 Y-89.1640
G01 X111.5042 Y-89.1686
G01 X111.5106 Y-89.1722
G01 X111.5175 Y-89.1748
G01 X111.5247 Y-89.1765
G01 X111.5320 Y-89.1770
G01 X112.5332 Y-89.1770
G01 X112.5393 Y-89.1765
G01 X112.5441 Y-89.1755
G01 X112.5488 Y-89.1741
G01 X112.5545 Y-89.1717
G01 X112.5598 Y-89.1686
G01 X112.5647 Y-89.1649
G01 X112.5682 Y-89.1615
G01 X112.5722 Y-89.1568
G01 X112.5761 Y-89.1506
G01 X112.5795 Y-89.1427
G01 X112.5813 Y-89.1355
G01 X112.5820 Y-89.1270
G01 X112.5820 Y-88.1258
G01 X112.5810 Y-88.1172
G01 X112.5791 Y-88.1102
G01 X112.5761 Y-88.1034
G01 X112.5714 Y-88.0962
G01 X112.5665 Y-88.0908
G01 X112.5598 Y-88.0854
G01 X112.5534 Y-88.0818
G01 X112.5453 Y-88.0788
G01 X112.5381 Y-88.0774
G01 X112.5320 Y-88.0770
G01 X111.5320 Y-88.0770
G01 X111.5247 Y-88.0775
G01 X111.5163 Y-88.0795
G01 X111.5095 Y-88.0823
G01 X111.5042 Y-88.0854
G01 X111.4984 Y-88.0900
G01 X111.4933 Y-88.0953
G01 X111.4891 Y-88.1013
G01 X111.4858 Y-88.1079
G01 X111.4835 Y-88.1149
G01 X111.4822 Y-88.1221
G01 X111.4820 Y-88.4269
G01 X110.0511 Y-88.4269
G01 X110.0511 Y-84.2319
G01 X111.2829 Y-83.0001
G01 X115.0500 Y-83.0001
G01 X115.0499 Y-83.1500
G01 X114.7988 Y-83.1500
G01 X114.7927 Y-83.1505
G01 X114.7867 Y-83.1518
G01 X114.7809 Y-83.1538
G01 X114.7754 Y-83.1565
G01 X114.7702 Y-83.1598
G01 X114.7646 Y-83.1646
G01 X114.4638 Y-83.4655
G01 X114.4598 Y-83.4702
G01 X114.4559 Y-83.4764
G01 X114.4534 Y-83.4820
G01 X114.4512 Y-83.4890
G01 X114.4504 Y-83.4939
G01 X114.4500 Y-83.5000
G01 X114.4500 Y-85.5000
G01 X114.4505 Y-85.5073
G01 X114.4522 Y-85.5145
G01 X114.4543 Y-85.5203
G01 X114.4578 Y-85.5267
G01 X114.4613 Y-85.5317
G01 X114.4655 Y-85.5362
G01 X114.4702 Y-85.5402
G01 X114.4754 Y-85.5435
G01 X114.4809 Y-85.5462
G01 X114.4867 Y-85.5482
G01 X114.4927 Y-85.5495
G01 X114.4988 Y-85.5500
G01 X115.1378 Y-85.5500
G01 X116.2939 Y-86.7061
G01 X116.3048 Y-86.7160
G01 X116.3166 Y-86.7248
G01 X116.3293 Y-86.7323
G01 X116.3426 Y-86.7386
G01 X116.3564 Y-86.7436
G01 X116.3707 Y-86.7472
G01 X116.3853 Y-86.7493
G01 X116.4000 Y-86.7500
G01 X117.3528 Y-86.7500
G01 X117.9100 Y-87.3072
G01 X117.9100 Y-87.4500
G01 X117.9104 Y-87.4561
G01 X117.9115 Y-87.4621
G01 X117.9138 Y-87.4691
G01 X117.9178 Y-87.4767
G01 X117.9230 Y-87.4836
G01 X117.9292 Y-87.4894
G01 X117.9364 Y-87.4941
G01 X117.9443 Y-87.4975
G01 X117.9527 Y-87.4995
G01 X117.9600 Y-87.5000
G01 X118.1949 Y-87.4998
G01 X118.2010 Y-87.4988
G01 X118.2068 Y-87.4971
G01 X118.2114 Y-87.4952
G01 X118.2167 Y-87.4922
G01 X118.2208 Y-87.4894
G01 X118.2254 Y-87.4854
G01 X118.2294 Y-87.4808
G01 X118.2329 Y-87.4757
G01 X118.2357 Y-87.4703
G01 X118.2378 Y-87.4645
G01 X118.2395 Y-87.4573
G01 X118.2400 Y-87.4512
G01 X118.2400 Y-87.0988
G01 X118.2396 Y-87.0939
G01 X118.2385 Y-87.0879
G01 X118.2352 Y-87.0786
G01 X118.2322 Y-87.0733
G01 X118.2294 Y-87.0692
G01 X118.2262 Y-87.0655
G01 X118.2217 Y-87.0613
G01 X118.2157 Y-87.0571
G01 X118.2091 Y-87.0538
G01 X118.2021 Y-87.0515
G01 X118.1937 Y-87.0501
G01 X118.0772 Y-87.0500
G01 X117.5202 Y-86.4930
G01 X117.5092 Y-86.4832
G01 X117.4963 Y-86.4739
G01 X117.4835 Y-86.4666
G01 X117.4724 Y-86.4614
G01 X117.4609 Y-86.4572
G01 X117.4419 Y-86.4524
G01 X117.4297 Y-86.4507
G01 X117.4150 Y-86.4500
G01 X116.4622 Y-86.4500
G01 X115.5622 Y-85.5500
G01 X115.9049 Y-85.5498
G01 X115.9133 Y-85.5482
G01 X115.9203 Y-85.5457
G01 X115.9267 Y-85.5422
G01 X115.9336 Y-85.5370
G01 X115.9394 Y-85.5308
G01 X115.9435 Y-85.5246
G01 X115.9471 Y-85.5168
G01 X115.9490 Y-85.5098
G01 X115.9500 Y-85.5000
G01 X115.9499 Y-83.4963
G01 X115.9485 Y-83.4879
G01 X115.9457 Y-83.4797
G01 X115.9416 Y-83.4722
G01 X115.9362 Y-83.4655
G01 X115.6354 Y-83.1646
G01 X115.6298 Y-83.1598
G01 X115.6246 Y-83.1565
G01 X115.6191 Y-83.1538
G01 X115.6133 Y-83.1518
G01 X115.6073 Y-83.1505
G01 X115.6012 Y-83.1500
G01 X115.3500 Y-83.1500
G01 X115.3501 Y-83.0001
G01 X119.0500 Y-83.0001
G01 X119.0499 Y-83.1500
G01 X118.7988 Y-83.1500
G01 X118.7927 Y-83.1505
G01 X118.7867 Y-83.1518
G01 X118.7809 Y-83.1538
G01 X118.7754 Y-83.1565
G01 X118.7702 Y-83.1598
G01 X118.7646 Y-83.1646
G01 X118.4638 Y-83.4655
G01 X118.4584 Y-83.4722
G01 X118.4538 Y-83.4809
G01 X118.4512 Y-83.4890
G01 X118.4501 Y-83.4975
G01 X118.4500 Y-85.5000
G01 X118.4505 Y-85.5073
G01 X118.4522 Y-85.5145
G01 X118.4548 Y-85.5214
G01 X118.4584 Y-85.5278
G01 X118.4630 Y-85.5336
G01 X118.4692 Y-85.5394
G01 X118.4754 Y-85.5435
G01 X118.4820 Y-85.5466
G01 X118.4902 Y-85.5490
G01 X118.4975 Y-85.5499
G01 X119.0500 Y-85.5500
G01 X119.0500 Y-85.9378
G01 X118.8289 Y-86.1589
G01 X118.8198 Y-86.1689
G01 X118.8089 Y-86.1837
G01 X118.8027 Y-86.1943
G01 X118.7964 Y-86.2076
G01 X118.7908 Y-86.2238
G01 X118.7878 Y-86.2357
G01 X118.7858 Y-86.2491
G01 X118.7850 Y-86.2650
G01 X118.7849 Y-87.0643
G01 X118.7791 Y-87.0712
G01 X118.7743 Y-87.0797
G01 X118.7715 Y-87.0879
G01 X118.7701 Y-87.0975
G01 X118.7700 Y-87.4512
G01 X118.7712 Y-87.4610
G01 X118.7743 Y-87.4703
G01 X118.7784 Y-87.4778
G01 X118.7846 Y-87.4854
G01 X118.7922 Y-87.4916
G01 X118.8009 Y-87.4962
G01 X118.8102 Y-87.4990
G01 X118.8200 Y-87.5000
G01 X119.0500 Y-87.5000
G01 X119.0561 Y-87.4996
G01 X119.0633 Y-87.4982
G01 X119.0703 Y-87.4957
G01 X119.0767 Y-87.4922
G01 X119.0827 Y-87.4879
G01 X119.0879 Y-87.4827
G01 X119.0922 Y-87.4767
G01 X119.0957 Y-87.4703
G01 X119.0982 Y-87.4633
G01 X119.0996 Y-87.4561
G01 X119.1000 Y-87.4500
G01 X119.1000 Y-87.0988
G01 X119.0988 Y-87.0890
G01 X119.0957 Y-87.0797
G01 X119.0909 Y-87.0712
G01 X119.0850 Y-87.0643
G01 X119.0850 Y-86.3272
G01 X119.3078 Y-86.1043
G01 X119.3175 Y-86.0933
G01 X119.3248 Y-86.0834
G01 X119.3311 Y-86.0729
G01 X119.3381 Y-86.0585
G01 X119.3432 Y-86.0447
G01 X119.3476 Y-86.0269
G01 X119.3493 Y-86.0147
G01 X119.3500 Y-86.0012
G01 X119.3501 Y-85.5500
G01 X119.9037 Y-85.5499
G01 X119.9121 Y-85.5485
G01 X119.9203 Y-85.5457
G01 X119.9278 Y-85.5416
G01 X119.9345 Y-85.5362
G01 X119.9402 Y-85.5298
G01 X119.9447 Y-85.5225
G01 X119.9478 Y-85.5145
G01 X119.9496 Y-85.5061
G01 X119.9500 Y-85.5000
G01 X119.9500 Y-83.5000
G01 X119.9496 Y-83.4939
G01 X119.9485 Y-83.4879
G01 X119.9466 Y-83.4820
G01 X119.9435 Y-83.4754
G01 X119.9402 Y-83.4702
G01 X119.9354 Y-83.4646
G01 X119.6354 Y-83.1646
G01 X119.6298 Y-83.1598
G01 X119.6246 Y-83.1565
G01 X119.6191 Y-83.1538
G01 X119.6133 Y-83.1518
G01 X119.6073 Y-83.1505
G01 X119.6012 Y-83.1500
G01 X119.3500 Y-83.1500
G01 X119.3501 Y-83.0001
G01 X121.0500 Y-83.0001
G01 X121.0499 Y-83.1500
G01 X120.7988 Y-83.1500
G01 X120.7927 Y-83.1505
G01 X120.7855 Y-83.1522
G01 X120.7797 Y-83.1543
G01 X120.7743 Y-83.1571
G01 X120.7692 Y-83.1606
G01 X120.7646 Y-83.1646
G01 X120.4638 Y-83.4655
G01 X120.4584 Y-83.4722
G01 X120.4538 Y-83.4809
G01 X120.4510 Y-83.4902
G01 X120.4500 Y-83.5000
G01 X120.4500 Y-85.5000
G01 X120.4504 Y-85.5061
G01 X120.4515 Y-85.5121
G01 X120.4538 Y-85.5191
G01 X120.4578 Y-85.5267
G01 X120.4621 Y-85.5327
G01 X120.4673 Y-85.5379
G01 X120.4733 Y-85.5422
G01 X120.4809 Y-85.5462
G01 X120.4890 Y-85.5488
G01 X120.4963 Y-85.5499
G01 X121.0500 Y-85.5500
G01 X121.0500 Y-85.8378
G01 X120.9378 Y-85.9500
G01 X120.0031 Y-85.9500
G01 X119.9896 Y-85.9507
G01 X119.9750 Y-85.9528
G01 X119.9607 Y-85.9564
G01 X119.9492 Y-85.9605
G01 X119.9314 Y-85.9689
G01 X119.9209 Y-85.9752
G01 X119.9091 Y-85.9840
G01 X119.8982 Y-85.9939
G01 X119.2589 Y-86.6332
G01 X119.2490 Y-86.6441
G01 X119.2402 Y-86.6559
G01 X119.2327 Y-86.6686
G01 X119.2269 Y-86.6808
G01 X119.2214 Y-86.6957
G01 X119.2178 Y-86.7100
G01 X119.2157 Y-86.7246
G01 X119.2150 Y-86.7381
G01 X119.2149 Y-87.0643
G01 X119.2091 Y-87.0712
G01 X119.2043 Y-87.0797
G01 X119.2012 Y-87.0890
G01 X119.2000 Y-87.0988
G01 X119.2000 Y-87.4512
G01 X119.2012 Y-87.4610
G01 X119.2043 Y-87.4703
G01 X119.2091 Y-87.4788
G01 X119.2150 Y-87.4857
G01 X119.2150 Y-87.5878
G01 X118.6678 Y-88.1350
G01 X118.3157 Y-88.1349
G01 X118.3117 Y-88.1313
G01 X118.3078 Y-88.1284
G01 X118.2991 Y-88.1238
G01 X118.2898 Y-88.1210
G01 X118.2800 Y-88.1200
G01 X117.9288 Y-88.1200
G01 X117.9215 Y-88.1207
G01 X117.9155 Y-88.1222
G01 X117.9086 Y-88.1248
G01 X117.9022 Y-88.1284
G01 X117.8973 Y-88.1321
G01 X117.8938 Y-88.1355
G01 X117.8898 Y-88.1402
G01 X117.8865 Y-88.1454
G01 X117.8838 Y-88.1509
G01 X117.8822 Y-88.1555
G01 X117.8810 Y-88.1602
G01 X117.8801 Y-88.1663
G01 X117.8802 Y-88.4049
G01 X117.8818 Y-88.4133
G01 X117.8853 Y-88.4225
G01 X117.8906 Y-88.4308
G01 X117.8964 Y-88.4370
G01 X117.9043 Y-88.4429
G01 X117.9120 Y-88.4466
G01 X117.9202 Y-88.4490
G01 X117.9300 Y-88.4500
G01 X118.2812 Y-88.4500
G01 X118.2910 Y-88.4488
G01 X118.3003 Y-88.4457
G01 X118.3088 Y-88.4409
G01 X118.3157 Y-88.4350
G01 X118.7312 Y-88.4350
G01 X118.7447 Y-88.4343
G01 X118.7593 Y-88.4322
G01 X118.7736 Y-88.4286
G01 X118.7885 Y-88.4231
G01 X118.8007 Y-88.4173
G01 X118.8134 Y-88.4098
G01 X118.8252 Y-88.4010
G01 X118.8361 Y-88.3911
G01 X119.4720 Y-87.7552
G01 X119.4810 Y-87.7452
G01 X119.4883 Y-87.7354
G01 X119.4973 Y-87.7207
G01 X119.5036 Y-87.7074
G01 X119.5078 Y-87.6959
G01 X119.5122 Y-87.6793
G01 X119.5143 Y-87.6647
G01 X119.5150 Y-87.6512
G01 X119.5151 Y-87.4857
G01 X119.5209 Y-87.4788
G01 X119.5257 Y-87.4703
G01 X119.5285 Y-87.4621
G01 X119.5299 Y-87.4525
G01 X119.5300 Y-87.0988
G01 X119.5288 Y-87.0890
G01 X119.5257 Y-87.0797
G01 X119.5209 Y-87.0712
G01 X119.5150 Y-87.0643
G01 X119.5150 Y-86.8015
G01 X120.0665 Y-86.2500
G01 X121.0000 Y-86.2500
G01 X121.0147 Y-86.2493
G01 X121.0293 Y-86.2472
G01 X121.0436 Y-86.2436
G01 X121.0563 Y-86.2391
G01 X121.0707 Y-86.2323
G01 X121.0834 Y-86.2248
G01 X121.0952 Y-86.2160
G01 X121.1061 Y-86.2061
G01 X121.3070 Y-86.0052
G01 X121.3160 Y-85.9952
G01 X121.3248 Y-85.9834
G01 X121.3323 Y-85.9707
G01 X121.3386 Y-85.9574
G01 X121.3436 Y-85.9436
G01 X121.3472 Y-85.9293
G01 X121.3493 Y-85.9147
G01 X121.3500 Y-85.9012
G01 X121.3501 Y-85.5500
G01 X121.9025 Y-85.5499
G01 X121.9085 Y-85.5493
G01 X121.9145 Y-85.5478
G01 X121.9203 Y-85.5457
G01 X121.9257 Y-85.5429
G01 X121.9298 Y-85.5402
G01 X121.9345 Y-85.5362
G01 X121.9387 Y-85.5317
G01 X121.9422 Y-85.5267
G01 X121.9457 Y-85.5203
G01 X121.9478 Y-85.5145
G01 X121.9495 Y-85.5073
G01 X121.9500 Y-85.5000
G01 X121.9500 Y-83.5000
G01 X121.9498 Y-83.4951
G01 X121.9488 Y-83.4890
G01 X121.9466 Y-83.4820
G01 X121.9441 Y-83.4764
G01 X121.9402 Y-83.4702
G01 X121.9362 Y-83.4655
G01 X121.6354 Y-83.1646
G01 X121.6298 Y-83.1598
G01 X121.6246 Y-83.1565
G01 X121.6191 Y-83.1538
G01 X121.6133 Y-83.1518
G01 X121.6073 Y-83.1505
G01 X121.6012 Y-83.1500
G01 X121.3500 Y-83.1500
G01 X121.3501 Y-83.0001
G01 X124.5171 Y-83.0001
G01 X125.6999 Y-84.1829
G01 X125.6999 Y-86.0269
G01 X125.6888 Y-86.0336
G01 X125.6740 Y-86.0446
G01 X125.6585 Y-86.0585
G01 X124.6664 Y-87.0506
G01 X124.6577 Y-87.0506
G01 X124.6500 Y-87.0500
G01 X124.1500 Y-87.0500
G01 X124.1423 Y-87.0506
G01 X124.1218 Y-87.0507
G01 X124.0669 Y-87.0564
G01 X124.0164 Y-87.0665
G01 X123.9647 Y-87.0822
G01 X123.9148 Y-87.1028
G01 X123.8694 Y-87.1270
G01 X123.8204 Y-87.1597
G01 X123.7806 Y-87.1925
G01 X123.7433 Y-87.2297
G01 X123.7068 Y-87.2744
G01 X123.6782 Y-87.3172
G01 X123.6528 Y-87.3648
G01 X123.6322 Y-87.4147
G01 X123.6171 Y-87.4640
G01 X123.6060 Y-87.5193
G01 X123.6007 Y-87.5718
G01 X123.6006 Y-87.5923
G01 X123.6000 Y-87.6000
G01 X123.6000 Y-88.1500
G01 X123.6005 Y-88.1573
G01 X123.6022 Y-88.1645
G01 X123.6048 Y-88.1714
G01 X123.6091 Y-88.1788
G01 X123.6130 Y-88.1836
G01 X123.6173 Y-88.1879
G01 X123.6212 Y-88.1909
G01 X123.6264 Y-88.1941
G01 X123.6320 Y-88.1966
G01 X123.6379 Y-88.1985
G01 X123.6439 Y-88.1996
G01 X123.6500 Y-88.2000
G01 X125.1500 Y-88.2000
G01 X125.1585 Y-88.1993
G01 X125.1657 Y-88.1975
G01 X125.1736 Y-88.1941
G01 X125.1808 Y-88.1894
G01 X125.1845 Y-88.1862
G01 X125.1887 Y-88.1817
G01 X125.1922 Y-88.1767
G01 X125.1947 Y-88.1725
G01 X125.1966 Y-88.1680
G01 X125.1985 Y-88.1621
G01 X125.1996 Y-88.1561
G01 X125.2000 Y-88.1512
G01 X125.2000 Y-87.6000
G01 X125.1994 Y-87.5923
G01 X125.1993 Y-87.5718
G01 X125.1942 Y-87.5205
G01 X125.1829 Y-87.4640
G01 X125.1678 Y-87.4147
G01 X125.1472 Y-87.3648
G01 X125.1218 Y-87.3172
G01 X125.0932 Y-87.2744
G01 X125.0591 Y-87.2325
G01 X125.0550 Y-87.2280
G01 X125.8500 Y-86.4329
G01 X126.6450 Y-87.2280
G01 X126.6409 Y-87.2325
G01 X126.6068 Y-87.2744
G01 X126.5782 Y-87.3172
G01 X126.5528 Y-87.3648
G01 X126.5322 Y-87.4147
G01 X126.5171 Y-87.4640
G01 X126.5058 Y-87.5205
G01 X126.5007 Y-87.5718
G01 X126.5006 Y-87.5923
G01 X126.5000 Y-87.6000
G01 X126.5000 Y-88.1512
G01 X126.5005 Y-88.1573
G01 X126.5015 Y-88.1621
G01 X126.5034 Y-88.1680
G01 X126.5053 Y-88.1725
G01 X126.5078 Y-88.1767
G01 X126.5113 Y-88.1817
G01 X126.5155 Y-88.1862
G01 X126.5192 Y-88.1894
G01 X126.5264 Y-88.1941
G01 X126.5343 Y-88.1975
G01 X126.5427 Y-88.1995
G01 X126.5500 Y-88.2000
G01 X128.0512 Y-88.2000
G01 X128.0610 Y-88.1988
G01 X128.0703 Y-88.1957
G01 X128.0778 Y-88.1916
G01 X128.0854 Y-88.1854
G01 X128.0909 Y-88.1788
G01 X128.0957 Y-88.1703
G01 X128.0985 Y-88.1621
G01 X128.0999 Y-88.1525
G01 X128.1000 Y-87.6000
G01 X128.0994 Y-87.5923
G01 X128.0993 Y-87.5718
G01 X128.0940 Y-87.5193
G01 X128.0829 Y-87.4640
G01 X128.0678 Y-87.4147
G01 X128.0472 Y-87.3648
G01 X128.0218 Y-87.3172
G01 X127.9932 Y-87.2744
G01 X127.9558 Y-87.2289
G01 X127.9194 Y-87.1925
G01 X127.8776 Y-87.1582
G01 X127.8328 Y-87.1282
G01 X127.7873 Y-87.1039
G01 X127.7330 Y-87.0814
G01 X127.6836 Y-87.0665
G01 X127.6331 Y-87.0564
G01 X127.5782 Y-87.0507
G01 X127.5577 Y-87.0506
G01 X127.5500 Y-87.0500
G01 X127.0500 Y-87.0500
G01 X127.0423 Y-87.0506
G01 X127.0336 Y-87.0506
G01 X126.1001 Y-86.1171
G01 X126.1001 Y-84.1000
G01 X126.0991 Y-84.0804
G01 X126.0962 Y-84.0610
G01 X126.0915 Y-84.0419
G01 X126.0848 Y-84.0234
G01 X126.0765 Y-84.0057
G01 X126.0664 Y-83.9888
G01 X126.0547 Y-83.9731
G01 X126.0415 Y-83.9585
G01 X124.7415 Y-82.6585
G01 X124.7269 Y-82.6453
G01 X124.7091 Y-82.6323
G01 X124.6943 Y-82.6235
G01 X124.6788 Y-82.6161
G01 X124.6592 Y-82.6089
G01 X124.6366 Y-82.6033
G01 X124.6196 Y-82.6009
G01 X124.6000 Y-82.5999
G01 X111.2000 Y-82.5999
G01 X111.1804 Y-82.6009
G01 X111.1622 Y-82.6035
G01 X111.1396 Y-82.6093
G01 X111.1234 Y-82.6152
G01 X111.1057 Y-82.6235
G01 X111.0868 Y-82.6351
G01 X111.0731 Y-82.6453
G01 X111.0594 Y-82.6577
G01 X109.7095 Y-84.0075
G01 X109.6948 Y-84.0240
G01 X109.6846 Y-84.0378
G01 X109.6745 Y-84.0547
G01 X109.6662 Y-84.0724
G01 X109.6589 Y-84.0933
G01 X109.6548 Y-84.1100
G01 X109.6522 Y-84.1270
G01 X109.6509 Y-84.1478
G01 X109.6509 Y-85.8061
G01 X109.2491 Y-86.2079
G01 X109.0820 Y-86.2079
G01 X109.0820 Y-86.0080
G01 X109.0813 Y-85.9995
G01 X109.0791 Y-85.9912
G01 X109.0761 Y-85.9844
G01 X109.0722 Y-85.9782
G01 X109.0665 Y-85.9718
G01 X109.0598 Y-85.9664
G01 X109.0534 Y-85.9628
G01 X109.0465 Y-85.9602
G01 X109.0381 Y-85.9584
G01 X109.0320 Y-85.9580
G01 X107.6308 Y-85.9580
G01 X107.6222 Y-85.9590
G01 X107.6140 Y-85.9614
G01 X107.6063 Y-85.9651
G01 X107.5993 Y-85.9701
G01 X107.5933 Y-85.9763
G01 X107.5885 Y-85.9834
G01 X107.5849 Y-85.9912
G01 X107.5827 Y-85.9995
G01 X107.5820 Y-86.0080
G01 X107.5820 Y-88.0080
G01 X107.5825 Y-88.0153
G01 X107.5842 Y-88.0225
G01 X107.5873 Y-88.0305
G01 X107.5918 Y-88.0378
G01 X107.5966 Y-88.0434
G01 X107.8975 Y-88.3442
G01 X107.9032 Y-88.3489
G01 X107.9095 Y-88.3527
G01 X107.9163 Y-88.3555
G01 X107.9235 Y-88.3573
G01 X107.9320 Y-88.3580
G01 X108.7320 Y-88.3580
G01 X108.7393 Y-88.3575
G01 X108.7453 Y-88.3562
G01 X108.7511 Y-88.3542
G01 X108.7566 Y-88.3515
G01 X108.7618 Y-88.3482
G01 X108.7665 Y-88.3442
G01 X109.0699 Y-88.0407
G01 X109.0749 Y-88.0337
G01 X109.0786 Y-88.0260
G01 X109.0813 Y-88.0165
G01 X109.0820 Y-88.0080
G01 X109.0820 Y-86.6081
G01 X109.3345 Y-86.6080
G01 X109.3516 Y-86.6071
G01 X109.3710 Y-86.6042
G01 X109.3901 Y-86.5995
G01 X109.4086 Y-86.5928
G01 X109.4263 Y-86.5845
G01 X109.4432 Y-86.5744
G01 X109.4589 Y-86.5627
G01 X109.4717 Y-86.5512
G01 X109.6509 Y-86.3720
G01 X109.6509 Y-90.9661
G01 X108.3171 Y-92.2999
G01 X107.7001 Y-92.2999
G01 X107.7001 Y-91.6618
G01 X107.7352 Y-91.6472
G01 X107.7806 Y-91.6230
G01 X107.8276 Y-91.5918
G01 X107.8711 Y-91.5558
G01 X107.9075 Y-91.5194
G01 X107.9410 Y-91.4786
G01 X107.9718 Y-91.4328
G01 X107.9982 Y-91.3829
G01 X108.0178 Y-91.3353
G01 X108.0329 Y-91.2860
G01 X108.0439 Y-91.2319
G01 X108.0493 Y-91.1782
G01 X108.0494 Y-91.1577
G01 X108.0500 Y-91.1500
G01 X108.0500 Y-90.6500
G01 X108.0494 Y-90.6423
G01 X108.0494 Y-90.6242
G01 X108.0436 Y-90.5669
G01 X108.0335 Y-90.5164
G01 X108.0178 Y-90.4647
G01 X107.9972 Y-90.4148
G01 X107.9704 Y-90.3652
G01 X107.9403 Y-90.3204
G01 X107.9075 Y-90.2806
G01 X107.8711 Y-90.2442
G01 X107.8276 Y-90.2082
G01 X107.7828 Y-90.1782
G01 X107.7352 Y-90.1528
G01 X107.6841 Y-90.1318
G01 X107.6336 Y-90.1165
G01 X107.5831 Y-90.1064
G01 X107.5270 Y-90.1007
G01 X107.5077 Y-90.1006
G01 X107.5000 Y-90.1000
G01 X106.9500 Y-90.1000
G01 X106.9439 Y-90.1004
G01 X106.9379 Y-90.1015
G01 X106.9297 Y-90.1043
G01 X106.9233 Y-90.1078
G01 X106.9164 Y-90.1130
G01 X106.9113 Y-90.1183
G01 X106.9071 Y-90.1243
G01 X106.9034 Y-90.1320
G01 X106.9010 Y-90.1402
G01 X106.9000 Y-90.1488
G01 X106.9000 Y-91.6500
G01 X106.9007 Y-91.6585
G01 X106.9025 Y-91.6657
G01 X106.9059 Y-91.6736
G01 X106.9106 Y-91.6808
G01 X106.9155 Y-91.6862
G01 X106.9212 Y-91.6909
G01 X106.9286 Y-91.6952
G01 X106.9367 Y-91.6982
G01 X106.9451 Y-91.6998
G01 X107.2999 Y-91.7000
G01 X107.2999 Y-92.2999
G01 X104.0829 Y-92.2999
G01 X103.3321 Y-91.5491
G01 X103.3321 Y-88.3580
G01 X103.5332 Y-88.3580
G01 X103.5393 Y-88.3575
G01 X103.5453 Y-88.3562
G01 X103.5523 Y-88.3537
G01 X103.5577 Y-88.3509
G01 X103.5628 Y-88.3474
G01 X103.5674 Y-88.3434
G01 X103.8674 Y-88.0434
G01 X103.8736 Y-88.0358
G01 X103.8782 Y-88.0271
G01 X103.8810 Y-88.0178
G01 X103.8820 Y-88.0080
G01 X103.8820 Y-87.0702
G01 X104.5500 Y-87.7382
G01 X104.5499 Y-88.0930
G01 X104.5238 Y-88.0930
G01 X104.5177 Y-88.0935
G01 X104.5082 Y-88.0959
G01 X104.5025 Y-88.0983
G01 X104.4983 Y-88.1008
G01 X104.4933 Y-88.1043
G01 X104.4896 Y-88.1076
G01 X104.4856 Y-88.1122
G01 X104.4821 Y-88.1173
G01 X104.4793 Y-88.1227
G01 X104.4772 Y-88.1285
G01 X104.4757 Y-88.1345
G01 X104.4751 Y-88.1405
G01 X104.4751 Y-88.6467
G01 X104.4762 Y-88.6540
G01 X104.4788 Y-88.6621
G01 X104.4828 Y-88.6697
G01 X104.4871 Y-88.6757
G01 X104.4923 Y-88.6809
G01 X104.4983 Y-88.6852
G01 X104.5047 Y-88.6887
G01 X104.5129 Y-88.6915
G01 X104.5189 Y-88.6926
G01 X104.5250 Y-88.6930
G01 X104.8775 Y-88.6929
G01 X104.8835 Y-88.6923
G01 X104.8895 Y-88.6908
G01 X104.8953 Y-88.6887
G01 X104.9017 Y-88.6852
G01 X104.9067 Y-88.6817
G01 X104.9112 Y-88.6775
G01 X104.9152 Y-88.6728
G01 X104.9185 Y-88.6676
G01 X104.9212 Y-88.6621
G01 X104.9232 Y-88.6563
G01 X104.9246 Y-88.6491
G01 X104.9250 Y-88.6430
G01 X104.9249 Y-88.1393
G01 X104.9240 Y-88.1332
G01 X104.9225 Y-88.1273
G01 X104.9207 Y-88.1227
G01 X104.9179 Y-88.1173
G01 X104.9144 Y-88.1122
G01 X104.9112 Y-88.1085
G01 X104.9067 Y-88.1043
G01 X104.9017 Y-88.1008
G01 X104.8930 Y-88.0964
G01 X104.8871 Y-88.0945
G01 X104.8823 Y-88.0935
G01 X104.8762 Y-88.0930
G01 X104.8500 Y-88.0930
G01 X104.8500 Y-87.7382
G01 X105.3500 Y-87.2382
G01 X105.8500 Y-87.7382
G01 X105.8499 Y-88.0930
G01 X105.8238 Y-88.0930
G01 X105.8177 Y-88.0935
G01 X105.8082 Y-88.0959
G01 X105.8025 Y-88.0983
G01 X105.7983 Y-88.1008
G01 X105.7933 Y-88.1043
G01 X105.7896 Y-88.1076
G01 X105.7856 Y-88.1122
G01 X105.7821 Y-88.1173
G01 X105.7798 Y-88.1216
G01 X105.7775 Y-88.1273
G01 X105.7760 Y-88.1332
G01 X105.7751 Y-88.1393
G01 X105.7750 Y-88.6442
G01 X105.7755 Y-88.6503
G01 X105.7768 Y-88.6563
G01 X105.7793 Y-88.6633
G01 X105.7821 Y-88.6687
G01 X105.7856 Y-88.6738
G01 X105.7896 Y-88.6784
G01 X105.7942 Y-88.6824
G01 X105.7993 Y-88.6859
G01 X105.8047 Y-88.6887
G01 X105.8105 Y-88.6908
G01 X105.8165 Y-88.6923
G01 X105.8225 Y-88.6929
G01 X106.1762 Y-88.6930
G01 X106.1835 Y-88.6923
G01 X106.1895 Y-88.6908
G01 X106.1953 Y-88.6887
G01 X106.2017 Y-88.6852
G01 X106.2067 Y-88.6817
G01 X106.2112 Y-88.6775
G01 X106.2144 Y-88.6738
G01 X106.2179 Y-88.6687
G01 X106.2207 Y-88.6633
G01 X106.2228 Y-88.6575
G01 X106.2243 Y-88.6515
G01 X106.2249 Y-88.6455
G01 X106.2249 Y-88.1405
G01 X106.2243 Y-88.1345
G01 X106.2228 Y-88.1285
G01 X106.2207 Y-88.1227
G01 X106.2179 Y-88.1173
G01 X106.2144 Y-88.1122
G01 X106.2112 Y-88.1085
G01 X106.2067 Y-88.1043
G01 X106.2017 Y-88.1008
G01 X106.1930 Y-88.0964
G01 X106.1871 Y-88.0945
G01 X106.1823 Y-88.0935
G01 X106.1762 Y-88.0930
G01 X106.1500 Y-88.0930
G01 X106.1500 Y-87.6748
G01 X106.1493 Y-87.6613
G01 X106.1476 Y-87.6491
G01 X106.1436 Y-87.6324
G01 X106.1386 Y-87.6186
G01 X106.1311 Y-87.6031
G01 X106.1248 Y-87.5926
G01 X106.1175 Y-87.5827
G01 X106.1070 Y-87.5708
G01 X105.5000 Y-86.9638
G01 X105.5001 Y-86.6430
G01 X105.5262 Y-86.6430
G01 X105.5323 Y-86.6425
G01 X105.5418 Y-86.6401
G01 X105.5475 Y-86.6377
G01 X105.5517 Y-86.6352
G01 X105.5567 Y-86.6317
G01 X105.5604 Y-86.6284
G01 X105.5644 Y-86.6238
G01 X105.5679 Y-86.6187
G01 X105.5707 Y-86.6133
G01 X105.5728 Y-86.6075
G01 X105.5743 Y-86.6015
G01 X105.5749 Y-86.5955
G01 X105.5749 Y-86.0893
G01 X105.5738 Y-86.0820
G01 X105.5712 Y-86.0739
G01 X105.5672 Y-86.0663
G01 X105.5629 Y-86.0603
G01 X105.5567 Y-86.0543
G01 X105.5507 Y-86.0501
G01 X105.5430 Y-86.0464
G01 X105.5360 Y-86.0442
G01 X105.5299 Y-86.0432
G01 X105.5250 Y-86.0430
G01 X105.1725 Y-86.0431
G01 X105.1665 Y-86.0437
G01 X105.1605 Y-86.0452
G01 X105.1547 Y-86.0473
G01 X105.1493 Y-86.0501
G01 X105.1442 Y-86.0536
G01 X105.1396 Y-86.0576
G01 X105.1356 Y-86.0622
G01 X105.1321 Y-86.0673
G01 X105.1293 Y-86.0727
G01 X105.1268 Y-86.0797
G01 X105.1255 Y-86.0857
G01 X105.1250 Y-86.0918
G01 X105.1251 Y-86.5967
G01 X105.1260 Y-86.6028
G01 X105.1275 Y-86.6087
G01 X105.1293 Y-86.6133
G01 X105.1321 Y-86.6187
G01 X105.1356 Y-86.6238
G01 X105.1388 Y-86.6275
G01 X105.1433 Y-86.6317
G01 X105.1483 Y-86.6352
G01 X105.1570 Y-86.6396
G01 X105.1629 Y-86.6415
G01 X105.1677 Y-86.6425
G01 X105.1738 Y-86.6430
G01 X105.2000 Y-86.6430
G01 X105.2000 Y-86.9638
G01 X104.7000 Y-87.4638
G01 X103.8820 Y-86.6458
G01 X103.8819 Y-86.0055
G01 X103.8810 Y-85.9982
G01 X103.8786 Y-85.9900
G01 X103.8755 Y-85.9834
G01 X103.8707 Y-85.9763
G01 X103.8656 Y-85.9710
G01 X103.8598 Y-85.9664
G01 X103.8534 Y-85.9628
G01 X103.8453 Y-85.9598
G01 X103.8381 Y-85.9584
G01 X103.8320 Y-85.9580
G01 X102.4320 Y-85.9580
G01 X102.4259 Y-85.9584
G01 X102.4199 Y-85.9595
G01 X102.4140 Y-85.9614
G01 X102.4074 Y-85.9645
G01 X102.4012 Y-85.9686
G01 X102.3966 Y-85.9726
G01 X102.3926 Y-85.9772
G01 X102.3891 Y-85.9823
G01 X102.3863 Y-85.9877
G01 X102.3842 Y-85.9935
G01 X102.3827 Y-85.9995
G01 X102.3820 Y-86.0068
G01 X102.3820 Y-86.8080
G00 Z2.0000
G00 X103.5893 Y-88.4492
G01 F60.00
G01 Z-2.4000
G01 F120.00
G01 X103.5610 Y-88.4576
G01 X103.5469 Y-88.4625
G01 X103.5278 Y-88.4714
G01 X103.5140 Y-88.4797
G01 X103.5000 Y-88.4901
G01 X103.4871 Y-88.5018
G01 X103.4762 Y-88.5137
G01 X103.4650 Y-88.5286
G01 X103.4573 Y-88.5414
G01 X103.4478 Y-88.5615
G01 X103.4428 Y-88.5756
G01 X103.4385 Y-88.5925
G01 X103.4360 Y-88.6097
G01 X103.4352 Y-88.6258
G01 X103.4352 Y-91.4343
G01 X103.4360 Y-91.4505
G01 X103.4385 Y-91.4676
G01 X103.4428 Y-91.4845
G01 X103.4486 Y-91.5009
G01 X103.4560 Y-91.5166
G01 X103.4650 Y-91.5315
G01 X103.4753 Y-91.5454
G01 X103.4861 Y-91.5574
G01 X104.0746 Y-92.1459
G01 X104.0866 Y-92.1567
G01 X104.0985 Y-92.1656
G01 X104.1154 Y-92.1760
G01 X104.1311 Y-92.1834
G01 X104.1452 Y-92.1885
G01 X104.1668 Y-92.1939
G01 X104.1815 Y-92.1960
G01 X104.1989 Y-92.1969
G01 X107.0210 Y-92.1968
G01 X107.0372 Y-92.1960
G01 X107.0543 Y-92.1935
G01 X107.0712 Y-92.1892
G01 X107.0876 Y-92.1834
G01 X107.1033 Y-92.1760
G01 X107.1182 Y-92.1670
G01 X107.1321 Y-92.1567
G01 X107.1441 Y-92.1459
G01 X107.1582 Y-92.1302
G01 X107.1670 Y-92.1182
G01 X107.1760 Y-92.1033
G01 X107.1843 Y-92.0853
G01 X107.1892 Y-92.0712
G01 X107.1932 Y-92.0555
G01 X107.1960 Y-92.0372
G01 X107.1968 Y-92.0223
G01 X107.1968 Y-91.9806
G01 X107.1957 Y-91.9620
G01 X107.1935 Y-91.9473
G01 X107.1899 Y-91.9328
G01 X107.1829 Y-91.9129
G01 X107.1760 Y-91.8983
G01 X107.1683 Y-91.8855
G01 X107.1567 Y-91.8695
G01 X107.1432 Y-91.8549
G01 X107.1321 Y-91.8449
G01 X107.1202 Y-91.8360
G01 X107.1033 Y-91.8256
G01 X107.0853 Y-91.8173
G01 X107.0712 Y-91.8124
G01 X107.0555 Y-91.8084
G01 X107.0347 Y-91.8054
G01 X107.0198 Y-91.8047
G01 X106.9587 Y-91.8047
G01 X106.9200 Y-91.8009
G01 X106.8764 Y-91.7877
G01 X106.8607 Y-91.7837
G01 X106.8424 Y-91.7809
G01 X106.8250 Y-91.7801
G01 X106.8076 Y-91.7809
G01 X106.7893 Y-91.7837
G01 X106.7736 Y-91.7877
G01 X106.7300 Y-91.8009
G01 X106.6913 Y-91.8047
G01 X105.7087 Y-91.8047
G01 X105.6700 Y-91.8009
G01 X105.6411 Y-91.7922
G01 X105.6145 Y-91.7779
G01 X105.5912 Y-91.7588
G01 X105.5721 Y-91.7355
G01 X105.5578 Y-91.7089
G01 X105.5491 Y-91.6800
G01 X105.5453 Y-91.6413
G01 X105.5453 Y-91.5290
G01 X105.5444 Y-91.5128
G01 X105.5419 Y-91.4957
G01 X105.5369 Y-91.4765
G01 X105.5318 Y-91.4624
G01 X105.5249 Y-91.4478
G01 X105.5147 Y-91.4308
G01 X105.5058 Y-91.4188
G01 X105.5000 Y-91.4122
G01 X105.5000 Y-91.2500
G01 X105.6500 Y-91.2500
G01 X105.6502 Y-91.6549
G01 X105.6515 Y-91.6621
G01 X105.6543 Y-91.6703
G01 X105.6578 Y-91.6767
G01 X105.6630 Y-91.6836
G01 X105.6692 Y-91.6894
G01 X105.6754 Y-91.6935
G01 X105.6832 Y-91.6971
G01 X105.6902 Y-91.6990
G01 X105.7000 Y-91.7000
G01 X106.7012 Y-91.7000
G01 X106.7085 Y-91.6993
G01 X106.7157 Y-91.6975
G01 X106.7225 Y-91.6947
G01 X106.7288 Y-91.6909
G01 X106.7345 Y-91.6862
G01 X106.7394 Y-91.6808
G01 X106.7435 Y-91.6746
G01 X106.7462 Y-91.6691
G01 X106.7490 Y-91.6598
G01 X106.7500 Y-91.6500
G01 X106.7500 Y-90.1500
G01 X106.7490 Y-90.1402
G01 X106.7466 Y-90.1320
G01 X106.7435 Y-90.1254
G01 X106.7394 Y-90.1192
G01 X106.7336 Y-90.1130
G01 X106.7278 Y-90.1084
G01 X106.7203 Y-90.1043
G01 X106.7133 Y-90.1018
G01 X106.7049 Y-90.1002
G01 X106.3500 Y-90.1000
G01 X106.3500 Y-89.6622
G01 X106.7570 Y-89.2552
G01 X106.7668 Y-89.2442
G01 X106.7761 Y-89.2313
G01 X106.7823 Y-89.2207
G01 X106.7876 Y-89.2097
G01 X106.7932 Y-89.1947
G01 X106.7976 Y-89.1769
G01 X106.7993 Y-89.1647
G01 X106.8000 Y-89.1512
G01 X106.8001 Y-88.6930
G01 X106.8262 Y-88.6930
G01 X106.8323 Y-88.6925
G01 X106.8418 Y-88.6901
G01 X106.8475 Y-88.6877
G01 X106.8517 Y-88.6852
G01 X106.8567 Y-88.6817
G01 X106.8604 Y-88.6784
G01 X106.8644 Y-88.6738
G01 X106.8679 Y-88.6687
G01 X106.8702 Y-88.6644
G01 X106.8725 Y-88.6587
G01 X106.8740 Y-88.6528
G01 X106.8749 Y-88.6467
G01 X106.8750 Y-88.1418
G01 X106.8738 Y-88.1320
G01 X106.8712 Y-88.1239
G01 X106.8666 Y-88.1152
G01 X106.8612 Y-88.1085
G01 X106.8538 Y-88.1021
G01 X106.8453 Y-88.0973
G01 X106.8371 Y-88.0945
G01 X106.8275 Y-88.0931
G01 X106.4738 Y-88.0930
G01 X106.4665 Y-88.0937
G01 X106.4605 Y-88.0952
G01 X106.4547 Y-88.0973
G01 X106.4483 Y-88.1008
G01 X106.4423 Y-88.1051
G01 X106.4380 Y-88.1094
G01 X106.4341 Y-88.1142
G01 X106.4303 Y-88.1205
G01 X106.4279 Y-88.1262
G01 X106.4262 Y-88.1320
G01 X106.4252 Y-88.1381
G01 X106.4250 Y-88.1430
G01 X106.4251 Y-88.6467
G01 X106.4260 Y-88.6528
G01 X106.4275 Y-88.6587
G01 X106.4293 Y-88.6633
G01 X106.4321 Y-88.6687
G01 X106.4356 Y-88.6738
G01 X106.4388 Y-88.6775
G01 X106.4433 Y-88.6817
G01 X106.4483 Y-88.6852
G01 X106.4570 Y-88.6896
G01 X106.4629 Y-88.6915
G01 X106.4677 Y-88.6925
G01 X106.4738 Y-88.6930
G01 X106.5000 Y-88.6930
G01 X106.5000 Y-89.0878
G01 X106.0930 Y-89.4948
G01 X106.0840 Y-89.5048
G01 X106.0752 Y-89.5166
G01 X106.0677 Y-89.5293
G01 X106.0619 Y-89.5415
G01 X106.0564 Y-89.5564
G01 X106.0528 Y-89.5707
G01 X106.0507 Y-89.5853
G01 X106.0500 Y-89.5988
G01 X106.0499 Y-90.1000
G01 X105.6963 Y-90.1001
G01 X105.6902 Y-90.1010
G01 X105.6843 Y-90.1025
G01 X105.6786 Y-90.1048
G01 X105.6733 Y-90.1078
G01 X105.6683 Y-90.1113
G01 X105.6638 Y-90.1155
G01 X105.6598 Y-90.1202
G01 X105.6565 Y-90.1254
G01 X105.6538 Y-90.1309
G01 X105.6518 Y-90.1367
G01 X105.6505 Y-90.1427
G01 X105.6500 Y-90.1488
G01 X105.6500 Y-90.5500
G01 X105.5000 Y-90.5500
G01 X105.5000 Y-90.3878
G01 X105.5058 Y-90.3812
G01 X105.5147 Y-90.3692
G01 X105.5249 Y-90.3522
G01 X105.5318 Y-90.3376
G01 X105.5369 Y-90.3235
G01 X105.5419 Y-90.3043
G01 X105.5444 Y-90.2872
G01 X105.5453 Y-90.2710
G01 X105.5453 Y-90.1587
G01 X105.5491 Y-90.1200
G01 X105.5578 Y-90.0911
G01 X105.5721 Y-90.0645
G01 X105.5912 Y-90.0412
G01 X105.6145 Y-90.0221
G01 X105.6411 Y-90.0078
G01 X105.6700 Y-89.9991
G01 X105.7087 Y-89.9953
G01 X105.7698 Y-89.9953
G01 X105.7859 Y-89.9945
G01 X105.8043 Y-89.9919
G01 X105.8224 Y-89.9873
G01 X105.8376 Y-89.9818
G01 X105.8533 Y-89.9744
G01 X105.8682 Y-89.9654
G01 X105.8802 Y-89.9566
G01 X105.8967 Y-89.9416
G01 X105.9067 Y-89.9305
G01 X105.9177 Y-89.9155
G01 X105.9260 Y-89.9017
G01 X105.9343 Y-89.8837
G01 X105.9392 Y-89.8696
G01 X105.9429 Y-89.8551
G01 X105.9459 Y-89.8368
G01 X105.9469 Y-89.8182
G01 X105.9469 Y-89.6211
G01 X105.9456 Y-89.6000
G01 X105.9505 Y-89.5504
G01 X105.9650 Y-89.5027
G01 X105.9885 Y-89.4587
G01 X106.0201 Y-89.4201
G01 X106.0360 Y-89.4061
G01 X106.3450 Y-89.0970
G01 X106.3582 Y-89.0822
G01 X106.3670 Y-89.0702
G01 X106.3754 Y-89.0563
G01 X106.3843 Y-89.0373
G01 X106.3892 Y-89.0232
G01 X106.3935 Y-89.0063
G01 X106.3960 Y-88.9892
G01 X106.3968 Y-88.9743
G01 X106.3968 Y-88.9679
G01 X106.3957 Y-88.9506
G01 X106.3935 Y-88.9358
G01 X106.3892 Y-88.9190
G01 X106.3834 Y-88.9026
G01 X106.3771 Y-88.8891
G01 X106.3656 Y-88.8700
G01 X106.3567 Y-88.8581
G01 X106.3450 Y-88.8452
G01 X106.3321 Y-88.8335
G01 X106.3202 Y-88.8246
G01 X106.3011 Y-88.8131
G01 X106.2876 Y-88.8068
G01 X106.2712 Y-88.8009
G01 X106.2543 Y-88.7967
G01 X106.2384 Y-88.7943
G01 X106.2173 Y-88.7934
G01 X106.2037 Y-88.7941
G01 X106.1663 Y-88.7977
G01 X106.0691 Y-88.7977
G01 X106.0538 Y-88.7984
G01 X106.0337 Y-88.8013
G01 X106.0152 Y-88.8061
G01 X105.9997 Y-88.8119
G01 X105.9815 Y-88.8210
G01 X105.9665 Y-88.8306
G01 X105.9543 Y-88.8399
G01 X105.9432 Y-88.8504
G01 X105.9297 Y-88.8656
G01 X105.9201 Y-88.8791
G01 X105.9162 Y-88.8858
G01 X105.8593 Y-88.9592
G01 X105.7912 Y-89.0183
G01 X105.7129 Y-89.0630
G01 X105.6282 Y-89.0914
G01 X105.6213 Y-89.0922
G01 X105.5751 Y-89.0459
G01 X105.5751 Y-88.6730
G01 X105.5916 Y-88.6632
G01 X105.6055 Y-88.6529
G01 X105.6184 Y-88.6412
G01 X105.6316 Y-88.6264
G01 X105.6417 Y-88.6123
G01 X105.6494 Y-88.5995
G01 X105.6558 Y-88.5860
G01 X105.6626 Y-88.5674
G01 X105.6669 Y-88.5505
G01 X105.6694 Y-88.5334
G01 X105.6703 Y-88.5160
G01 X105.6703 Y-88.2700
G01 X105.6694 Y-88.2526
G01 X105.6666 Y-88.2343
G01 X105.6626 Y-88.2186
G01 X105.6568 Y-88.2022
G01 X105.6494 Y-88.1865
G01 X105.6404 Y-88.1716
G01 X105.6301 Y-88.1577
G01 X105.6184 Y-88.1448
G01 X105.6055 Y-88.1331
G01 X105.5905 Y-88.1221
G01 X105.5756 Y-88.1133
G01 X105.5577 Y-88.1052
G01 X105.5538 Y-88.1021
G01 X105.5486 Y-88.0989
G01 X105.5441 Y-88.0968
G01 X105.5383 Y-88.0948
G01 X105.5323 Y-88.0935
G01 X105.5262 Y-88.0930
G01 X105.4867 Y-88.0929
G01 X105.4804 Y-88.0893
G01 X105.4669 Y-88.0829
G01 X105.4482 Y-88.0762
G01 X105.4301 Y-88.0719
G01 X105.4154 Y-88.0698
G01 X105.4005 Y-88.0690
G01 X105.3020 Y-88.0689
G01 X105.2834 Y-88.0699
G01 X105.2675 Y-88.0723
G01 X105.2494 Y-88.0769
G01 X105.2331 Y-88.0829
G01 X105.2196 Y-88.0893
G01 X105.2133 Y-88.0929
G01 X105.1713 Y-88.0931
G01 X105.1640 Y-88.0942
G01 X105.1559 Y-88.0968
G01 X105.1483 Y-88.1008
G01 X105.1423 Y-88.1052
G01 X105.1244 Y-88.1133
G01 X105.1095 Y-88.1221
G01 X105.0945 Y-88.1331
G01 X105.0807 Y-88.1457
G01 X105.0684 Y-88.1596
G01 X105.0596 Y-88.1716
G01 X105.0519 Y-88.1844
G01 X105.0432 Y-88.2022
G01 X105.0374 Y-88.2186
G01 X105.0327 Y-88.2379
G01 X105.0306 Y-88.2526
G01 X105.0297 Y-88.2688
G01 X105.0297 Y-88.5160
G01 X105.0306 Y-88.5334
G01 X105.0331 Y-88.5505
G01 X105.0374 Y-88.5674
G01 X105.0442 Y-88.5860
G01 X105.0506 Y-88.5995
G01 X105.0583 Y-88.6123
G01 X105.0684 Y-88.6264
G01 X105.0816 Y-88.6412
G01 X105.0945 Y-88.6529
G01 X105.1084 Y-88.6632
G01 X105.1249 Y-88.6730
G01 X105.1249 Y-89.0459
G01 X105.0787 Y-89.0922
G01 X105.0718 Y-89.0914
G01 X104.9871 Y-89.0630
G01 X104.9088 Y-89.0183
G01 X104.8407 Y-88.9592
G01 X104.7838 Y-88.8858
G01 X104.7799 Y-88.8791
G01 X104.7703 Y-88.8656
G01 X104.7586 Y-88.8522
G01 X104.7457 Y-88.8399
G01 X104.7335 Y-88.8306
G01 X104.7185 Y-88.8210
G01 X104.7141 Y-88.8186
G01 X104.7003 Y-88.8119
G01 X104.6836 Y-88.8058
G01 X104.6663 Y-88.8013
G01 X104.6487 Y-88.7986
G01 X104.6309 Y-88.7977
G01 X104.5337 Y-88.7977
G01 X104.4950 Y-88.7939
G01 X104.4661 Y-88.7852
G01 X104.4395 Y-88.7709
G01 X104.4162 Y-88.7518
G01 X104.3971 Y-88.7285
G01 X104.3828 Y-88.7019
G01 X104.3741 Y-88.6730
G01 X104.3703 Y-88.6343
G01 X104.3703 Y-88.1517
G01 X104.3741 Y-88.1130
G01 X104.3828 Y-88.0841
G01 X104.3971 Y-88.0575
G01 X104.4074 Y-88.0448
G01 X104.4163 Y-88.0329
G01 X104.4260 Y-88.0169
G01 X104.4343 Y-87.9989
G01 X104.4392 Y-87.9849
G01 X104.4432 Y-87.9692
G01 X104.4460 Y-87.9508
G01 X104.4469 Y-87.9335
G01 X104.4468 Y-87.8530
G01 X104.4460 Y-87.8368
G01 X104.4432 Y-87.8185
G01 X104.4392 Y-87.8028
G01 X104.4324 Y-87.7842
G01 X104.4260 Y-87.7707
G01 X104.4183 Y-87.7579
G01 X104.4074 Y-87.7428
G01 X104.3950 Y-87.7290
G01 X104.2865 Y-87.6205
G01 X104.2745 Y-87.6097
G01 X104.2626 Y-87.6008
G01 X104.2435 Y-87.5893
G01 X104.2300 Y-87.5830
G01 X104.2136 Y-87.5772
G01 X104.1967 Y-87.5729
G01 X104.1820 Y-87.5707
G01 X104.1597 Y-87.5696
G01 X104.1448 Y-87.5704
G01 X104.1277 Y-87.5729
G01 X104.1108 Y-87.5772
G01 X104.0967 Y-87.5821
G01 X104.0766 Y-87.5916
G01 X104.0638 Y-87.5994
G01 X104.0499 Y-87.6097
G01 X104.0370 Y-87.6214
G01 X104.0269 Y-87.6324
G01 X104.0137 Y-87.6503
G01 X104.0060 Y-87.6631
G01 X103.9986 Y-87.6788
G01 X103.9928 Y-87.6952
G01 X103.9885 Y-87.7120
G01 X103.9860 Y-87.7292
G01 X103.9852 Y-87.7441
G01 X103.9851 Y-88.0025
G01 X103.9812 Y-88.0389
G01 X103.9724 Y-88.0673
G01 X103.9582 Y-88.0934
G01 X103.9342 Y-88.1224
G01 X103.6442 Y-88.4124
G01 X103.6157 Y-88.4353
G01 X103.5893 Y-88.4492
G00 Z2.0000
G00 X106.4750 Y-86.6430
G01 F60.00
G01 Z-2.4000
G01 F120.00
G01 X106.8299 Y-86.6428
G01 X106.8383 Y-86.6412
G01 X106.8453 Y-86.6387
G01 X106.8517 Y-86.6352
G01 X106.8577 Y-86.6309
G01 X106.8637 Y-86.6247
G01 X106.8679 Y-86.6187
G01 X106.8716 Y-86.6110
G01 X106.8738 Y-86.6040
G01 X106.8748 Y-86.5979
G01 X106.8750 Y-86.5930
G01 X106.8750 Y-86.0930
G01 X106.8746 Y-86.0869
G01 X106.8738 Y-86.0820
G01 X106.8721 Y-86.0762
G01 X106.8702 Y-86.0716
G01 X106.8672 Y-86.0663
G01 X106.8637 Y-86.0613
G01 X106.8595 Y-86.0568
G01 X106.8548 Y-86.0528
G01 X106.8507 Y-86.0501
G01 X106.8418 Y-86.0459
G01 X106.8323 Y-86.0435
G01 X106.8262 Y-86.0430
G01 X106.8000 Y-86.0430
G01 X106.8001 Y-85.2120
G01 X106.8403 Y-85.2263
G01 X106.8903 Y-85.2389
G01 X106.9437 Y-85.2471
G01 X107.0000 Y-85.2500
G01 X107.0515 Y-85.2475
G01 X107.1073 Y-85.2394
G01 X107.1597 Y-85.2263
G01 X107.2105 Y-85.2081
G01 X107.2571 Y-85.1862
G01 X107.3056 Y-85.1573
G01 X107.3489 Y-85.1252
G01 X107.3889 Y-85.0889
G01 X107.4252 Y-85.0489
G01 X107.4573 Y-85.0056
G01 X107.4851 Y-84.9593
G01 X107.5081 Y-84.9105
G01 X107.5267 Y-84.8585
G01 X107.5394 Y-84.8073
G01 X107.5474 Y-84.7539
G01 X107.5500 Y-84.7000
G01 X107.5474 Y-84.6461
G01 X107.5394 Y-84.5927
G01 X107.5263 Y-84.5403
G01 X107.5081 Y-84.4895
G01 X107.4851 Y-84.4407
G01 X107.4573 Y-84.3944
G01 X107.4252 Y-84.3511
G01 X107.3889 Y-84.3111
G01 X107.3489 Y-84.2748
G01 X107.3056 Y-84.2427
G01 X107.2593 Y-84.2149
G01 X107.2105 Y-84.1919
G01 X107.1585 Y-84.1733
G01 X107.1073 Y-84.1606
G01 X107.0539 Y-84.1526
G01 X107.0000 Y-84.1500
G01 X106.9461 Y-84.1526
G01 X106.8927 Y-84.1606
G01 X106.8403 Y-84.1737
G01 X106.7895 Y-84.1919
G01 X106.7407 Y-84.2149
G01 X106.6944 Y-84.2427
G01 X106.6511 Y-84.2748
G01 X106.6111 Y-84.3111
G01 X106.5748 Y-84.3511
G01 X106.5427 Y-84.3944
G01 X106.5149 Y-84.4407
G01 X106.4919 Y-84.4895
G01 X106.4733 Y-84.5415
G01 X106.4606 Y-84.5927
G01 X106.4526 Y-84.6461
G01 X106.4500 Y-84.7000
G01 X106.4528 Y-84.7551
G01 X106.4606 Y-84.8073
G01 X106.4741 Y-84.8608
G01 X106.4923 Y-84.9116
G01 X106.5144 Y-84.9582
G01 X106.5222 Y-84.9715
G01 X106.5177 Y-84.9793
G01 X106.5119 Y-84.9915
G01 X106.5061 Y-85.0076
G01 X106.5024 Y-85.0231
G01 X106.5007 Y-85.0353
G01 X106.5000 Y-85.0488
G01 X106.4999 Y-86.0430
G01 X106.4750 Y-86.0430
G01 X106.4689 Y-86.0434
G01 X106.4593 Y-86.0455
G01 X106.4504 Y-86.0495
G01 X106.4452 Y-86.0528
G01 X106.4405 Y-86.0568
G01 X106.4363 Y-86.0613
G01 X106.4334 Y-86.0652
G01 X106.4309 Y-86.0694
G01 X106.4284 Y-86.0750
G01 X106.4265 Y-86.0809
G01 X106.4255 Y-86.0857
G01 X106.4250 Y-86.0930
G01 X106.4250 Y-86.5930
G01 X106.4260 Y-86.6028
G01 X106.4288 Y-86.6121
G01 X106.4334 Y-86.6208
G01 X106.4396 Y-86.6284
G01 X106.4472 Y-86.6346
G01 X106.4559 Y-86.6392
G01 X106.4652 Y-86.6420
G01 X106.4750 Y-86.6430
G00 Z2.0000
G00 X105.3500 Y-85.2288
G01 F60.00
G01 Z-2.4000
G01 F120.00
G01 X105.3500 Y-85.5000
G01 X105.3505 Y-85.5123
G01 X105.3528 Y-85.5293
G01 X105.3564 Y-85.5436
G01 X105.3614 Y-85.5574
G01 X105.3689 Y-85.5729
G01 X105.3752 Y-85.5834
G01 X105.3825 Y-85.5933
G01 X105.3939 Y-85.6061
G01 X105.8308 Y-86.0430
G01 X105.8201 Y-86.0432
G01 X105.8105 Y-86.0452
G01 X105.8014 Y-86.0489
G01 X105.7933 Y-86.0543
G01 X105.7863 Y-86.0613
G01 X105.7809 Y-86.0694
G01 X105.7784 Y-86.0750
G01 X105.7768 Y-86.0797
G01 X105.7751 Y-86.0893
G01 X105.7750 Y-86.5942
G01 X105.7755 Y-86.6003
G01 X105.7768 Y-86.6063
G01 X105.7793 Y-86.6133
G01 X105.7821 Y-86.6187
G01 X105.7856 Y-86.6238
G01 X105.7896 Y-86.6284
G01 X105.7942 Y-86.6324
G01 X105.7993 Y-86.6359
G01 X105.8047 Y-86.6387
G01 X105.8105 Y-86.6408
G01 X105.8165 Y-86.6423
G01 X105.8225 Y-86.6429
G01 X106.1762 Y-86.6430
G01 X106.1835 Y-86.6423
G01 X106.1895 Y-86.6408
G01 X106.1953 Y-86.6387
G01 X106.2007 Y-86.6359
G01 X106.2058 Y-86.6324
G01 X106.2104 Y-86.6284
G01 X106.2144 Y-86.6238
G01 X106.2179 Y-86.6187
G01 X106.2207 Y-86.6133
G01 X106.2232 Y-86.6063
G01 X106.2245 Y-86.6003
G01 X106.2250 Y-86.5942
G01 X106.2250 Y-86.0930
G01 X106.2248 Y-86.0881
G01 X106.2238 Y-86.0820
G01 X106.2225 Y-86.0773
G01 X106.2202 Y-86.0716
G01 X106.2152 Y-86.0632
G01 X106.2095 Y-86.0568
G01 X106.2017 Y-86.0508
G01 X106.1941 Y-86.0468
G01 X106.1871 Y-86.0445
G01 X106.1799 Y-86.0432
G01 X106.1500 Y-86.0430
G01 X106.1500 Y-86.0000
G01 X106.1494 Y-85.9865
G01 X106.1472 Y-85.9707
G01 X106.1442 Y-85.9588
G01 X106.1386 Y-85.9426
G01 X106.1323 Y-85.9293
G01 X106.1248 Y-85.9166
G01 X106.1144 Y-85.9030
G01 X106.1061 Y-85.8939
G01 X105.6500 Y-85.4378
G01 X105.6500 Y-85.2288
G01 X105.6608 Y-85.2259
G01 X105.7105 Y-85.2081
G01 X105.7593 Y-85.1851
G01 X105.8056 Y-85.1573
G01 X105.8508 Y-85.1236
G01 X105.8906 Y-85.0871
G01 X105.9252 Y-85.0489
G01 X105.9559 Y-85.0076
G01 X105.9851 Y-84.9593
G01 X106.0071 Y-84.9127
G01 X106.0270 Y-84.8573
G01 X106.0394 Y-84.8073
G01 X106.0474 Y-84.7539
G01 X106.0500 Y-84.7000
G01 X106.0475 Y-84.6485
G01 X106.0392 Y-84.5915
G01 X106.0263 Y-84.5403
G01 X106.0090 Y-84.4918
G01 X105.9851 Y-84.4407
G01 X105.9559 Y-84.3924
G01 X105.9252 Y-84.3511
G01 X105.8906 Y-84.3129
G01 X105.8489 Y-84.2748
G01 X105.8035 Y-84.2414
G01 X105.7593 Y-84.2149
G01 X105.7127 Y-84.1929
G01 X105.6597 Y-84.1737
G01 X105.6073 Y-84.1606
G01 X105.5539 Y-84.1526
G01 X105.5000 Y-84.1500
G01 X105.4461 Y-84.1526
G01 X105.3927 Y-84.1606
G01 X105.3403 Y-84.1737
G01 X105.2895 Y-84.1919
G01 X105.2407 Y-84.2149
G01 X105.1944 Y-84.2427
G01 X105.1511 Y-84.2748
G01 X105.1111 Y-84.3111
G01 X105.0748 Y-84.3511
G01 X105.0427 Y-84.3944
G01 X105.0149 Y-84.4407
G01 X104.9919 Y-84.4895
G01 X104.9737 Y-84.5403
G01 X104.9606 Y-84.5927
G01 X104.9526 Y-84.6461
G01 X104.9500 Y-84.7000
G01 X104.9526 Y-84.7539
G01 X104.9606 Y-84.8073
G01 X104.9737 Y-84.8597
G01 X104.9919 Y-84.9105
G01 X105.0149 Y-84.9593
G01 X105.0427 Y-85.0056
G01 X105.0748 Y-85.0489
G01 X105.1111 Y-85.0889
G01 X105.1511 Y-85.1252
G01 X105.1944 Y-85.1573
G01 X105.2407 Y-85.1851
G01 X105.2895 Y-85.2081
G01 X105.3392 Y-85.2259
G01 X105.3500 Y-85.2288
G00 Z2.0000
G00 X112.5322 Y-85.0444
G01 F60.00
G01 Z-2.4000
G01 F120.00
G01 X114.6085 Y-87.1207
G01 X114.4638 Y-87.2655
G01 X114.4591 Y-87.2712
G01 X114.4559 Y-87.2764
G01 X114.4529 Y-87.2832
G01 X114.4510 Y-87.2902
G01 X114.4500 Y-87.3000
G01 X114.4501 Y-87.9037
G01 X114.4515 Y-87.9121
G01 X114.4543 Y-87.9203
G01 X114.4584 Y-87.9278
G01 X114.4638 Y-87.9345
G01 X114.6646 Y-88.1354
G01 X114.6712 Y-88.1409
G01 X114.6775 Y-88.1447
G01 X114.6832 Y-88.1471
G01 X114.6890 Y-88.1488
G01 X114.6939 Y-88.1496
G01 X114.7000 Y-88.1500
G01 X116.5000 Y-88.1500
G01 X116.5098 Y-88.1490
G01 X116.5180 Y-88.1466
G01 X116.5246 Y-88.1435
G01 X116.5308 Y-88.1394
G01 X116.5370 Y-88.1336
G01 X116.5422 Y-88.1267
G01 X116.5457 Y-88.1203
G01 X116.5485 Y-88.1121
G01 X116.5498 Y-88.1049
G01 X116.5500 Y-87.7500
G01 X117.4128 Y-87.7500
G01 X117.6239 Y-87.9611
G01 X117.6330 Y-87.9694
G01 X117.6466 Y-87.9798
G01 X117.6593 Y-87.9873
G01 X117.6726 Y-87.9936
G01 X117.6876 Y-87.9989
G01 X117.7031 Y-88.0026
G01 X117.7153 Y-88.0043
G01 X117.7288 Y-88.0050
G01 X117.8943 Y-88.0051
G01 X117.9012 Y-88.0109
G01 X117.9097 Y-88.0157
G01 X117.9190 Y-88.0188
G01 X117.9288 Y-88.0200
G01 X118.2800 Y-88.0200
G01 X118.2873 Y-88.0195
G01 X118.2945 Y-88.0178
G01 X118.3014 Y-88.0152
G01 X118.3067 Y-88.0122
G01 X118.3127 Y-88.0079
G01 X118.3170 Y-88.0036
G01 X118.3216 Y-87.9978
G01 X118.3247 Y-87.9925
G01 X118.3266 Y-87.9880
G01 X118.3285 Y-87.9821
G01 X118.3296 Y-87.9761
G01 X118.3300 Y-87.9712
G01 X118.3298 Y-87.7351
G01 X118.3285 Y-87.7279
G01 X118.3262 Y-87.7209
G01 X118.3229 Y-87.7143
G01 X118.3187 Y-87.7083
G01 X118.3136 Y-87.7030
G01 X118.3078 Y-87.6984
G01 X118.3014 Y-87.6948
G01 X118.2945 Y-87.6922
G01 X118.2873 Y-87.6905
G01 X118.2800 Y-87.6900
G01 X117.9288 Y-87.6900
G01 X117.9190 Y-87.6912
G01 X117.9097 Y-87.6943
G01 X117.9012 Y-87.6991
G01 X117.8943 Y-87.7050
G01 X117.7922 Y-87.7050
G01 X117.5811 Y-87.4939
G01 X117.5711 Y-87.4848
G01 X117.5563 Y-87.4739
G01 X117.5457 Y-87.4677
G01 X117.5324 Y-87.4614
G01 X117.5162 Y-87.4558
G01 X117.5043 Y-87.4528
G01 X117.4921 Y-87.4510
G01 X117.4750 Y-87.4500
G01 X116.5500 Y-87.4499
G01 X116.5498 Y-87.0951
G01 X116.5485 Y-87.0879
G01 X116.5462 Y-87.0809
G01 X116.5429 Y-87.0743
G01 X116.5387 Y-87.0683
G01 X116.5327 Y-87.0621
G01 X116.5267 Y-87.0578
G01 X116.5203 Y-87.0543
G01 X116.5133 Y-87.0518
G01 X116.5061 Y-87.0504
G01 X116.5000 Y-87.0500
G01 X114.9622 Y-87.0500
G01 X112.6231 Y-84.7109
G01 X112.6122 Y-84.7010
G01 X112.5983 Y-84.6909
G01 X112.5877 Y-84.6847
G01 X112.5767 Y-84.6794
G01 X112.5626 Y-84.6741
G01 X112.5579 Y-84.6562
G01 X112.5397 Y-84.6054
G01 X112.5171 Y-84.5577
G01 X112.4886 Y-84.5104
G01 X112.4572 Y-84.4681
G01 X112.4209 Y-84.4281
G01 X112.3809 Y-84.3918
G01 X112.3386 Y-84.3604
G01 X112.2913 Y-84.3319
G01 X112.2425 Y-84.3089
G01 X112.1917 Y-84.2907
G01 X112.1369 Y-84.2771
G01 X112.0859 Y-84.2696
G01 X112.0345 Y-84.2671
G01 X111.9805 Y-84.2695
G01 X111.9247 Y-84.2776
G01 X111.8723 Y-84.2907
G01 X111.8215 Y-84.3089
G01 X111.7727 Y-84.3319
G01 X111.7264 Y-84.3597
G01 X111.6812 Y-84.3934
G01 X111.6414 Y-84.4299
G01 X111.6068 Y-84.4681
G01 X111.5761 Y-84.5094
G01 X111.5469 Y-84.5577
G01 X111.5243 Y-84.6054
G01 X111.5057 Y-84.6573
G01 X111.4926 Y-84.7097
G01 X111.4846 Y-84.7631
G01 X111.4820 Y-84.8170
G01 X111.4846 Y-84.8709
G01 X111.4926 Y-84.9243
G01 X111.5057 Y-84.9767
G01 X111.5239 Y-85.0275
G01 X111.5469 Y-85.0763
G01 X111.5747 Y-85.1226
G01 X111.6068 Y-85.1659
G01 X111.6431 Y-85.2059
G01 X111.6831 Y-85.2422
G01 X111.7264 Y-85.2743
G01 X111.7727 Y-85.3021
G01 X111.8204 Y-85.3247
G01 X111.8723 Y-85.3433
G01 X111.9247 Y-85.3564
G01 X111.9781 Y-85.3644
G01 X112.0320 Y-85.3670
G01 X112.0859 Y-85.3644
G01 X112.1393 Y-85.3564
G01 X112.1917 Y-85.3433
G01 X112.2413 Y-85.3256
G01 X112.2913 Y-85.3021
G01 X112.3376 Y-85.2743
G01 X112.3809 Y-85.2422
G01 X112.4200 Y-85.2068
G01 X112.4572 Y-85.1659
G01 X112.4886 Y-85.1236
G01 X112.5165 Y-85.0773
G01 X112.5322 Y-85.0444
G00 Z2.0000
G00 X112.5608 Y-85.9370
G01 F60.00
G01 Z-2.4000
G01 F120.00
G01 X112.5579 Y-85.9262
G01 X112.5401 Y-85.8765
G01 X112.5171 Y-85.8277
G01 X112.4893 Y-85.7814
G01 X112.4572 Y-85.7381
G01 X112.4209 Y-85.6981
G01 X112.3809 Y-85.6618
G01 X112.3376 Y-85.6297
G01 X112.2913 Y-85.6019
G01 X112.2425 Y-85.5789
G01 X112.1917 Y-85.5607
G01 X112.1393 Y-85.5476
G01 X112.0859 Y-85.5396
G01 X112.0320 Y-85.5370
G01 X111.9781 Y-85.5396
G01 X111.9247 Y-85.5476
G01 X111.8723 Y-85.5607
G01 X111.8215 Y-85.5789
G01 X111.7727 Y-85.6019
G01 X111.7264 Y-85.6297
G01 X111.6831 Y-85.6618
G01 X111.6431 Y-85.6981
G01 X111.6068 Y-85.7381
G01 X111.5747 Y-85.7814
G01 X111.5469 Y-85.8277
G01 X111.5239 Y-85.8765
G01 X111.5057 Y-85.9273
G01 X111.4926 Y-85.9797
G01 X111.4846 Y-86.0331
G01 X111.4820 Y-86.0870
G01 X111.4846 Y-86.1409
G01 X111.4926 Y-86.1943
G01 X111.5057 Y-86.2467
G01 X111.5239 Y-86.2975
G01 X111.5458 Y-86.3441
G01 X111.5761 Y-86.3946
G01 X111.6068 Y-86.4359
G01 X111.6431 Y-86.4759
G01 X111.6831 Y-86.5122
G01 X111.7244 Y-86.5429
G01 X111.7749 Y-86.5732
G01 X111.8215 Y-86.5951
G01 X111.8723 Y-86.6133
G01 X111.9271 Y-86.6269
G01 X111.9781 Y-86.6344
G01 X112.0320 Y-86.6370
G01 X112.0859 Y-86.6344
G01 X112.1369 Y-86.6269
G01 X112.1940 Y-86.6125
G01 X112.2425 Y-86.5951
G01 X112.2913 Y-86.5721
G01 X112.3376 Y-86.5443
G01 X112.3790 Y-86.5137
G01 X112.4226 Y-86.4741
G01 X112.4572 Y-86.4359
G01 X112.4893 Y-86.3926
G01 X112.5171 Y-86.3463
G01 X112.5391 Y-86.2997
G01 X112.5575 Y-86.2490
G01 X112.5608 Y-86.2370
G01 X112.8248 Y-86.2370
G01 X113.8500 Y-87.2622
G01 X113.8500 Y-88.7000
G01 X113.8510 Y-88.7171
G01 X113.8528 Y-88.7293
G01 X113.8561 Y-88.7424
G01 X113.8614 Y-88.7574
G01 X113.8689 Y-88.7729
G01 X113.8752 Y-88.7834
G01 X113.8825 Y-88.7933
G01 X113.8930 Y-88.8052
G01 X114.4500 Y-89.3622
G01 X114.4500 Y-89.9000
G01 X114.4505 Y-89.9073
G01 X114.4522 Y-89.9145
G01 X114.4543 Y-89.9203
G01 X114.4571 Y-89.9257
G01 X114.4606 Y-89.9308
G01 X114.4646 Y-89.9354
G01 X114.6646 Y-90.1354
G01 X114.6712 Y-90.1409
G01 X114.6775 Y-90.1447
G01 X114.6832 Y-90.1471
G01 X114.6890 Y-90.1488
G01 X114.6939 Y-90.1496
G01 X114.7000 Y-90.1500
G01 X116.5000 Y-90.1500
G01 X116.5085 Y-90.1493
G01 X116.5168 Y-90.1471
G01 X116.5236 Y-90.1441
G01 X116.5298 Y-90.1402
G01 X116.5354 Y-90.1354
G01 X116.5402 Y-90.1298
G01 X116.5441 Y-90.1236
G01 X116.5466 Y-90.1180
G01 X116.5488 Y-90.1110
G01 X116.5499 Y-90.1037
G01 X116.5500 Y-89.7500
G01 X116.7000 Y-89.7500
G01 X116.7171 Y-89.7490
G01 X116.7293 Y-89.7472
G01 X116.7412 Y-89.7442
G01 X116.7574 Y-89.7386
G01 X116.7729 Y-89.7311
G01 X116.7834 Y-89.7248
G01 X116.7952 Y-89.7160
G01 X116.8061 Y-89.7061
G01 X117.6472 Y-88.8650
G01 X117.8943 Y-88.8651
G01 X117.9012 Y-88.8709
G01 X117.9097 Y-88.8757
G01 X117.9190 Y-88.8788
G01 X117.9288 Y-88.8800
G01 X118.2812 Y-88.8800
G01 X118.2885 Y-88.8793
G01 X118.2945 Y-88.8778
G01 X118.3014 Y-88.8752
G01 X118.3067 Y-88.8722
G01 X118.3127 Y-88.8679
G01 X118.3170 Y-88.8636
G01 X118.3216 Y-88.8578
G01 X118.3247 Y-88.8525
G01 X118.3266 Y-88.8480
G01 X118.3285 Y-88.8421
G01 X118.3296 Y-88.8361
G01 X118.3300 Y-88.8312
G01 X118.3298 Y-88.5951
G01 X118.3288 Y-88.5890
G01 X118.3266 Y-88.5820
G01 X118.3235 Y-88.5754
G01 X118.3194 Y-88.5692
G01 X118.3154 Y-88.5646
G01 X118.3098 Y-88.5598
G01 X118.3036 Y-88.5559
G01 X118.2968 Y-88.5529
G01 X118.2885 Y-88.5507
G01 X118.2800 Y-88.5500
G01 X117.9288 Y-88.5500
G01 X117.9190 Y-88.5512
G01 X117.9097 Y-88.5543
G01 X117.9012 Y-88.5591
G01 X117.8943 Y-88.5650
G01 X117.5838 Y-88.5650
G01 X117.5703 Y-88.5657
G01 X117.5569 Y-88.5676
G01 X117.5391 Y-88.5722
G01 X117.5276 Y-88.5764
G01 X117.5165 Y-88.5816
G01 X117.5037 Y-88.5889
G01 X117.4908 Y-88.5982
G01 X117.4798 Y-88.6080
G01 X116.6378 Y-89.4500
G01 X116.5500 Y-89.4499
G01 X116.5498 Y-89.0951
G01 X116.5482 Y-89.0867
G01 X116.5452 Y-89.0786
G01 X116.5409 Y-89.0712
G01 X116.5362 Y-89.0655
G01 X116.5298 Y-89.0598
G01 X116.5236 Y-89.0559
G01 X116.5157 Y-89.0525
G01 X116.5085 Y-89.0507
G01 X116.5000 Y-89.0500
G01 X114.6988 Y-89.0500
G01 X114.6915 Y-89.0507
G01 X114.6843 Y-89.0525
G01 X114.6775 Y-89.0553
G01 X114.6702 Y-89.0598
G01 X114.6646 Y-89.0646
G01 X114.6207 Y-89.1085
G01 X114.1500 Y-88.6378
G01 X114.1500 Y-87.1988
G01 X114.1493 Y-87.1853
G01 X114.1476 Y-87.1731
G01 X114.1436 Y-87.1564
G01 X114.1376 Y-87.1403
G01 X114.1323 Y-87.1293
G01 X114.1254 Y-87.1177
G01 X114.1160 Y-87.1048
G01 X114.1061 Y-87.0939
G01 X112.9931 Y-85.9809
G01 X112.9803 Y-85.9695
G01 X112.9704 Y-85.9622
G01 X112.9599 Y-85.9559
G01 X112.9444 Y-85.9484
G01 X112.9306 Y-85.9434
G01 X112.9187 Y-85.9404
G01 X112.9005 Y-85.9376
G01 X112.8870 Y-85.9370
G01 X112.5608 Y-85.9370
G00 Z2.0000
G00 X114.2615 Y-88.5755
G01 F60.00
G01 Z-2.4000
G01 F120.00
G01 X114.2676 Y-88.5918
G01 X114.2740 Y-88.6053
G01 X114.2817 Y-88.6181
G01 X114.2926 Y-88.6332
G01 X114.3033 Y-88.6452
G01 X114.5558 Y-88.8978
G01 X114.5678 Y-88.9086
G01 X114.5798 Y-88.9175
G01 X114.5967 Y-88.9279
G01 X114.6146 Y-88.9362
G01 X114.6287 Y-88.9412
G01 X114.6455 Y-88.9454
G01 X114.6627 Y-88.9480
G01 X114.6801 Y-88.9488
G01 X114.6962 Y-88.9481
G01 X114.7087 Y-88.9469
G01 X115.8838 Y-88.9469
G01 X115.8999 Y-88.9461
G01 X115.9087 Y-88.9453
G01 X116.4913 Y-88.9453
G01 X116.5300 Y-88.9491
G01 X116.5589 Y-88.9578
G01 X116.5855 Y-88.9721
G01 X116.6088 Y-88.9912
G01 X116.6398 Y-89.0290
G01 X116.6525 Y-89.0426
G01 X116.6636 Y-89.0526
G01 X116.6765 Y-89.0622
G01 X116.6946 Y-89.0730
G01 X116.7081 Y-89.0793
G01 X116.7222 Y-89.0844
G01 X116.7413 Y-89.0894
G01 X116.7610 Y-89.0921
G01 X116.7759 Y-89.0928
G01 X116.7932 Y-89.0919
G01 X116.8128 Y-89.0888
G01 X116.8273 Y-89.0851
G01 X116.8437 Y-89.0793
G01 X116.8594 Y-89.0719
G01 X116.8722 Y-89.0642
G01 X116.8901 Y-89.0510
G01 X116.9011 Y-89.0409
G01 X117.3911 Y-88.5510
G01 X117.4051 Y-88.5351
G01 X117.4437 Y-88.5035
G01 X117.4877 Y-88.4800
G01 X117.5354 Y-88.4655
G01 X117.5860 Y-88.4605
G01 X117.5982 Y-88.4611
G01 X117.6156 Y-88.4602
G01 X117.6327 Y-88.4577
G01 X117.6496 Y-88.4535
G01 X117.6660 Y-88.4476
G01 X117.6817 Y-88.4402
G01 X117.6966 Y-88.4312
G01 X117.7115 Y-88.4201
G01 X117.7251 Y-88.4074
G01 X117.7351 Y-88.3964
G01 X117.7440 Y-88.3844
G01 X117.7544 Y-88.3675
G01 X117.7627 Y-88.3495
G01 X117.7676 Y-88.3354
G01 X117.7713 Y-88.3210
G01 X117.7743 Y-88.3026
G01 X117.7753 Y-88.2840
G01 X117.7753 Y-88.2633
G01 X117.7744 Y-88.2472
G01 X117.7719 Y-88.2300
G01 X117.7676 Y-88.2132
G01 X117.7618 Y-88.1968
G01 X117.7555 Y-88.1833
G01 X117.7440 Y-88.1642
G01 X117.7343 Y-88.1513
G01 X117.7216 Y-88.1377
G01 X117.7105 Y-88.1277
G01 X117.6986 Y-88.1188
G01 X117.6817 Y-88.1084
G01 X117.6648 Y-88.1005
G01 X117.6508 Y-88.0955
G01 X117.6327 Y-88.0900
G01 X117.5887 Y-88.0665
G01 X117.5501 Y-88.0349
G01 X117.5361 Y-88.0190
G01 X117.4220 Y-87.9050
G01 X117.4110 Y-87.8949
G01 X117.3931 Y-87.8817
G01 X117.3803 Y-87.8740
G01 X117.3646 Y-87.8666
G01 X117.3482 Y-87.8608
G01 X117.3314 Y-87.8565
G01 X117.3142 Y-87.8540
G01 X117.2980 Y-87.8532
G01 X116.8318 Y-87.8531
G01 X116.8144 Y-87.8540
G01 X116.7973 Y-87.8565
G01 X116.7804 Y-87.8608
G01 X116.7640 Y-87.8666
G01 X116.7462 Y-87.8753
G01 X116.7314 Y-87.8844
G01 X116.7195 Y-87.8933
G01 X116.7084 Y-87.9033
G01 X116.6949 Y-87.9179
G01 X116.6853 Y-87.9308
G01 X116.6756 Y-87.9467
G01 X116.6682 Y-87.9624
G01 X116.6624 Y-87.9788
G01 X116.6581 Y-87.9957
G01 X116.6556 Y-88.0128
G01 X116.6547 Y-88.0290
G01 X116.6547 Y-88.0913
G01 X116.6509 Y-88.1300
G01 X116.6422 Y-88.1589
G01 X116.6279 Y-88.1855
G01 X116.6088 Y-88.2088
G01 X116.5855 Y-88.2279
G01 X116.5589 Y-88.2422
G01 X116.5300 Y-88.2509
G01 X116.4913 Y-88.2547
G01 X115.9087 Y-88.2547
G01 X115.8999 Y-88.2539
G01 X115.8838 Y-88.2531
G01 X114.7055 Y-88.2531
G01 X114.6691 Y-88.2492
G01 X114.6407 Y-88.2404
G01 X114.6146 Y-88.2262
G01 X114.5856 Y-88.2022
G01 X114.5545 Y-88.1711
G01 X114.5416 Y-88.1595
G01 X114.5286 Y-88.1500
G01 X114.5158 Y-88.1422
G01 X114.4968 Y-88.1331
G01 X114.4816 Y-88.1277
G01 X114.4647 Y-88.1235
G01 X114.4476 Y-88.1210
G01 X114.4327 Y-88.1202
G01 X114.4104 Y-88.1213
G01 X114.3957 Y-88.1235
G01 X114.3800 Y-88.1274
G01 X114.3624 Y-88.1336
G01 X114.3446 Y-88.1422
G01 X114.3318 Y-88.1500
G01 X114.3198 Y-88.1588
G01 X114.3050 Y-88.1720
G01 X114.2918 Y-88.1868
G01 X114.2830 Y-88.1988
G01 X114.2753 Y-88.2116
G01 X114.2666 Y-88.2294
G01 X114.2604 Y-88.2470
G01 X114.2565 Y-88.2626
G01 X114.2543 Y-88.2774
G01 X114.2532 Y-88.2959
G01 X114.2531 Y-88.5218
G01 X114.2540 Y-88.5392
G01 X114.2561 Y-88.5539
G01 X114.2615 Y-88.5755
G00 Z2.0000
G00 X116.6506 Y-87.0663
G01 F60.00
G01 Z-2.4000
G01 F120.00
G01 X116.6547 Y-87.1087
G01 X116.6547 Y-87.1710
G01 X116.6559 Y-87.1896
G01 X116.6581 Y-87.2043
G01 X116.6624 Y-87.2212
G01 X116.6682 Y-87.2376
G01 X116.6762 Y-87.2543
G01 X116.6860 Y-87.2702
G01 X116.6949 Y-87.2821
G01 X116.7049 Y-87.2932
G01 X116.7195 Y-87.3067
G01 X116.7334 Y-87.3170
G01 X116.7483 Y-87.3260
G01 X116.7663 Y-87.3343
G01 X116.7828 Y-87.3399
G01 X116.7973 Y-87.3435
G01 X116.8120 Y-87.3457
G01 X116.8318 Y-87.3469
G01 X117.3764 Y-87.3469
G01 X117.3938 Y-87.3460
G01 X117.4109 Y-87.3435
G01 X117.4278 Y-87.3392
G01 X117.4419 Y-87.3343
G01 X117.4599 Y-87.3260
G01 X117.4748 Y-87.3170
G01 X117.4868 Y-87.3082
G01 X117.5033 Y-87.2932
G01 X117.5133 Y-87.2821
G01 X117.5236 Y-87.2682
G01 X117.5326 Y-87.2533
G01 X117.5390 Y-87.2398
G01 X117.5462 Y-87.2200
G01 X117.5501 Y-87.2043
G01 X117.5523 Y-87.1896
G01 X117.5535 Y-87.1698
G01 X117.5526 Y-87.1524
G01 X117.5501 Y-87.1353
G01 X117.5458 Y-87.1184
G01 X117.5400 Y-87.1020
G01 X117.5326 Y-87.0863
G01 X117.5236 Y-87.0714
G01 X117.5125 Y-87.0565
G01 X117.5016 Y-87.0446
G01 X117.3620 Y-86.9050
G01 X117.3482 Y-86.8926
G01 X117.3352 Y-86.8830
G01 X117.3224 Y-86.8753
G01 X117.3046 Y-86.8666
G01 X117.2858 Y-86.8601
G01 X117.2713 Y-86.8565
G01 X117.2566 Y-86.8543
G01 X117.2368 Y-86.8531
G01 X116.8227 Y-86.8532
G01 X116.8065 Y-86.8540
G01 X116.7918 Y-86.8561
G01 X116.7702 Y-86.8615
G01 X116.7561 Y-86.8666
G01 X116.7404 Y-86.8740
G01 X116.7255 Y-86.8830
G01 X116.7116 Y-86.8933
G01 X116.6987 Y-86.9050
G01 X116.6870 Y-86.9179
G01 X116.6767 Y-86.9318
G01 X116.6689 Y-86.9446
G01 X116.6594 Y-86.9647
G01 X116.6541 Y-86.9800
G01 X116.6498 Y-86.9981
G01 X116.6477 Y-87.0128
G01 X116.6468 Y-87.0302
G01 X116.6477 Y-87.0476
G01 X116.6506 Y-87.0663
G00 Z2.0000
G00 X116.3721 Y-85.5855
G01 F60.00
G01 Z-2.4000
G01 F120.00
G01 X116.3556 Y-85.5547
G01 X116.3472 Y-85.5408
G01 X116.3369 Y-85.5269
G01 X116.3243 Y-85.5131
G01 X116.3123 Y-85.5023
G01 X116.2963 Y-85.4907
G01 X116.2813 Y-85.4819
G01 X116.2678 Y-85.4756
G01 X116.2537 Y-85.4705
G01 X116.2345 Y-85.4655
G01 X116.2174 Y-85.4630
G01 X116.2000 Y-85.4621
G01 X116.1802 Y-85.4633
G01 X116.1655 Y-85.4655
G01 X116.1510 Y-85.4691
G01 X116.1345 Y-85.4747
G01 X116.1165 Y-85.4831
G01 X116.1027 Y-85.4913
G01 X116.0877 Y-85.5023
G01 X116.0748 Y-85.5140
G01 X116.0631 Y-85.5269
G01 X116.0535 Y-85.5398
G01 X116.0444 Y-85.5547
G01 X116.0279 Y-85.5855
G01 X116.0008 Y-85.6186
G01 X115.9899 Y-85.6337
G01 X115.9822 Y-85.6465
G01 X115.9758 Y-85.6600
G01 X115.9693 Y-85.6774
G01 X115.9647 Y-85.6955
G01 X115.9622 Y-85.7127
G01 X115.9613 Y-85.7300
G01 X115.9625 Y-85.7498
G01 X115.9647 Y-85.7646
G01 X115.9683 Y-85.7790
G01 X115.9739 Y-85.7955
G01 X115.9822 Y-85.8135
G01 X115.9905 Y-85.8273
G01 X116.0015 Y-85.8423
G01 X116.0132 Y-85.8552
G01 X116.4539 Y-86.2959
G01 X116.4659 Y-86.3067
G01 X116.4798 Y-86.3170
G01 X116.4947 Y-86.3260
G01 X116.5104 Y-86.3334
G01 X116.5268 Y-86.3392
G01 X116.5437 Y-86.3435
G01 X116.5608 Y-86.3460
G01 X116.5770 Y-86.3468
G01 X116.9614 Y-86.3469
G01 X116.9775 Y-86.3461
G01 X116.9960 Y-86.3435
G01 X117.0104 Y-86.3399
G01 X117.0314 Y-86.3324
G01 X117.0449 Y-86.3260
G01 X117.0598 Y-86.3170
G01 X117.0737 Y-86.3067
G01 X117.0866 Y-86.2950
G01 X117.0983 Y-86.2821
G01 X117.1072 Y-86.2702
G01 X117.1176 Y-86.2533
G01 X117.1259 Y-86.2353
G01 X117.1308 Y-86.2212
G01 X117.1345 Y-86.2067
G01 X117.1376 Y-86.1872
G01 X117.1384 Y-86.1673
G01 X117.1376 Y-86.1524
G01 X117.1355 Y-86.1377
G01 X117.1305 Y-86.1172
G01 X117.1250 Y-86.1020
G01 X117.1176 Y-86.0863
G01 X117.1086 Y-86.0714
G01 X117.0983 Y-86.0575
G01 X117.0866 Y-86.0446
G01 X117.0360 Y-85.9939
G01 X117.0201 Y-85.9799
G01 X116.9885 Y-85.9413
G01 X116.9650 Y-85.8973
G01 X116.9505 Y-85.8496
G01 X116.9469 Y-85.8132
G01 X116.9447 Y-85.7985
G01 X116.9403 Y-85.7804
G01 X116.9349 Y-85.7652
G01 X116.9270 Y-85.7483
G01 X116.9181 Y-85.7334
G01 X116.9077 Y-85.7195
G01 X116.8961 Y-85.7066
G01 X116.8832 Y-85.6949
G01 X116.8712 Y-85.6860
G01 X116.8521 Y-85.6745
G01 X116.8386 Y-85.6682
G01 X116.8223 Y-85.6624
G01 X116.8054 Y-85.6581
G01 X116.7894 Y-85.6557
G01 X116.7709 Y-85.6547
G01 X116.5087 Y-85.6547
G01 X116.4700 Y-85.6509
G01 X116.4411 Y-85.6422
G01 X116.4145 Y-85.6279
G01 X116.3912 Y-85.6088
G01 X116.3721 Y-85.5855
G00 Z2.0000
G00 X116.4500 Y-84.7000
G01 F60.00
G01 Z-2.4000
G01 F120.00
G01 X116.4500 Y-85.5012
G01 X116.4510 Y-85.5098
G01 X116.4529 Y-85.5168
G01 X116.4565 Y-85.5246
G01 X116.4606 Y-85.5308
G01 X116.4638 Y-85.5345
G01 X116.4683 Y-85.5387
G01 X116.4733 Y-85.5422
G01 X116.4775 Y-85.5447
G01 X116.4820 Y-85.5466
G01 X116.4879 Y-85.5485
G01 X116.4939 Y-85.5496
G01 X116.4988 Y-85.5500
G01 X117.0500 Y-85.5500
G01 X117.0500 Y-85.8000
G01 X117.0505 Y-85.8123
G01 X117.0528 Y-85.8293
G01 X117.0564 Y-85.8436
G01 X117.0614 Y-85.8574
G01 X117.0677 Y-85.8707
G01 X117.0752 Y-85.8834
G01 X117.0825 Y-85.8933
G01 X117.0939 Y-85.9061
G01 X117.3939 Y-86.2061
G01 X117.4058 Y-86.2168
G01 X117.4166 Y-86.2248
G01 X117.4271 Y-86.2311
G01 X117.4426 Y-86.2386
G01 X117.4564 Y-86.2436
G01 X117.4683 Y-86.2466
G01 X117.4865 Y-86.2494
G01 X117.5000 Y-86.2500
G01 X117.9278 Y-86.2500
G01 X118.3400 Y-86.6622
G01 X118.3400 Y-86.9925
G01 X118.3408 Y-87.0059
G01 X118.3434 Y-87.0217
G01 X118.3472 Y-87.0359
G01 X118.3514 Y-87.0474
G01 X118.3550 Y-87.0551
G01 X118.3550 Y-87.0643
G01 X118.3491 Y-87.0712
G01 X118.3443 Y-87.0797
G01 X118.3412 Y-87.0890
G01 X118.3400 Y-87.0988
G01 X118.3400 Y-87.4512
G01 X118.3407 Y-87.4585
G01 X118.3422 Y-87.4645
G01 X118.3443 Y-87.4703
G01 X118.3471 Y-87.4757
G01 X118.3506 Y-87.4808
G01 X118.3546 Y-87.4854
G01 X118.3592 Y-87.4894
G01 X118.3643 Y-87.4929
G01 X118.3697 Y-87.4957
G01 X118.3755 Y-87.4978
G01 X118.3815 Y-87.4993
G01 X118.3875 Y-87.4999
G01 X118.6225 Y-87.4999
G01 X118.6310 Y-87.4988
G01 X118.6380 Y-87.4966
G01 X118.6446 Y-87.4935
G01 X118.6508 Y-87.4894
G01 X118.6545 Y-87.4862
G01 X118.6587 Y-87.4817
G01 X118.6622 Y-87.4767
G01 X118.6647 Y-87.4725
G01 X118.6671 Y-87.4668
G01 X118.6685 Y-87.4621
G01 X118.6699 Y-87.4525
G01 X118.6699 Y-87.0975
G01 X118.6685 Y-87.0879
G01 X118.6657 Y-87.0797
G01 X118.6609 Y-87.0712
G01 X118.6550 Y-87.0643
G01 X118.6550 Y-87.0050
G01 X118.6542 Y-86.9891
G01 X118.6522 Y-86.9757
G01 X118.6489 Y-86.9626
G01 X118.6441 Y-86.9487
G01 X118.6401 Y-86.9399
G01 X118.6401 Y-86.6000
G01 X118.6393 Y-86.5853
G01 X118.6372 Y-86.5707
G01 X118.6342 Y-86.5588
G01 X118.6286 Y-86.5426
G01 X118.6211 Y-86.5271
G01 X118.6148 Y-86.5166
G01 X118.6075 Y-86.5067
G01 X118.5961 Y-86.4939
G01 X118.0961 Y-85.9939
G01 X118.0852 Y-85.9840
G01 X118.0713 Y-85.9739
G01 X118.0607 Y-85.9677
G01 X118.0497 Y-85.9624
G01 X118.0336 Y-85.9564
G01 X118.0169 Y-85.9524
G01 X118.0047 Y-85.9507
G01 X117.9925 Y-85.9500
G01 X117.5622 Y-85.9500
G01 X117.3500 Y-85.7378
G01 X117.3501 Y-85.5500
G01 X117.9037 Y-85.5499
G01 X117.9121 Y-85.5485
G01 X117.9203 Y-85.5457
G01 X117.9278 Y-85.5416
G01 X117.9345 Y-85.5362
G01 X117.9402 Y-85.5298
G01 X117.9447 Y-85.5225
G01 X117.9478 Y-85.5145
G01 X117.9498 Y-85.5049
G01 X117.9500 Y-83.5000
G01 X117.9495 Y-83.4927
G01 X117.9478 Y-83.4855
G01 X117.9447 Y-83.4775
G01 X117.9409 Y-83.4712
G01 X117.9362 Y-83.4655
G01 X117.6354 Y-83.1646
G01 X117.6308 Y-83.1606
G01 X117.6236 Y-83.1559
G01 X117.6168 Y-83.1529
G01 X117.6085 Y-83.1507
G01 X117.6000 Y-83.1500
G01 X116.8000 Y-83.1500
G01 X116.7927 Y-83.1505
G01 X116.7867 Y-83.1518
G01 X116.7809 Y-83.1538
G01 X116.7754 Y-83.1565
G01 X116.7702 Y-83.1598
G01 X116.7655 Y-83.1638
G01 X116.4646 Y-83.4646
G01 X116.4606 Y-83.4692
G01 X116.4559 Y-83.4764
G01 X116.4525 Y-83.4843
G01 X116.4507 Y-83.4915
G01 X116.4500 Y-83.5000
G01 X116.4500 Y-84.7000
G00 Z2.0000
G00 X118.3721 Y-85.5855
G01 F60.00
G01 Z-2.4000
G01 F120.00
G01 X118.3556 Y-85.5547
G01 X118.3472 Y-85.5408
G01 X118.3369 Y-85.5269
G01 X118.3261 Y-85.5149
G01 X118.3123 Y-85.5023
G01 X118.2984 Y-85.4920
G01 X118.2835 Y-85.4831
G01 X118.2678 Y-85.4756
G01 X118.2514 Y-85.4698
G01 X118.2345 Y-85.4655
G01 X118.2174 Y-85.4630
G01 X118.1975 Y-85.4622
G01 X118.1802 Y-85.4633
G01 X118.1655 Y-85.4655
G01 X118.1510 Y-85.4691
G01 X118.1322 Y-85.4756
G01 X118.1176 Y-85.4825
G01 X118.1016 Y-85.4920
G01 X118.0877 Y-85.5023
G01 X118.0748 Y-85.5140
G01 X118.0624 Y-85.5278
G01 X118.0528 Y-85.5408
G01 X118.0451 Y-85.5536
G01 X118.0279 Y-85.5855
G01 X118.0220 Y-85.5929
G01 X118.0118 Y-85.6070
G01 X118.0042 Y-85.6198
G01 X117.9968 Y-85.6355
G01 X117.9909 Y-85.6519
G01 X117.9867 Y-85.6687
G01 X117.9841 Y-85.6859
G01 X117.9833 Y-85.7033
G01 X117.9841 Y-85.7206
G01 X117.9867 Y-85.7378
G01 X117.9909 Y-85.7547
G01 X117.9963 Y-85.7699
G01 X118.0042 Y-85.7867
G01 X118.0131 Y-85.8016
G01 X118.0235 Y-85.8156
G01 X118.0360 Y-85.8293
G01 X118.0480 Y-85.8401
G01 X118.0630 Y-85.8511
G01 X118.0769 Y-85.8594
G01 X118.1313 Y-85.8885
G01 X118.1699 Y-85.9201
G01 X118.1839 Y-85.9360
G01 X118.4321 Y-86.1841
G01 X118.4450 Y-86.1958
G01 X118.4580 Y-86.2055
G01 X118.4739 Y-86.2151
G01 X118.4919 Y-86.2234
G01 X118.5059 Y-86.2284
G01 X118.5204 Y-86.2321
G01 X118.5400 Y-86.2352
G01 X118.5573 Y-86.2360
G01 X118.5771 Y-86.2349
G01 X118.5919 Y-86.2326
G01 X118.6064 Y-86.2290
G01 X118.6240 Y-86.2230
G01 X118.6408 Y-86.2151
G01 X118.6557 Y-86.2062
G01 X118.6697 Y-86.1958
G01 X118.6834 Y-86.1833
G01 X118.6942 Y-86.1713
G01 X118.7046 Y-86.1573
G01 X118.7129 Y-86.1435
G01 X118.7235 Y-86.1237
G01 X118.7551 Y-86.0851
G01 X118.7710 Y-86.0711
G01 X118.8850 Y-85.9570
G01 X118.8967 Y-85.9441
G01 X118.9070 Y-85.9302
G01 X118.9171 Y-85.9131
G01 X118.9234 Y-85.8996
G01 X118.9285 Y-85.8855
G01 X118.9335 Y-85.8663
G01 X118.9360 Y-85.8492
G01 X118.9369 Y-85.8318
G01 X118.9357 Y-85.8120
G01 X118.9335 Y-85.7973
G01 X118.9299 Y-85.7828
G01 X118.9239 Y-85.7652
G01 X118.9160 Y-85.7483
G01 X118.9070 Y-85.7334
G01 X118.8967 Y-85.7195
G01 X118.8832 Y-85.7049
G01 X118.8721 Y-85.6949
G01 X118.8602 Y-85.6860
G01 X118.8454 Y-85.6769
G01 X118.8276 Y-85.6682
G01 X118.8124 Y-85.6627
G01 X118.7919 Y-85.6577
G01 X118.7772 Y-85.6556
G01 X118.7610 Y-85.6547
G01 X118.5087 Y-85.6547
G01 X118.4700 Y-85.6509
G01 X118.4411 Y-85.6422
G01 X118.4145 Y-85.6279
G01 X118.3912 Y-85.6088
G01 X118.3721 Y-85.5855
G00 Z2.0000
G00 X119.4532 Y-85.8682
G01 F60.00
G01 Z-2.4000
G01 F120.00
G01 X119.4541 Y-85.8843
G01 X119.4571 Y-85.9026
G01 X119.4615 Y-85.9194
G01 X119.4666 Y-85.9335
G01 X119.4729 Y-85.9470
G01 X119.4830 Y-85.9641
G01 X119.4933 Y-85.9780
G01 X119.5050 Y-85.9909
G01 X119.5179 Y-86.0026
G01 X119.5318 Y-86.0129
G01 X119.5467 Y-86.0219
G01 X119.5624 Y-86.0293
G01 X119.5812 Y-86.0358
G01 X119.5957 Y-86.0394
G01 X119.6104 Y-86.0416
G01 X119.6277 Y-86.0427
G01 X119.6476 Y-86.0419
G01 X119.6635 Y-86.0396
G01 X119.6816 Y-86.0351
G01 X119.6980 Y-86.0293
G01 X119.7137 Y-86.0219
G01 X119.7306 Y-86.0115
G01 X119.7425 Y-86.0026
G01 X119.7536 Y-85.9926
G01 X119.7893 Y-85.9570
G01 X119.8010 Y-85.9441
G01 X119.8099 Y-85.9322
G01 X119.8203 Y-85.9153
G01 X119.8277 Y-85.8996
G01 X119.8335 Y-85.8832
G01 X119.8378 Y-85.8663
G01 X119.8403 Y-85.8492
G01 X119.8412 Y-85.8318
G01 X119.8403 Y-85.8144
G01 X119.8380 Y-85.7985
G01 X119.8335 Y-85.7804
G01 X119.8277 Y-85.7640
G01 X119.8203 Y-85.7483
G01 X119.8099 Y-85.7314
G01 X119.8002 Y-85.7185
G01 X119.7875 Y-85.7049
G01 X119.7764 Y-85.6949
G01 X119.7645 Y-85.6860
G01 X119.7497 Y-85.6769
G01 X119.7319 Y-85.6682
G01 X119.7155 Y-85.6624
G01 X119.6987 Y-85.6581
G01 X119.6827 Y-85.6557
G01 X119.6653 Y-85.6547
G01 X119.6290 Y-85.6547
G01 X119.6128 Y-85.6556
G01 X119.5969 Y-85.6579
G01 X119.5788 Y-85.6624
G01 X119.5624 Y-85.6682
G01 X119.5467 Y-85.6756
G01 X119.5318 Y-85.6846
G01 X119.5179 Y-85.6949
G01 X119.5050 Y-85.7066
G01 X119.4933 Y-85.7195
G01 X119.4830 Y-85.7334
G01 X119.4740 Y-85.7483
G01 X119.4666 Y-85.7640
G01 X119.4608 Y-85.7804
G01 X119.4568 Y-85.7961
G01 X119.4538 Y-85.8169
G01 X119.4531 Y-85.8318
G01 X119.4532 Y-85.8682
G00 Z2.0000
G00 X120.1836 Y-85.8469
G01 F60.00
G01 Z-2.4000
G01 F120.00
G01 X120.2176 Y-85.8468
G01 X120.2337 Y-85.8460
G01 X120.2509 Y-85.8435
G01 X120.2666 Y-85.8396
G01 X120.2841 Y-85.8334
G01 X120.2998 Y-85.8260
G01 X120.3147 Y-85.8170
G01 X120.3277 Y-85.8074
G01 X120.3416 Y-85.7950
G01 X120.3532 Y-85.7821
G01 X120.3636 Y-85.7682
G01 X120.3725 Y-85.7533
G01 X120.3799 Y-85.7376
G01 X120.3858 Y-85.7212
G01 X120.3900 Y-85.7043
G01 X120.3926 Y-85.6872
G01 X120.3934 Y-85.6698
G01 X120.3926 Y-85.6524
G01 X120.3900 Y-85.6353
G01 X120.3850 Y-85.6161
G01 X120.3799 Y-85.6020
G01 X120.3736 Y-85.5885
G01 X120.3562 Y-85.5557
G01 X120.3472 Y-85.5408
G01 X120.3376 Y-85.5278
G01 X120.3252 Y-85.5140
G01 X120.3123 Y-85.5023
G01 X120.2984 Y-85.4920
G01 X120.2835 Y-85.4831
G01 X120.2678 Y-85.4756
G01 X120.2514 Y-85.4698
G01 X120.2345 Y-85.4655
G01 X120.2174 Y-85.4630
G01 X120.2000 Y-85.4621
G01 X120.1826 Y-85.4630
G01 X120.1655 Y-85.4655
G01 X120.1486 Y-85.4698
G01 X120.1322 Y-85.4756
G01 X120.1165 Y-85.4831
G01 X120.1016 Y-85.4920
G01 X120.0858 Y-85.5039
G01 X120.0748 Y-85.5140
G01 X120.0647 Y-85.5250
G01 X120.0535 Y-85.5398
G01 X120.0444 Y-85.5547
G01 X120.0275 Y-85.5863
G01 X120.0201 Y-85.6020
G01 X120.0142 Y-85.6184
G01 X120.0100 Y-85.6353
G01 X120.0074 Y-85.6524
G01 X120.0066 Y-85.6698
G01 X120.0074 Y-85.6872
G01 X120.0100 Y-85.7043
G01 X120.0150 Y-85.7235
G01 X120.0205 Y-85.7387
G01 X120.0287 Y-85.7554
G01 X120.0378 Y-85.7702
G01 X120.0468 Y-85.7821
G01 X120.0568 Y-85.7932
G01 X120.0713 Y-85.8067
G01 X120.0853 Y-85.8170
G01 X120.1002 Y-85.8260
G01 X120.1159 Y-85.8334
G01 X120.1323 Y-85.8392
G01 X120.1491 Y-85.8435
G01 X120.1663 Y-85.8460
G01 X120.1836 Y-85.8469
G00 Z2.0000
G00 X121.4339 Y-86.0011
G01 F60.00
G01 Z-2.4000
G01 F120.00
G01 X121.4276 Y-86.0184
G01 X121.4230 Y-86.0377
G01 X121.4208 Y-86.0525
G01 X121.4200 Y-86.0674
G01 X121.4208 Y-86.0872
G01 X121.4234 Y-86.1044
G01 X121.4284 Y-86.1235
G01 X121.4335 Y-86.1376
G01 X121.4398 Y-86.1511
G01 X121.4498 Y-86.1682
G01 X121.4618 Y-86.1840
G01 X121.4718 Y-86.1950
G01 X121.4829 Y-86.2051
G01 X121.4987 Y-86.2170
G01 X121.5136 Y-86.2260
G01 X121.5316 Y-86.2343
G01 X121.5456 Y-86.2392
G01 X121.5601 Y-86.2429
G01 X121.5797 Y-86.2460
G01 X121.5970 Y-86.2469
G01 X122.7218 Y-86.2469
G01 X122.7392 Y-86.2460
G01 X122.7539 Y-86.2439
G01 X122.7732 Y-86.2392
G01 X122.7918 Y-86.2324
G01 X122.8053 Y-86.2260
G01 X122.8181 Y-86.2183
G01 X122.8351 Y-86.2059
G01 X122.8470 Y-86.1950
G01 X122.9950 Y-86.0470
G01 X123.0067 Y-86.0341
G01 X123.0170 Y-86.0202
G01 X123.0260 Y-86.0053
G01 X123.0343 Y-85.9873
G01 X123.0399 Y-85.9708
G01 X123.0435 Y-85.9563
G01 X123.0457 Y-85.9416
G01 X123.0469 Y-85.9218
G01 X123.0469 Y-85.8318
G01 X123.0460 Y-85.8144
G01 X123.0435 Y-85.7973
G01 X123.0392 Y-85.7804
G01 X123.0334 Y-85.7640
G01 X123.0260 Y-85.7483
G01 X123.0170 Y-85.7334
G01 X123.0067 Y-85.7195
G01 X122.9950 Y-85.7066
G01 X122.9821 Y-85.6949
G01 X122.9661 Y-85.6833
G01 X122.9533 Y-85.6756
G01 X122.9376 Y-85.6682
G01 X122.9188 Y-85.6617
G01 X122.9043 Y-85.6581
G01 X122.8872 Y-85.6556
G01 X122.8698 Y-85.6547
G01 X122.6087 Y-85.6547
G01 X122.5700 Y-85.6509
G01 X122.5411 Y-85.6422
G01 X122.5145 Y-85.6279
G01 X122.4912 Y-85.6088
G01 X122.4721 Y-85.5855
G01 X122.4578 Y-85.5589
G01 X122.4491 Y-85.5300
G01 X122.4453 Y-85.4913
G01 X122.4453 Y-84.7270
G01 X122.4444 Y-84.7096
G01 X122.4419 Y-84.6925
G01 X122.4369 Y-84.6733
G01 X122.4318 Y-84.6592
G01 X122.4255 Y-84.6457
G01 X122.4167 Y-84.6307
G01 X122.4051 Y-84.6147
G01 X122.3934 Y-84.6018
G01 X122.3805 Y-84.5901
G01 X122.3666 Y-84.5798
G01 X122.3517 Y-84.5708
G01 X122.3337 Y-84.5625
G01 X122.3196 Y-84.5576
G01 X122.3051 Y-84.5539
G01 X122.2868 Y-84.5509
G01 X122.2682 Y-84.5499
G01 X122.2306 Y-84.5500
G01 X122.2157 Y-84.5507
G01 X122.1973 Y-84.5533
G01 X122.1804 Y-84.5576
G01 X122.1618 Y-84.5644
G01 X122.1483 Y-84.5708
G01 X122.1355 Y-84.5785
G01 X122.1195 Y-84.5901
G01 X122.1066 Y-84.6018
G01 X122.0949 Y-84.6147
G01 X122.0833 Y-84.6307
G01 X122.0756 Y-84.6435
G01 X122.0692 Y-84.6570
G01 X122.0627 Y-84.6744
G01 X122.0577 Y-84.6949
G01 X122.0556 Y-84.7096
G01 X122.0547 Y-84.7270
G01 X122.0547 Y-85.4913
G01 X122.0509 Y-85.5300
G01 X122.0422 Y-85.5589
G01 X122.0279 Y-85.5855
G01 X122.0088 Y-85.6088
G01 X121.9855 Y-85.6279
G01 X121.9589 Y-85.6422
G01 X121.9300 Y-85.6509
G01 X121.8913 Y-85.6547
G01 X121.6302 Y-85.6547
G01 X121.6141 Y-85.6555
G01 X121.5957 Y-85.6581
G01 X121.5765 Y-85.6631
G01 X121.5624 Y-85.6682
G01 X121.5489 Y-85.6745
G01 X121.5308 Y-85.6853
G01 X121.5179 Y-85.6949
G01 X121.5050 Y-85.7066
G01 X121.4933 Y-85.7195
G01 X121.4844 Y-85.7314
G01 X121.4729 Y-85.7505
G01 X121.4666 Y-85.7640
G01 X121.4608 Y-85.7804
G01 X121.4565 Y-85.7973
G01 X121.4539 Y-85.8157
G01 X121.4531 Y-85.8318
G01 X121.4531 Y-85.8789
G01 X121.4544 Y-85.9000
G01 X121.4495 Y-85.9496
G01 X121.4339 Y-86.0011
G00 Z2.0000
G00 X119.6449 Y-87.0643
G01 F60.00
G01 Z-2.4000
G01 F120.00
G01 X119.6391 Y-87.0712
G01 X119.6343 Y-87.0797
G01 X119.6312 Y-87.0890
G01 X119.6300 Y-87.0988
G01 X119.6300 Y-87.4512
G01 X119.6305 Y-87.4573
G01 X119.6322 Y-87.4645
G01 X119.6348 Y-87.4714
G01 X119.6378 Y-87.4767
G01 X119.6413 Y-87.4817
G01 X119.6446 Y-87.4854
G01 X119.6492 Y-87.4894
G01 X119.6543 Y-87.4929
G01 X119.6586 Y-87.4952
G01 X119.6643 Y-87.4975
G01 X119.6702 Y-87.4990
G01 X119.6763 Y-87.4999
G01 X119.9100 Y-87.5000
G01 X119.9161 Y-87.4996
G01 X119.9245 Y-87.4978
G01 X119.9325 Y-87.4947
G01 X119.9408 Y-87.4894
G01 X119.9470 Y-87.4836
G01 X119.9522 Y-87.4767
G01 X119.9562 Y-87.4691
G01 X119.9588 Y-87.4610
G01 X119.9599 Y-87.4525
G01 X119.9600 Y-87.0988
G01 X119.9588 Y-87.0890
G01 X119.9557 Y-87.0797
G01 X119.9509 Y-87.0712
G01 X119.9450 Y-87.0643
G01 X119.9450 Y-86.9372
G01 X120.2322 Y-86.6500
G01 X122.9012 Y-86.6500
G01 X122.9147 Y-86.6493
G01 X122.9293 Y-86.6472
G01 X122.9436 Y-86.6436
G01 X122.9551 Y-86.6395
G01 X122.9729 Y-86.6311
G01 X122.9834 Y-86.6248
G01 X122.9952 Y-86.6160
G01 X123.0061 Y-86.6061
G01 X123.4070 Y-86.2052
G01 X123.4160 Y-86.1952
G01 X123.4248 Y-86.1834
G01 X123.4323 Y-86.1707
G01 X123.4386 Y-86.1574
G01 X123.4436 Y-86.1436
G01 X123.4472 Y-86.1293
G01 X123.4493 Y-86.1147
G01 X123.4500 Y-86.1012
G01 X123.4501 Y-85.5500
G01 X124.0025 Y-85.5499
G01 X124.0098 Y-85.5490
G01 X124.0168 Y-85.5471
G01 X124.0236 Y-85.5441
G01 X124.0298 Y-85.5402
G01 X124.0354 Y-85.5354
G01 X124.0402 Y-85.5298
G01 X124.0441 Y-85.5236
G01 X124.0475 Y-85.5157
G01 X124.0495 Y-85.5073
G01 X124.0500 Y-85.5000
G01 X124.0500 Y-83.5000
G01 X124.0493 Y-83.4915
G01 X124.0471 Y-83.4832
G01 X124.0435 Y-83.4754
G01 X124.0387 Y-83.4683
G01 X123.7345 Y-83.1638
G01 X123.7298 Y-83.1598
G01 X123.7246 Y-83.1565
G01 X123.7191 Y-83.1538
G01 X123.7133 Y-83.1518
G01 X123.7061 Y-83.1504
G01 X123.7000 Y-83.1500
G01 X122.9000 Y-83.1500
G01 X122.8902 Y-83.1510
G01 X122.8809 Y-83.1538
G01 X122.8733 Y-83.1578
G01 X122.8655 Y-83.1638
G01 X122.5646 Y-83.4646
G01 X122.5584 Y-83.4722
G01 X122.5538 Y-83.4809
G01 X122.5510 Y-83.4902
G01 X122.5500 Y-83.5000
G01 X122.5500 Y-85.5000
G01 X122.5504 Y-85.5061
G01 X122.5518 Y-85.5133
G01 X122.5543 Y-85.5203
G01 X122.5584 Y-85.5278
G01 X122.5638 Y-85.5345
G01 X122.5692 Y-85.5394
G01 X122.5754 Y-85.5435
G01 X122.5820 Y-85.5466
G01 X122.5902 Y-85.5490
G01 X122.5975 Y-85.5499
G01 X123.1500 Y-85.5500
G01 X123.1500 Y-86.0378
G01 X122.8378 Y-86.3500
G01 X120.1700 Y-86.3500
G01 X120.1553 Y-86.3507
G01 X120.1395 Y-86.3531
G01 X120.1264 Y-86.3564
G01 X120.1149 Y-86.3605
G01 X120.0993 Y-86.3677
G01 X120.0846 Y-86.3767
G01 X120.0748 Y-86.3840
G01 X120.0648 Y-86.3930
G01 X119.6889 Y-86.7689
G01 X119.6790 Y-86.7798
G01 X119.6709 Y-86.7906
G01 X119.6627 Y-86.8043
G01 X119.6555 Y-86.8199
G01 X119.6514 Y-86.8314
G01 X119.6484 Y-86.8433
G01 X119.6457 Y-86.8603
G01 X119.6450 Y-86.8750
G01 X119.6449 Y-87.0643
G00 Z2.0000
G00 X118.4347 Y-87.7818
G01 F60.00
G01 Z-2.4000
G01 F120.00
G01 X118.4347 Y-87.7960
G01 X118.4355 Y-87.8109
G01 X118.4377 Y-87.8269
G01 X118.4420 Y-87.8450
G01 X118.4473 Y-87.8603
G01 X118.4556 Y-87.8783
G01 X118.4646 Y-87.8932
G01 X118.4749 Y-87.9071
G01 X118.4857 Y-87.9191
G01 X118.4995 Y-87.9317
G01 X118.5134 Y-87.9420
G01 X118.5283 Y-87.9510
G01 X118.5440 Y-87.9584
G01 X118.5604 Y-87.9642
G01 X118.5773 Y-87.9685
G01 X118.5944 Y-87.9710
G01 X118.6118 Y-87.9719
G01 X118.6292 Y-87.9710
G01 X118.6463 Y-87.9685
G01 X118.6632 Y-87.9642
G01 X118.6818 Y-87.9574
G01 X118.6963 Y-87.9504
G01 X118.7122 Y-87.9406
G01 X118.7260 Y-87.9301
G01 X118.7361 Y-87.9209
G01 X118.7505 Y-87.9065
G01 X118.7622 Y-87.8936
G01 X118.7726 Y-87.8796
G01 X118.7815 Y-87.8647
G01 X118.7889 Y-87.8490
G01 X118.7948 Y-87.8327
G01 X118.7990 Y-87.8158
G01 X118.8015 Y-87.7986
G01 X118.8024 Y-87.7813
G01 X118.8015 Y-87.7639
G01 X118.7990 Y-87.7467
G01 X118.7948 Y-87.7299
G01 X118.7889 Y-87.7135
G01 X118.7815 Y-87.6978
G01 X118.7726 Y-87.6829
G01 X118.7622 Y-87.6690
G01 X118.7505 Y-87.6561
G01 X118.7377 Y-87.6444
G01 X118.7237 Y-87.6341
G01 X118.7088 Y-87.6251
G01 X118.6931 Y-87.6177
G01 X118.6767 Y-87.6118
G01 X118.6599 Y-87.6076
G01 X118.6427 Y-87.6051
G01 X118.6253 Y-87.6042
G01 X118.5957 Y-87.6055
G01 X118.5785 Y-87.6079
G01 X118.5604 Y-87.6124
G01 X118.5452 Y-87.6178
G01 X118.5283 Y-87.6256
G01 X118.5134 Y-87.6346
G01 X118.4995 Y-87.6449
G01 X118.4875 Y-87.6557
G01 X118.4749 Y-87.6695
G01 X118.4646 Y-87.6834
G01 X118.4556 Y-87.6983
G01 X118.4482 Y-87.7140
G01 X118.4424 Y-87.7304
G01 X118.4381 Y-87.7473
G01 X118.4356 Y-87.7644
G01 X118.4347 Y-87.7818
G00 Z2.0000
G00 X118.6112 Y-89.3953
G01 F60.00
G01 Z-2.4000
G01 F120.00
G01 X118.6500 Y-89.3991
G01 X118.6698 Y-89.4051
G01 X118.6855 Y-89.4089
G01 X118.7026 Y-89.4115
G01 X118.7200 Y-89.4123
G01 X118.7374 Y-89.4115
G01 X118.7545 Y-89.4089
G01 X118.7702 Y-89.4051
G01 X118.7900 Y-89.3991
G01 X118.8287 Y-89.3953
G01 X119.0413 Y-89.3953
G01 X119.0800 Y-89.3991
G01 X119.0998 Y-89.4051
G01 X119.1155 Y-89.4089
G01 X119.1326 Y-89.4115
G01 X119.1500 Y-89.4123
G01 X119.1674 Y-89.4115
G01 X119.1845 Y-89.4089
G01 X119.2002 Y-89.4051
G01 X119.2200 Y-89.3991
G01 X119.2587 Y-89.3953
G01 X119.4713 Y-89.3953
G01 X119.5100 Y-89.3991
G01 X119.5298 Y-89.4051
G01 X119.5455 Y-89.4089
G01 X119.5626 Y-89.4115
G01 X119.5800 Y-89.4123
G01 X119.5974 Y-89.4115
G01 X119.6145 Y-89.4089
G01 X119.6302 Y-89.4051
G01 X119.6500 Y-89.3991
G01 X119.6887 Y-89.3953
G01 X119.9013 Y-89.3953
G01 X119.9400 Y-89.3991
G01 X119.9598 Y-89.4051
G01 X119.9755 Y-89.4089
G01 X119.9926 Y-89.4115
G01 X120.0100 Y-89.4123
G01 X120.0274 Y-89.4115
G01 X120.0445 Y-89.4089
G01 X120.0602 Y-89.4051
G01 X120.0800 Y-89.3991
G01 X120.1187 Y-89.3953
G01 X120.3313 Y-89.3953
G01 X120.3700 Y-89.3991
G01 X120.3898 Y-89.4051
G01 X120.4079 Y-89.4094
G01 X120.4226 Y-89.4115
G01 X120.4412 Y-89.4123
G01 X120.4574 Y-89.4115
G01 X120.4745 Y-89.4089
G01 X120.4902 Y-89.4051
G01 X120.5100 Y-89.3991
G01 X120.5488 Y-89.3953
G01 X120.5668 Y-89.3943
G01 X120.5827 Y-89.3919
G01 X120.5972 Y-89.3883
G01 X120.6160 Y-89.3818
G01 X120.6317 Y-89.3744
G01 X120.6466 Y-89.3654
G01 X120.6605 Y-89.3551
G01 X120.6734 Y-89.3434
G01 X120.6851 Y-89.3305
G01 X120.6954 Y-89.3166
G01 X120.7031 Y-89.3038
G01 X120.7127 Y-89.2837
G01 X120.7176 Y-89.2696
G01 X120.7219 Y-89.2527
G01 X120.7244 Y-89.2356
G01 X120.7253 Y-89.2194
G01 X120.7253 Y-89.0387
G01 X120.7291 Y-89.0000
G01 X120.7351 Y-88.9802
G01 X120.7389 Y-88.9645
G01 X120.7415 Y-88.9474
G01 X120.7423 Y-88.9312
G01 X120.7415 Y-88.9126
G01 X120.7394 Y-88.8979
G01 X120.7351 Y-88.8798
G01 X120.7291 Y-88.8600
G01 X120.7253 Y-88.8213
G01 X120.7253 Y-88.6087
G01 X120.7291 Y-88.5700
G01 X120.7351 Y-88.5502
G01 X120.7389 Y-88.5345
G01 X120.7415 Y-88.5174
G01 X120.7423 Y-88.5000
G01 X120.7415 Y-88.4826
G01 X120.7389 Y-88.4655
G01 X120.7351 Y-88.4498
G01 X120.7291 Y-88.4300
G01 X120.7253 Y-88.3913
G01 X120.7253 Y-88.1787
G01 X120.7291 Y-88.1400
G01 X120.7351 Y-88.1202
G01 X120.7394 Y-88.1021
G01 X120.7416 Y-88.0861
G01 X120.7423 Y-88.0675
G01 X120.7415 Y-88.0526
G01 X120.7389 Y-88.0355
G01 X120.7351 Y-88.0198
G01 X120.7291 Y-88.0000
G01 X120.7253 Y-87.9613
G01 X120.7253 Y-87.7818
G01 X120.7241 Y-87.7620
G01 X120.7219 Y-87.7473
G01 X120.7183 Y-87.7328
G01 X120.7118 Y-87.7140
G01 X120.7044 Y-87.6983
G01 X120.6967 Y-87.6855
G01 X120.6851 Y-87.6695
G01 X120.6716 Y-87.6549
G01 X120.6605 Y-87.6449
G01 X120.6466 Y-87.6346
G01 X120.6295 Y-87.6245
G01 X120.6160 Y-87.6182
G01 X120.6019 Y-87.6131
G01 X120.5827 Y-87.6081
G01 X120.5668 Y-87.6057
G01 X120.5488 Y-87.6047
G01 X120.5100 Y-87.6009
G01 X120.4902 Y-87.5949
G01 X120.4757 Y-87.5913
G01 X120.4549 Y-87.5883
G01 X120.4400 Y-87.5877
G01 X120.4214 Y-87.5886
G01 X120.4031 Y-87.5916
G01 X120.3898 Y-87.5949
G01 X120.3700 Y-87.6009
G01 X120.3313 Y-87.6047
G01 X120.1187 Y-87.6047
G01 X120.0800 Y-87.6009
G01 X120.0602 Y-87.5949
G01 X120.0421 Y-87.5906
G01 X120.0261 Y-87.5884
G01 X120.0075 Y-87.5877
G01 X119.9926 Y-87.5885
G01 X119.9755 Y-87.5911
G01 X119.9598 Y-87.5949
G01 X119.9400 Y-87.6009
G01 X119.9013 Y-87.6047
G01 X119.7746 Y-87.6047
G01 X119.7572 Y-87.6056
G01 X119.7400 Y-87.6081
G01 X119.7255 Y-87.6117
G01 X119.7068 Y-87.6182
G01 X119.6890 Y-87.6269
G01 X119.6762 Y-87.6346
G01 X119.6642 Y-87.6434
G01 X119.6494 Y-87.6566
G01 X119.6369 Y-87.6704
G01 X119.6274 Y-87.6834
G01 X119.6179 Y-87.6994
G01 X119.6105 Y-87.7152
G01 X119.6055 Y-87.7292
G01 X119.6000 Y-87.7473
G01 X119.5765 Y-87.7913
G01 X119.5449 Y-87.8299
G01 X119.5291 Y-87.8439
G01 X118.9239 Y-88.4490
G01 X118.9099 Y-88.4649
G01 X118.8713 Y-88.4965
G01 X118.8273 Y-88.5200
G01 X118.7796 Y-88.5345
G01 X118.7300 Y-88.5394
G01 X118.7089 Y-88.5381
G01 X118.6106 Y-88.5382
G01 X118.5944 Y-88.5390
G01 X118.5761 Y-88.5418
G01 X118.5581 Y-88.5465
G01 X118.5440 Y-88.5516
G01 X118.5305 Y-88.5579
G01 X118.5134 Y-88.5680
G01 X118.4995 Y-88.5783
G01 X118.4866 Y-88.5900
G01 X118.4749 Y-88.6029
G01 X118.4646 Y-88.6168
G01 X118.4556 Y-88.6317
G01 X118.4482 Y-88.6474
G01 X118.4424 Y-88.6638
G01 X118.4381 Y-88.6807
G01 X118.4356 Y-88.6978
G01 X118.4347 Y-88.7152
G01 X118.4347 Y-88.8213
G01 X118.4309 Y-88.8600
G01 X118.4249 Y-88.8798
G01 X118.4211 Y-88.8955
G01 X118.4185 Y-88.9126
G01 X118.4177 Y-88.9300
G01 X118.4185 Y-88.9474
G01 X118.4211 Y-88.9645
G01 X118.4249 Y-88.9802
G01 X118.4309 Y-89.0000
G01 X118.4347 Y-89.0387
G01 X118.4347 Y-89.2182
G01 X118.4359 Y-89.2380
G01 X118.4381 Y-89.2527
G01 X118.4424 Y-89.2696
G01 X118.4482 Y-89.2860
G01 X118.4556 Y-89.3017
G01 X118.4646 Y-89.3166
G01 X118.4749 Y-89.3305
G01 X118.4866 Y-89.3434
G01 X118.4976 Y-89.3535
G01 X118.5155 Y-89.3667
G01 X118.5294 Y-89.3749
G01 X118.5463 Y-89.3827
G01 X118.5604 Y-89.3876
G01 X118.5773 Y-89.3919
G01 X118.5944 Y-89.3944
G01 X118.6112 Y-89.3953
G00 Z2.0000
G00 X118.3567 Y-90.1639
G01 F60.00
G01 Z-2.4000
G01 F120.00
G01 X118.3490 Y-90.1767
G01 X118.3412 Y-90.1936
G01 X118.3358 Y-90.2088
G01 X118.3311 Y-90.2281
G01 X118.3290 Y-90.2428
G01 X118.3282 Y-90.2590
G01 X118.3281 Y-90.3278
G01 X118.3289 Y-90.3439
G01 X118.3315 Y-90.3624
G01 X118.3351 Y-90.3768
G01 X118.3426 Y-90.3978
G01 X118.3490 Y-90.4113
G01 X118.3580 Y-90.4262
G01 X118.3683 Y-90.4401
G01 X118.3791 Y-90.4521
G01 X118.3929 Y-90.4647
G01 X118.4068 Y-90.4750
G01 X118.4217 Y-90.4840
G01 X118.4374 Y-90.4914
G01 X118.4482 Y-90.4958
G01 X118.4622 Y-90.5009
G01 X118.4791 Y-90.5052
G01 X118.4974 Y-90.5080
G01 X118.5136 Y-90.5088
G01 X118.5322 Y-90.5080
G01 X118.5493 Y-90.5055
G01 X118.5662 Y-90.5012
G01 X118.5826 Y-90.4954
G01 X118.5983 Y-90.4880
G01 X118.6132 Y-90.4790
G01 X118.6271 Y-90.4687
G01 X118.6391 Y-90.4579
G01 X118.6517 Y-90.4441
G01 X118.6620 Y-90.4302
G01 X118.6710 Y-90.4153
G01 X118.6784 Y-90.3996
G01 X118.6842 Y-90.3832
G01 X118.6885 Y-90.3663
G01 X118.6910 Y-90.3492
G01 X118.6919 Y-90.3306
G01 X118.6909 Y-90.3132
G01 X118.6885 Y-90.2973
G01 X118.6856 Y-90.2857
G01 X118.6811 Y-90.2404
G01 X118.6789 Y-90.2256
G01 X118.6746 Y-90.2088
G01 X118.6688 Y-90.1924
G01 X118.6601 Y-90.1746
G01 X118.6524 Y-90.1618
G01 X118.6436 Y-90.1498
G01 X118.6313 Y-90.1359
G01 X118.6175 Y-90.1233
G01 X118.6036 Y-90.1130
G01 X118.5887 Y-90.1040
G01 X118.5707 Y-90.0957
G01 X118.5566 Y-90.0907
G01 X118.5421 Y-90.0871
G01 X118.5250 Y-90.0843
G01 X118.5052 Y-90.0831
G01 X118.4878 Y-90.0840
G01 X118.4707 Y-90.0865
G01 X118.4515 Y-90.0915
G01 X118.4352 Y-90.0976
G01 X118.4217 Y-90.1040
G01 X118.4089 Y-90.1117
G01 X118.3929 Y-90.1233
G01 X118.3800 Y-90.1350
G01 X118.3683 Y-90.1479
G01 X118.3567 Y-90.1639
G00 Z2.0000
G00 X117.9250 Y-90.6243
G01 F60.00
G01 Z-2.4000
G01 F120.00
G01 X117.8944 Y-90.6427
G01 X117.8501 Y-90.6756
G01 X117.8111 Y-90.7111
G01 X117.7741 Y-90.7520
G01 X117.7427 Y-90.7944
G01 X117.7149 Y-90.8407
G01 X117.6919 Y-90.8895
G01 X117.6733 Y-90.9415
G01 X117.6606 Y-90.9927
G01 X117.6526 Y-91.0461
G01 X117.6500 Y-91.1000
G01 X117.6526 Y-91.1539
G01 X117.6606 Y-91.2073
G01 X117.6737 Y-91.2597
G01 X117.6919 Y-91.3105
G01 X117.7155 Y-91.3603
G01 X117.7427 Y-91.4056
G01 X117.7748 Y-91.4489
G01 X117.8111 Y-91.4889
G01 X117.8511 Y-91.5252
G01 X117.8944 Y-91.5573
G01 X117.9407 Y-91.5851
G01 X117.9895 Y-91.6081
G01 X118.0403 Y-91.6263
G01 X118.0927 Y-91.6394
G01 X118.1461 Y-91.6474
G01 X118.2000 Y-91.6500
G01 X118.2539 Y-91.6474
G01 X118.3073 Y-91.6394
G01 X118.3597 Y-91.6263
G01 X118.4105 Y-91.6081
G01 X118.4603 Y-91.5845
G01 X118.5056 Y-91.5573
G01 X118.5470 Y-91.5267
G01 X118.5889 Y-91.4889
G01 X118.6252 Y-91.4489
G01 X118.6559 Y-91.4076
G01 X118.6851 Y-91.3593
G01 X118.7081 Y-91.3105
G01 X118.7255 Y-91.2620
G01 X118.7394 Y-91.2073
G01 X118.7474 Y-91.1539
G01 X118.7499 Y-91.1025
G01 X118.7472 Y-91.0449
G01 X118.7394 Y-90.9927
G01 X118.7263 Y-90.9403
G01 X118.7081 Y-90.8895
G01 X118.6862 Y-90.8429
G01 X118.6559 Y-90.7924
G01 X118.6252 Y-90.7511
G01 X118.5880 Y-90.7102
G01 X118.5489 Y-90.6748
G01 X118.5056 Y-90.6427
G01 X118.4593 Y-90.6149
G01 X118.4116 Y-90.5923
G01 X118.3597 Y-90.5737
G01 X118.3085 Y-90.5608
G01 X118.2551 Y-90.5528
G01 X118.2250 Y-90.5512
G01 X118.2251 Y-89.9357
G01 X118.2309 Y-89.9288
G01 X118.2357 Y-89.9203
G01 X118.2385 Y-89.9121
G01 X118.2399 Y-89.9025
G01 X118.2400 Y-89.5488
G01 X118.2390 Y-89.5402
G01 X118.2371 Y-89.5332
G01 X118.2341 Y-89.5264
G01 X118.2294 Y-89.5192
G01 X118.2236 Y-89.5130
G01 X118.2167 Y-89.5078
G01 X118.2091 Y-89.5038
G01 X118.2021 Y-89.5015
G01 X118.1961 Y-89.5004
G01 X118.1900 Y-89.5000
G01 X117.9600 Y-89.5000
G01 X117.9539 Y-89.5004
G01 X117.9467 Y-89.5018
G01 X117.9397 Y-89.5043
G01 X117.9333 Y-89.5078
G01 X117.9273 Y-89.5121
G01 X117.9221 Y-89.5173
G01 X117.9171 Y-89.5243
G01 X117.9138 Y-89.5309
G01 X117.9115 Y-89.5379
G01 X117.9104 Y-89.5439
G01 X117.9100 Y-89.5500
G01 X117.9100 Y-89.9012
G01 X117.9112 Y-89.9110
G01 X117.9143 Y-89.9203
G01 X117.9191 Y-89.9288
G01 X117.9250 Y-89.9357
G01 X117.9250 Y-90.6243
G00 Z2.0000
G00 X117.0657 Y-90.1877
G01 F60.00
G01 Z-2.4000
G01 F120.00
G01 X117.0608 Y-90.2018
G01 X117.0568 Y-90.2174
G01 X117.0538 Y-90.2383
G01 X117.0531 Y-90.2532
G01 X117.0531 Y-90.3890
G01 X117.0540 Y-90.4063
G01 X117.0565 Y-90.4235
G01 X117.0601 Y-90.4380
G01 X117.0666 Y-90.4567
G01 X117.0740 Y-90.4724
G01 X117.0817 Y-90.4853
G01 X117.0933 Y-90.5013
G01 X117.1050 Y-90.5142
G01 X117.1198 Y-90.5273
G01 X117.1318 Y-90.5362
G01 X117.2164 Y-90.5927
G01 X117.3073 Y-90.6836
G01 X117.3528 Y-90.7517
G01 X117.3631 Y-90.7656
G01 X117.3748 Y-90.7785
G01 X117.3858 Y-90.7886
G01 X117.4027 Y-90.8012
G01 X117.4165 Y-90.8095
G01 X117.4300 Y-90.8159
G01 X117.4486 Y-90.8227
G01 X117.4679 Y-90.8274
G01 X117.4826 Y-90.8295
G01 X117.4975 Y-90.8303
G01 X117.5174 Y-90.8295
G01 X117.5369 Y-90.8264
G01 X117.5514 Y-90.8227
G01 X117.5655 Y-90.8178
G01 X117.5845 Y-90.8089
G01 X117.5984 Y-90.8005
G01 X117.6104 Y-90.7917
G01 X117.6269 Y-90.7767
G01 X117.6369 Y-90.7656
G01 X117.6465 Y-90.7527
G01 X117.6927 Y-90.6836
G01 X117.7700 Y-90.6063
G01 X117.7824 Y-90.5925
G01 X117.7933 Y-90.5774
G01 X117.8010 Y-90.5646
G01 X117.8074 Y-90.5511
G01 X117.8142 Y-90.5325
G01 X117.8185 Y-90.5157
G01 X117.8210 Y-90.4985
G01 X117.8219 Y-90.4811
G01 X117.8218 Y-89.9960
G01 X117.8210 Y-89.9811
G01 X117.8185 Y-89.9639
G01 X117.8146 Y-89.9482
G01 X117.8091 Y-89.9300
G01 X117.8053 Y-89.8913
G01 X117.8053 Y-89.8540
G01 X117.8045 Y-89.8391
G01 X117.8021 Y-89.8219
G01 X117.7969 Y-89.8015
G01 X117.7918 Y-89.7874
G01 X117.7838 Y-89.7706
G01 X117.7754 Y-89.7568
G01 X117.7651 Y-89.7429
G01 X117.7534 Y-89.7300
G01 X117.7405 Y-89.7183
G01 X117.7266 Y-89.7080
G01 X117.7117 Y-89.6990
G01 X117.6960 Y-89.6916
G01 X117.6796 Y-89.6858
G01 X117.6627 Y-89.6815
G01 X117.6456 Y-89.6790
G01 X117.6282 Y-89.6781
G01 X117.6108 Y-89.6790
G01 X117.5937 Y-89.6815
G01 X117.5768 Y-89.6858
G01 X117.5604 Y-89.6916
G01 X117.5437 Y-89.6996
G01 X117.5298 Y-89.7080
G01 X117.5178 Y-89.7168
G01 X117.5030 Y-89.7300
G01 X117.1050 Y-90.1280
G01 X117.0933 Y-90.1409
G01 X117.0830 Y-90.1548
G01 X117.0740 Y-90.1697
G01 X117.0657 Y-90.1877
G00 Z2.0000
G00 X116.6500 Y-90.5712
G01 F60.00
G01 Z-2.4000
G01 F120.00
G01 X116.6392 Y-90.5740
G01 X116.5895 Y-90.5919
G01 X116.5407 Y-90.6149
G01 X116.4944 Y-90.6427
G01 X116.4511 Y-90.6748
G01 X116.4111 Y-90.7111
G01 X116.3748 Y-90.7511
G01 X116.3427 Y-90.7944
G01 X116.3149 Y-90.8407
G01 X116.2919 Y-90.8895
G01 X116.2737 Y-90.9403
G01 X116.2606 Y-90.9927
G01 X116.2526 Y-91.0461
G01 X116.2500 Y-91.1000
G01 X116.2526 Y-91.1539
G01 X116.2606 Y-91.2073
G01 X116.2737 Y-91.2596
G01 X116.2919 Y-91.3105
G01 X116.3149 Y-91.3593
G01 X116.3427 Y-91.4056
G01 X116.3748 Y-91.4489
G01 X116.4111 Y-91.4889
G01 X116.4511 Y-91.5251
G01 X116.4944 Y-91.5573
G01 X116.5407 Y-91.5850
G01 X116.5895 Y-91.6081
G01 X116.6403 Y-91.6263
G01 X116.6927 Y-91.6394
G01 X116.7461 Y-91.6473
G01 X116.8000 Y-91.6500
G01 X116.8539 Y-91.6473
G01 X116.9073 Y-91.6394
G01 X116.9597 Y-91.6263
G01 X117.0105 Y-91.6081
G01 X117.0571 Y-91.5862
G01 X117.1076 Y-91.5559
G01 X117.1489 Y-91.5251
G01 X117.1889 Y-91.4889
G01 X117.2252 Y-91.4489
G01 X117.2559 Y-91.4076
G01 X117.2862 Y-91.3571
G01 X117.3081 Y-91.3105
G01 X117.3263 Y-91.2596
G01 X117.3399 Y-91.2049
G01 X117.3474 Y-91.1539
G01 X117.3500 Y-91.1000
G01 X117.3474 Y-91.0461
G01 X117.3399 Y-90.9951
G01 X117.3255 Y-90.9380
G01 X117.3081 Y-90.8895
G01 X117.2851 Y-90.8407
G01 X117.2573 Y-90.7944
G01 X117.2267 Y-90.7530
G01 X117.1871 Y-90.7094
G01 X117.1489 Y-90.6748
G01 X117.1056 Y-90.6427
G01 X117.0593 Y-90.6149
G01 X117.0127 Y-90.5929
G01 X116.9620 Y-90.5744
G01 X116.9500 Y-90.5712
G01 X116.9500 Y-90.1372
G01 X117.7922 Y-89.2950
G01 X117.8943 Y-89.2951
G01 X117.8983 Y-89.2987
G01 X117.9022 Y-89.3016
G01 X117.9109 Y-89.3062
G01 X117.9202 Y-89.3090
G01 X117.9300 Y-89.3100
G01 X118.2812 Y-89.3100
G01 X118.2898 Y-89.3090
G01 X118.2980 Y-89.3066
G01 X118.3046 Y-89.3035
G01 X118.3117 Y-89.2987
G01 X118.3154 Y-89.2954
G01 X118.3194 Y-89.2908
G01 X118.3222 Y-89.2867
G01 X118.3252 Y-89.2814
G01 X118.3271 Y-89.2768
G01 X118.3288 Y-89.2710
G01 X118.3300 Y-89.2612
G01 X118.3299 Y-89.0275
G01 X118.3288 Y-89.0190
G01 X118.3262 Y-89.0109
G01 X118.3222 Y-89.0033
G01 X118.3162 Y-88.9955
G01 X118.3088 Y-88.9891
G01 X118.3003 Y-88.9843
G01 X118.2910 Y-88.9812
G01 X118.2825 Y-88.9801
G01 X117.9263 Y-88.9801
G01 X117.9179 Y-88.9815
G01 X117.9086 Y-88.9848
G01 X117.9012 Y-88.9891
G01 X117.8943 Y-88.9950
G01 X117.7288 Y-88.9950
G01 X117.7153 Y-88.9957
G01 X117.7007 Y-88.9978
G01 X117.6841 Y-89.0022
G01 X117.6726 Y-89.0064
G01 X117.6593 Y-89.0127
G01 X117.6446 Y-89.0217
G01 X117.6348 Y-89.0290
G01 X117.6248 Y-89.0380
G01 X116.6939 Y-89.9689
G01 X116.6840 Y-89.9798
G01 X116.6746 Y-89.9927
G01 X116.6677 Y-90.0043
G01 X116.6624 Y-90.0153
G01 X116.6564 Y-90.0314
G01 X116.6524 Y-90.0481
G01 X116.6507 Y-90.0603
G01 X116.6500 Y-90.0725
G01 X116.6500 Y-90.5712
G00 Z2.0000
G00 X117.4846 Y-91.7469
G01 F60.00
G01 Z-2.4000
G01 F120.00
G01 X117.5167 Y-91.7468
G01 X117.5328 Y-91.7460
G01 X117.5500 Y-91.7435
G01 X117.5657 Y-91.7396
G01 X117.5832 Y-91.7334
G01 X117.5989 Y-91.7260
G01 X117.6138 Y-91.7170
G01 X117.6268 Y-91.7074
G01 X117.6406 Y-91.6950
G01 X117.6523 Y-91.6821
G01 X117.6627 Y-91.6682
G01 X117.6716 Y-91.6533
G01 X117.6790 Y-91.6376
G01 X117.6849 Y-91.6212
G01 X117.6891 Y-91.6043
G01 X117.6918 Y-91.5859
G01 X117.6925 Y-91.5698
G01 X117.6913 Y-91.5500
G01 X117.6886 Y-91.5329
G01 X117.6849 Y-91.5184
G01 X117.6799 Y-91.5043
G01 X117.6722 Y-91.4874
G01 X117.6640 Y-91.4735
G01 X117.6465 Y-91.4473
G01 X117.6369 Y-91.4344
G01 X117.6252 Y-91.4215
G01 X117.6123 Y-91.4098
G01 X117.5984 Y-91.3995
G01 X117.5835 Y-91.3905
G01 X117.5678 Y-91.3831
G01 X117.5514 Y-91.3773
G01 X117.5345 Y-91.3730
G01 X117.5161 Y-91.3704
G01 X117.5000 Y-91.3696
G01 X117.4826 Y-91.3705
G01 X117.4655 Y-91.3730
G01 X117.4486 Y-91.3773
G01 X117.4322 Y-91.3831
G01 X117.4165 Y-91.3905
G01 X117.4016 Y-91.3995
G01 X117.3867 Y-91.4106
G01 X117.3748 Y-91.4215
G01 X117.3624 Y-91.4353
G01 X117.3535 Y-91.4473
G01 X117.3373 Y-91.4714
G01 X117.3284 Y-91.4863
G01 X117.3210 Y-91.5020
G01 X117.3151 Y-91.5184
G01 X117.3109 Y-91.5353
G01 X117.3082 Y-91.5537
G01 X117.3075 Y-91.5698
G01 X117.3083 Y-91.5872
G01 X117.3109 Y-91.6043
G01 X117.3159 Y-91.6235
G01 X117.3215 Y-91.6387
G01 X117.3296 Y-91.6554
G01 X117.3373 Y-91.6682
G01 X117.3462 Y-91.6802
G01 X117.3577 Y-91.6932
G01 X117.3722 Y-91.7067
G01 X117.3862 Y-91.7170
G01 X117.4011 Y-91.7260
G01 X117.4168 Y-91.7334
G01 X117.4332 Y-91.7392
G01 X117.4500 Y-91.7435
G01 X117.4672 Y-91.7460
G01 X117.4846 Y-91.7469
G00 Z2.0000
G00 X119.2500 Y-89.9500
G01 F60.00
G01 Z-2.4000
G01 F120.00
G01 X119.4849 Y-89.9498
G01 X119.4910 Y-89.9488
G01 X119.4957 Y-89.9475
G01 X119.5014 Y-89.9452
G01 X119.5067 Y-89.9422
G01 X119.5117 Y-89.9387
G01 X119.5162 Y-89.9345
G01 X119.5202 Y-89.9298
G01 X119.5235 Y-89.9246
G01 X119.5262 Y-89.9191
G01 X119.5282 Y-89.9133
G01 X119.5295 Y-89.9073
G01 X119.5300 Y-89.9012
G01 X119.5299 Y-89.5475
G01 X119.5293 Y-89.5415
G01 X119.5278 Y-89.5355
G01 X119.5252 Y-89.5286
G01 X119.5222 Y-89.5233
G01 X119.5187 Y-89.5183
G01 X119.5145 Y-89.5138
G01 X119.5098 Y-89.5098
G01 X119.5046 Y-89.5065
G01 X119.4991 Y-89.5038
G01 X119.4933 Y-89.5018
G01 X119.4873 Y-89.5005
G01 X119.4812 Y-89.5000
G01 X119.2463 Y-89.5001
G01 X119.2402 Y-89.5010
G01 X119.2343 Y-89.5025
G01 X119.2286 Y-89.5048
G01 X119.2233 Y-89.5078
G01 X119.2183 Y-89.5113
G01 X119.2138 Y-89.5155
G01 X119.2098 Y-89.5202
G01 X119.2065 Y-89.5254
G01 X119.2038 Y-89.5309
G01 X119.2018 Y-89.5367
G01 X119.2005 Y-89.5427
G01 X119.2000 Y-89.5488
G01 X119.2002 Y-89.9049
G01 X119.2018 Y-89.9133
G01 X119.2053 Y-89.9225
G01 X119.2098 Y-89.9298
G01 X119.2164 Y-89.9370
G01 X119.2243 Y-89.9429
G01 X119.2320 Y-89.9466
G01 X119.2402 Y-89.9490
G01 X119.2500 Y-89.9500
G00 Z2.0000
G00 X119.6800 Y-89.9500
G01 F60.00
G01 Z-2.4000
G01 F120.00
G01 X119.9149 Y-89.9498
G01 X119.9210 Y-89.9488
G01 X119.9257 Y-89.9475
G01 X119.9314 Y-89.9452
G01 X119.9367 Y-89.9422
G01 X119.9417 Y-89.9387
G01 X119.9462 Y-89.9345
G01 X119.9502 Y-89.9298
G01 X119.9535 Y-89.9246
G01 X119.9562 Y-89.9191
G01 X119.9582 Y-89.9133
G01 X119.9595 Y-89.9073
G01 X119.9600 Y-89.9012
G01 X119.9599 Y-89.5475
G01 X119.9593 Y-89.5415
G01 X119.9578 Y-89.5355
G01 X119.9552 Y-89.5286
G01 X119.9522 Y-89.5233
G01 X119.9487 Y-89.5183
G01 X119.9445 Y-89.5138
G01 X119.9398 Y-89.5098
G01 X119.9346 Y-89.5065
G01 X119.9291 Y-89.5038
G01 X119.9233 Y-89.5018
G01 X119.9173 Y-89.5005
G01 X119.9112 Y-89.5000
G01 X119.6763 Y-89.5001
G01 X119.6702 Y-89.5010
G01 X119.6643 Y-89.5025
G01 X119.6586 Y-89.5048
G01 X119.6533 Y-89.5078
G01 X119.6483 Y-89.5113
G01 X119.6438 Y-89.5155
G01 X119.6398 Y-89.5202
G01 X119.6365 Y-89.5254
G01 X119.6338 Y-89.5309
G01 X119.6318 Y-89.5367
G01 X119.6305 Y-89.5427
G01 X119.6300 Y-89.5488
G01 X119.6302 Y-89.9049
G01 X119.6318 Y-89.9133
G01 X119.6353 Y-89.9225
G01 X119.6398 Y-89.9298
G01 X119.6464 Y-89.9370
G01 X119.6543 Y-89.9429
G01 X119.6620 Y-89.9466
G01 X119.6702 Y-89.9490
G01 X119.6800 Y-89.9500
G00 Z2.0000
G00 X120.1100 Y-89.9500
G01 F60.00
G01 Z-2.4000
G01 F120.00
G01 X120.3449 Y-89.9498
G01 X120.3510 Y-89.9488
G01 X120.3557 Y-89.9475
G01 X120.3614 Y-89.9452
G01 X120.3667 Y-89.9422
G01 X120.3717 Y-89.9387
G01 X120.3762 Y-89.9345
G01 X120.3802 Y-89.9298
G01 X120.3835 Y-89.9246
G01 X120.3862 Y-89.9191
G01 X120.3882 Y-89.9133
G01 X120.3895 Y-89.9073
G01 X120.3900 Y-89.9012
G01 X120.3899 Y-89.5475
G01 X120.3893 Y-89.5415
G01 X120.3878 Y-89.5355
G01 X120.3852 Y-89.5286
G01 X120.3822 Y-89.5233
G01 X120.3787 Y-89.5183
G01 X120.3745 Y-89.5138
G01 X120.3698 Y-89.5098
G01 X120.3646 Y-89.5065
G01 X120.3591 Y-89.5038
G01 X120.3533 Y-89.5018
G01 X120.3473 Y-89.5005
G01 X120.3412 Y-89.5000
G01 X120.1063 Y-89.5001
G01 X120.1002 Y-89.5010
G01 X120.0943 Y-89.5025
G01 X120.0886 Y-89.5048
G01 X120.0833 Y-89.5078
G01 X120.0783 Y-89.5113
G01 X120.0738 Y-89.5155
G01 X120.0698 Y-89.5202
G01 X120.0665 Y-89.5254
G01 X120.0638 Y-89.5309
G01 X120.0618 Y-89.5367
G01 X120.0605 Y-89.5427
G01 X120.0600 Y-89.5488
G01 X120.0602 Y-89.9049
G01 X120.0618 Y-89.9133
G01 X120.0653 Y-89.9225
G01 X120.0698 Y-89.9298
G01 X120.0764 Y-89.9370
G01 X120.0843 Y-89.9429
G01 X120.0920 Y-89.9466
G01 X120.1002 Y-89.9490
G01 X120.1100 Y-89.9500
G00 Z2.0000
G00 X120.5400 Y-89.9500
G01 F60.00
G01 Z-2.4000
G01 F120.00
G01 X120.7749 Y-89.9498
G01 X120.7810 Y-89.9488
G01 X120.7857 Y-89.9475
G01 X120.7914 Y-89.9452
G01 X120.7967 Y-89.9422
G01 X120.8017 Y-89.9387
G01 X120.8062 Y-89.9345
G01 X120.8102 Y-89.9298
G01 X120.8135 Y-89.9246
G01 X120.8162 Y-89.9191
G01 X120.8182 Y-89.9133
G01 X120.8195 Y-89.9073
G01 X120.8200 Y-89.9012
G01 X120.8199 Y-89.5475
G01 X120.8193 Y-89.5415
G01 X120.8178 Y-89.5355
G01 X120.8152 Y-89.5286
G01 X120.8122 Y-89.5233
G01 X120.8087 Y-89.5183
G01 X120.8045 Y-89.5138
G01 X120.7998 Y-89.5098
G01 X120.7946 Y-89.5065
G01 X120.7891 Y-89.5038
G01 X120.7833 Y-89.5018
G01 X120.7773 Y-89.5005
G01 X120.7712 Y-89.5000
G01 X120.5363 Y-89.5001
G01 X120.5302 Y-89.5010
G01 X120.5243 Y-89.5025
G01 X120.5186 Y-89.5048
G01 X120.5133 Y-89.5078
G01 X120.5083 Y-89.5113
G01 X120.5038 Y-89.5155
G01 X120.4998 Y-89.5202
G01 X120.4965 Y-89.5254
G01 X120.4938 Y-89.5309
G01 X120.4918 Y-89.5367
G01 X120.4905 Y-89.5427
G01 X120.4900 Y-89.5488
G01 X120.4902 Y-89.9049
G01 X120.4918 Y-89.9133
G01 X120.4953 Y-89.9225
G01 X120.4998 Y-89.9298
G01 X120.5064 Y-89.9370
G01 X120.5143 Y-89.9429
G01 X120.5220 Y-89.9466
G01 X120.5302 Y-89.9490
G01 X120.5400 Y-89.9500
G00 Z2.0000
G00 X120.9700 Y-89.9500
G01 F60.00
G01 Z-2.4000
G01 F120.00
G01 X121.2049 Y-89.9498
G01 X121.2110 Y-89.9488
G01 X121.2157 Y-89.9475
G01 X121.2214 Y-89.9452
G01 X121.2267 Y-89.9422
G01 X121.2317 Y-89.9387
G01 X121.2362 Y-89.9345
G01 X121.2402 Y-89.9298
G01 X121.2435 Y-89.9246
G01 X121.2462 Y-89.9191
G01 X121.2482 Y-89.9133
G01 X121.2495 Y-89.9073
G01 X121.2500 Y-89.9012
G01 X121.2499 Y-89.5475
G01 X121.2493 Y-89.5415
G01 X121.2478 Y-89.5355
G01 X121.2452 Y-89.5286
G01 X121.2422 Y-89.5233
G01 X121.2387 Y-89.5183
G01 X121.2345 Y-89.5138
G01 X121.2298 Y-89.5098
G01 X121.2246 Y-89.5065
G01 X121.2191 Y-89.5038
G01 X121.2133 Y-89.5018
G01 X121.2073 Y-89.5005
G01 X121.2012 Y-89.5000
G01 X120.9663 Y-89.5001
G01 X120.9602 Y-89.5010
G01 X120.9543 Y-89.5025
G01 X120.9486 Y-89.5048
G01 X120.9433 Y-89.5078
G01 X120.9383 Y-89.5113
G01 X120.9338 Y-89.5155
G01 X120.9298 Y-89.5202
G01 X120.9265 Y-89.5254
G01 X120.9238 Y-89.5309
G01 X120.9218 Y-89.5367
G01 X120.9205 Y-89.5427
G01 X120.9200 Y-89.5488
G01 X120.9202 Y-89.9049
G01 X120.9218 Y-89.9133
G01 X120.9253 Y-89.9225
G01 X120.9298 Y-89.9298
G01 X120.9364 Y-89.9370
G01 X120.9443 Y-89.9429
G01 X120.9520 Y-89.9466
G01 X120.9602 Y-89.9490
G01 X120.9700 Y-89.9500
G00 Z2.0000
G00 X121.2050 Y-88.9800
G01 F60.00
G01 Z-2.4000
G01 F120.00
G01 X121.2325 Y-88.9801
G01 X121.2421 Y-88.9815
G01 X121.2480 Y-88.9834
G01 X121.2546 Y-88.9865
G01 X121.2608 Y-88.9906
G01 X121.2657 Y-88.9949
G01 X121.6574 Y-88.9950
G01 X121.6725 Y-88.9523
G01 X121.6776 Y-88.9397
G01 X121.6801 Y-88.9344
G01 X121.6801 Y-88.9256
G01 X121.6776 Y-88.9203
G01 X121.6725 Y-88.9077
G01 X121.6469 Y-88.8352
G01 X121.6280 Y-88.8032
G01 X121.6211 Y-88.7901
G01 X121.6146 Y-88.7742
G01 X121.6096 Y-88.7577
G01 X121.6063 Y-88.7408
G01 X121.6046 Y-88.7236
G01 X121.6045 Y-88.7088
G01 X121.6067 Y-88.6868
G01 X121.6096 Y-88.6723
G01 X121.6150 Y-88.6547
G01 X121.6211 Y-88.6399
G01 X121.6280 Y-88.6268
G01 X121.6469 Y-88.5948
G01 X121.6725 Y-88.5223
G01 X121.6776 Y-88.5097
G01 X121.6801 Y-88.5044
G01 X121.6801 Y-88.4956
G01 X121.6776 Y-88.4903
G01 X121.6725 Y-88.4777
G01 X121.6574 Y-88.4350
G01 X121.2657 Y-88.4350
G01 X121.2608 Y-88.4394
G01 X121.2546 Y-88.4435
G01 X121.2480 Y-88.4466
G01 X121.2421 Y-88.4485
G01 X121.2325 Y-88.4499
G01 X121.2050 Y-88.4500
G01 X121.2050 Y-88.4554
G01 X121.2163 Y-88.4639
G01 X121.2291 Y-88.4757
G01 X121.2399 Y-88.4877
G01 X121.2509 Y-88.5027
G01 X121.2592 Y-88.5165
G01 X121.2666 Y-88.5322
G01 X121.2724 Y-88.5486
G01 X121.2767 Y-88.5655
G01 X121.2792 Y-88.5826
G01 X121.2800 Y-88.5988
G01 X121.2801 Y-88.8300
G01 X121.2792 Y-88.8474
G01 X121.2761 Y-88.8669
G01 X121.2724 Y-88.8814
G01 X121.2675 Y-88.8955
G01 X121.2597 Y-88.9124
