(G-CODE GENERATED BY FLATCAM v8.992 - www.flatcam.org - Version Date: 2020/05/03)

(Name: MSP430G2553_array.drl_07_cnc)
(Type: G-code from Excellon)
(Units: MM)

(Created on Saturday, 30 May 2020 at 13:09)

(This preprocessor is the default preprocessor used by FlatCAM.)
(It is made to work with MACH3 compatible motion controllers.)


(TOOLS DIAMETER: )
(Tool: 1 -> Dia: 0.7)
(Tool: 2 -> Dia: 1.0)
(Tool: 3 -> Dia: 0.7)
(Tool: 4 -> Dia: 0.9)

(FEEDRATE Z: )
(Tool: 1 -> Feedrate: 140.0)
(Tool: 2 -> Feedrate: 140.0)
(Tool: 3 -> Feedrate: 140.0)
(Tool: 4 -> Feedrate: 140.0)

(FEEDRATE RAPIDS: )
(Tool: 1 -> Feedrate Rapids: 1500)
(Tool: 2 -> Feedrate Rapids: 1500)
(Tool: 3 -> Feedrate Rapids: 1500)
(Tool: 4 -> Feedrate Rapids: 1500)

(Z_CUT: )
(Tool: 1 -> Z_Cut: -2.0)
(Tool: 2 -> Z_Cut: -2.0)
(Tool: 3 -> Z_Cut: -2.0)
(Tool: 4 -> Z_Cut: -2.0)

(Tools Offset: )
(Tool: 3 -> Offset Z: -0.0)

(Z_MOVE: )
(Tool: 1 -> Z_Move: 1.0)
(Tool: 2 -> Z_Move: 1.0)
(Tool: 3 -> Z_Move: 1.0)
(Tool: 4 -> Z_Move: 1.0)

(Z Start: None mm)
(Z End: 2.0 mm)
(Steps per circle: 64)
(Preprocessor Excellon: default)

(X range:   61.5500 ...   89.1500  mm)
(Y range:   27.6500 ...   88.5500  mm)

(Spindle Speed: 10000.0 RPM)
G21
G90
G94



G00 Z1.0000

G01 F140.00
M03 S10000
G4 P2.0
G00 X61.9000 Y72.2000
G01 Z-2.0000
G01 Z0
G00 Z1.0000
G00 X66.9000 Y71.7000
G01 Z-2.0000
G01 Z0
G00 Z1.0000
G00 X66.9000 Y73.2000
G01 Z-2.0000
G01 Z0
G00 Z1.0000
G00 X66.9000 Y74.7000
G01 Z-2.0000
G01 Z0
G00 Z1.0000
G00 X75.4000 Y74.2000
G01 Z-2.0000
G01 Z0
G00 Z1.0000
G00 X66.4000 Y79.7000
G01 Z-2.0000
G01 Z0
G00 Z1.0000
G00 X66.4000 Y82.2000
G01 Z-2.0000
G01 Z0
G00 Z1.0000
G00 X66.4000 Y83.7000
G01 Z-2.0000
G01 Z0
G00 Z1.0000
G00 X67.4000 Y88.2000
G01 Z-2.0000
G01 Z0
G00 Z1.0000
G00 X74.9000 Y83.2000
G01 Z-2.0000
G01 Z0
G00 Z1.0000
G00 X81.4000 Y86.2000
G01 Z-2.0000
G01 Z0
G00 Z1.0000
G00 X85.9000 Y77.7000
G01 Z-2.0000
G01 Z0
G00 Z1.0000
G00 X88.4000 Y71.4500
G01 Z-2.0000
G01 Z0
G00 Z1.0000
G00 X85.9550 Y60.6750
G01 Z-2.0000
G01 Z0
G00 Z1.0000
G00 X88.8000 Y44.0000
G01 Z-2.0000
G01 Z0
G00 Z1.0000
G00 X83.8000 Y44.5000
G01 Z-2.0000
G01 Z0
G00 Z1.0000
G00 X83.8000 Y43.0000
G01 Z-2.0000
G01 Z0
G00 Z1.0000
G00 X83.8000 Y41.5000
G01 Z-2.0000
G01 Z0
G00 Z1.0000
G00 X75.3000 Y42.0000
G01 Z-2.0000
G01 Z0
G00 Z1.0000
G00 X84.3000 Y36.5000
G01 Z-2.0000
G01 Z0
G00 Z1.0000
G00 X84.3000 Y34.0000
G01 Z-2.0000
G01 Z0
G00 Z1.0000
G00 X84.3000 Y32.5000
G01 Z-2.0000
G01 Z0
G00 Z1.0000
G00 X83.3000 Y28.0000
G01 Z-2.0000
G01 Z0
G00 Z1.0000
G00 X75.8000 Y33.0000
G01 Z-2.0000
G01 Z0
G00 Z1.0000
G00 X69.3000 Y30.0000
G01 Z-2.0000
G01 Z0
G00 Z1.0000
G00 X64.8000 Y38.5000
G01 Z-2.0000
G01 Z0
G00 Z1.0000
G00 X62.3000 Y44.7500
G01 Z-2.0000
G01 Z0
G00 Z1.0000
G00 X64.7450 Y55.5250
G01 Z-2.0000
G01 Z0
G00 Z1.0000
G01 F140.00
M03 S10000
G4 P2.0
G00 X80.9000 Y66.5750
G01 Z-2.0000
G01 Z0
G00 Z1.0000
G00 X80.9000 Y66.2250
G01 Z-2.0000
G01 Z0
G00 Z1.0000
G00 X77.9000 Y66.2250
G01 Z-2.0000
G01 Z0
G00 Z1.0000
G00 X77.9000 Y66.5750
G01 Z-2.0000
G01 Z0
G00 Z1.0000
G00 X74.9000 Y66.2250
G01 Z-2.0000
G01 Z0
G00 Z1.0000
G00 X74.9000 Y66.5750
G01 Z-2.0000
G01 Z0
G00 Z1.0000
G00 X71.9000 Y66.2250
G01 Z-2.0000
G01 Z0
G00 Z1.0000
G00 X71.9000 Y66.5750
G01 Z-2.0000
G01 Z0
G00 Z1.0000
G00 X70.9000 Y87.3250
G01 Z-2.0000
G01 Z0
G00 Z1.0000
G00 X70.9000 Y87.6750
G01 Z-2.0000
G01 Z0
G00 Z1.0000
G00 X68.9000 Y66.2250
G01 Z-2.0000
G01 Z0
G00 Z1.0000
G00 X68.9000 Y66.5750
G01 Z-2.0000
G01 Z0
G00 Z1.0000
G00 X65.9000 Y66.2250
G01 Z-2.0000
G01 Z0
G00 Z1.0000
G00 X65.9000 Y66.5750
G01 Z-2.0000
G01 Z0
G00 Z1.0000
G00 X62.9000 Y66.2250
G01 Z-2.0000
G01 Z0
G00 Z1.0000
G00 X62.9000 Y66.5750
G01 Z-2.0000
G01 Z0
G00 Z1.0000
G00 X66.8000 Y49.6250
G01 Z-2.0000
G01 Z0
G00 Z1.0000
G00 X66.8000 Y49.9750
G01 Z-2.0000
G01 Z0
G00 Z1.0000
G00 X69.8000 Y49.9750
G01 Z-2.0000
G01 Z0
G00 Z1.0000
G00 X69.8000 Y49.6250
G01 Z-2.0000
G01 Z0
G00 Z1.0000
G00 X72.8000 Y49.9750
G01 Z-2.0000
G01 Z0
G00 Z1.0000
G00 X72.8000 Y49.6250
G01 Z-2.0000
G01 Z0
G00 Z1.0000
G00 X75.8000 Y49.9750
G01 Z-2.0000
G01 Z0
G00 Z1.0000
G00 X75.8000 Y49.6250
G01 Z-2.0000
G01 Z0
G00 Z1.0000
G00 X79.8000 Y28.5250
G01 Z-2.0000
G01 Z0
G00 Z1.0000
G00 X79.8000 Y28.8750
G01 Z-2.0000
G01 Z0
G00 Z1.0000
G00 X78.8000 Y49.6250
G01 Z-2.0000
G01 Z0
G00 Z1.0000
G00 X78.8000 Y49.9750
G01 Z-2.0000
G01 Z0
G00 Z1.0000
G00 X81.8000 Y49.6250
G01 Z-2.0000
G01 Z0
G00 Z1.0000
G00 X81.8000 Y49.9750
G01 Z-2.0000
G01 Z0
G00 Z1.0000
G00 X84.8000 Y49.6250
G01 Z-2.0000
G01 Z0
G00 Z1.0000
G00 X84.8000 Y49.9750
G01 Z-2.0000
G01 Z0
G00 Z1.0000
G00 X87.8000 Y49.6250
G01 Z-2.0000
G01 Z0
G00 Z1.0000
G00 X87.8000 Y49.9750
G01 Z-2.0000
G01 Z0
G00 Z1.0000
G00 X83.9000 Y66.2250
G01 Z-2.0000
G01 Z0
G00 Z1.0000
G00 X83.9000 Y66.5750
G01 Z-2.0000
G01 Z0
G00 Z1.0000
M05
G00 Z2.00

