(G-CODE GENERATED BY FLATCAM v8.992 - www.flatcam.org - Version Date: 2020/05/03)

(Name: MSP430G2553_array-B_05_Cu.gbr_iso_cnc)
(Type: G-code from Geometry)
(Units: MM)

(Created on Saturday, 30 May 2020 at 13:31)

(This preprocessor is the default preprocessor used by FlatCAM.)
(It is made to work with MACH3 compatible motion controllers.)

(TOOL DIAMETER: 0.1 mm)
(Feedrate_XY: 2500.0 mm/min)
(Feedrate_Z: 400.0 mm/min)
(Feedrate rapids 1500.0 mm/min)

(Z_Cut: -0.05 mm)
(Z_Move: 1.0 mm)
(Z Start: None mm)
(Z End: 15.0 mm)
(Steps per circle: 64)
(Preprocessor Geometry: default)

(X range:   60.3750 ...   90.3250  mm)
(Y range:   26.3250 ...   89.8750  mm)

(Spindle Speed: None RPM)
G21
G90
G94



G01 F2500.00
G00 Z1.0000

M03
G00 X61.9526 Y39.6600
G01 F400.00
G01 Z-0.0500
G01 F2500.00
G01 X61.6197 Y39.6600
G01 X61.5711 Y39.5453
G01 X61.6502 Y39.3544
G01 X61.7906 Y39.1415
G01 X61.9697 Y38.9604
G01 X62.1807 Y38.8176
G01 X62.3859 Y38.7311
G01 X62.5000 Y38.7786
G01 X62.5000 Y39.1126
G01 X62.4545 Y39.1290
G01 X62.3768 Y39.1657
G01 X62.3010 Y39.2110
G01 X62.2290 Y39.2643
G01 X62.1636 Y39.3236
G01 X62.1043 Y39.3890
G01 X62.0510 Y39.4610
G01 X62.0057 Y39.5368
G01 X61.9690 Y39.6145
G01 X61.9526 Y39.6600
G00 Z1.0000
G00 X62.5000 Y40.8074
G01 F400.00
G01 Z-0.0500
G01 F2500.00
G01 X62.5000 Y41.1414
G01 X62.3859 Y41.1889
G01 X62.1807 Y41.1024
G01 X61.9697 Y40.9596
G01 X61.7906 Y40.7785
G01 X61.6502 Y40.5656
G01 X61.5711 Y40.3747
G01 X61.6197 Y40.2600
G01 X61.9526 Y40.2600
G01 X61.9690 Y40.3055
G01 X62.0057 Y40.3832
G01 X62.0510 Y40.4590
G01 X62.1043 Y40.5310
G01 X62.1636 Y40.5964
G01 X62.2290 Y40.6557
G01 X62.3010 Y40.7090
G01 X62.3768 Y40.7543
G01 X62.4545 Y40.7910
G01 X62.5000 Y40.8074
G00 Z1.0000
G00 X63.1000 Y40.8074
G01 F400.00
G01 Z-0.0500
G01 F2500.00
G01 X63.1455 Y40.7910
G01 X63.2232 Y40.7543
G01 X63.2990 Y40.7090
G01 X63.3710 Y40.6557
G01 X63.4364 Y40.5964
G01 X63.4957 Y40.5310
G01 X63.5490 Y40.4590
G01 X63.5943 Y40.3832
G01 X63.6310 Y40.3055
G01 X63.6474 Y40.2600
G01 X63.9803 Y40.2600
G01 X64.0289 Y40.3747
G01 X63.9498 Y40.5656
G01 X63.8094 Y40.7785
G01 X63.6303 Y40.9596
G01 X63.4193 Y41.1024
G01 X63.2141 Y41.1889
G01 X63.1000 Y41.1414
G01 X63.1000 Y40.8074
G00 Z1.0000
G00 X63.6474 Y39.6600
G01 F400.00
G01 Z-0.0500
G01 F2500.00
G01 X63.6310 Y39.6145
G01 X63.5943 Y39.5368
G01 X63.5490 Y39.4610
G01 X63.4957 Y39.3890
G01 X63.4364 Y39.3236
G01 X63.3710 Y39.2643
G01 X63.2990 Y39.2110
G01 X63.2232 Y39.1657
G01 X63.1455 Y39.1290
G01 X63.1000 Y39.1126
G01 X63.1000 Y38.7786
G01 X63.2141 Y38.7311
G01 X63.4193 Y38.8176
G01 X63.6303 Y38.9604
G01 X63.8094 Y39.1415
G01 X63.9498 Y39.3544
G01 X64.0289 Y39.5453
G01 X63.9803 Y39.6600
G01 X63.6474 Y39.6600
G00 Z1.0000
G00 X61.9500 Y41.6000
G01 F400.00
G01 Z-0.0500
G01 F2500.00
G01 X63.6500 Y41.6000
G01 X63.6585 Y41.6007
G01 X63.6668 Y41.6029
G01 X63.6746 Y41.6065
G01 X63.6808 Y41.6106
G01 X63.6870 Y41.6164
G01 X63.6916 Y41.6222
G01 X63.6957 Y41.6297
G01 X63.6985 Y41.6379
G01 X63.6999 Y41.6463
G01 X63.7000 Y42.1499
G01 X64.9500 Y42.1498
G01 X64.9500 Y42.1238
G01 X64.9519 Y42.0846
G01 X64.9584 Y42.0409
G01 X64.9691 Y41.9993
G01 X64.9824 Y41.9624
G01 X64.9996 Y41.9257
G01 X65.0230 Y41.8869
G01 X65.0465 Y41.8554
G01 X65.0728 Y41.8263
G01 X65.1054 Y41.7965
G01 X65.1399 Y41.7710
G01 X65.1747 Y41.7502
G01 X65.2146 Y41.7315
G01 X65.2540 Y41.7176
G01 X65.2921 Y41.7082
G01 X65.3309 Y41.7023
G01 X65.3750 Y41.7000
G01 X65.6499 Y41.7000
G01 X65.6499 Y41.5975
G01 X65.6515 Y41.5657
G01 X65.6571 Y41.5293
G01 X65.6649 Y41.4984
G01 X65.6756 Y41.4683
G01 X65.6901 Y41.4371
G01 X65.7089 Y41.4055
G01 X65.7286 Y41.3788
G01 X65.7524 Y41.3524
G01 X66.4654 Y40.6394
G01 X66.4472 Y40.6347
G01 X66.4171 Y40.6240
G01 X66.3839 Y40.6082
G01 X66.3555 Y40.5911
G01 X66.3298 Y40.5722
G01 X66.3033 Y40.5485
G01 X64.8046 Y39.0498
G01 X64.7975 Y39.0499
G01 X64.7461 Y39.0474
G01 X64.6927 Y39.0394
G01 X64.6403 Y39.0263
G01 X64.5873 Y39.0071
G01 X64.5407 Y38.9851
G01 X64.4965 Y38.9586
G01 X64.4530 Y38.9267
G01 X64.4111 Y38.8889
G01 X64.3748 Y38.8489
G01 X64.3427 Y38.8056
G01 X64.3149 Y38.7593
G01 X64.2919 Y38.7105
G01 X64.2745 Y38.6620
G01 X64.2601 Y38.6049
G01 X64.2526 Y38.5539
G01 X64.2500 Y38.5000
G01 X64.2526 Y38.4461
G01 X64.2601 Y38.3951
G01 X64.2745 Y38.3380
G01 X64.2919 Y38.2895
G01 X64.3149 Y38.2407
G01 X64.3427 Y38.1944
G01 X64.3741 Y38.1520
G01 X64.4111 Y38.1111
G01 X64.4511 Y38.0748
G01 X64.4944 Y38.0427
G01 X64.5407 Y38.0149
G01 X64.5895 Y37.9919
G01 X64.6403 Y37.9737
G01 X64.6927 Y37.9606
G01 X64.7461 Y37.9526
G01 X64.8000 Y37.9500
G01 X64.8539 Y37.9526
G01 X64.9073 Y37.9606
G01 X64.9597 Y37.9737
G01 X65.0105 Y37.9919
G01 X65.0593 Y38.0149
G01 X65.1056 Y38.0427
G01 X65.1470 Y38.0733
G01 X65.1906 Y38.1129
G01 X65.2252 Y38.1511
G01 X65.2559 Y38.1924
G01 X65.2851 Y38.2407
G01 X65.3090 Y38.2918
G01 X65.3263 Y38.3403
G01 X65.3389 Y38.3903
G01 X65.3474 Y38.4461
G01 X65.3499 Y38.5025
G01 X65.3474 Y38.5539
G01 X65.3412 Y38.5960
G01 X66.5000 Y39.7548
G01 X66.5000 Y38.6500
G01 X66.5005 Y38.6393
G01 X66.5020 Y38.6300
G01 X66.5051 Y38.6184
G01 X66.6051 Y38.3184
G01 X66.6087 Y38.3092
G01 X66.6137 Y38.2994
G01 X66.6175 Y38.2934
G01 X66.6219 Y38.2875
G01 X66.6293 Y38.2793
G01 X66.8293 Y38.0793
G01 X66.8363 Y38.0729
G01 X66.8428 Y38.0679
G01 X66.8540 Y38.0612
G01 X66.8603 Y38.0582
G01 X66.8692 Y38.0548
G01 X66.8783 Y38.0524
G01 X66.8853 Y38.0511
G01 X67.2876 Y38.0007
G01 X67.2965 Y38.0000
G01 X67.3048 Y38.0001
G01 X67.3124 Y38.0007
G01 X67.7124 Y38.0507
G01 X67.7206 Y38.0521
G01 X67.7330 Y38.0556
G01 X67.7397 Y38.0582
G01 X67.7481 Y38.0623
G01 X67.7581 Y38.0686
G01 X67.7637 Y38.0729
G01 X67.7699 Y38.0784
G01 X67.9715 Y38.2801
G01 X67.9770 Y38.2861
G01 X67.9812 Y38.2916
G01 X67.9874 Y38.3014
G01 X67.9916 Y38.3097
G01 X67.9949 Y38.3184
G01 X68.0949 Y38.6184
G01 X68.0982 Y38.6313
G01 X68.0995 Y38.6393
G01 X68.1000 Y38.6487
G01 X68.1000 Y40.9262
G01 X68.0980 Y40.9667
G01 X68.0918 Y41.0079
G01 X68.0817 Y41.0484
G01 X68.0667 Y41.0899
G01 X68.0498 Y41.1253
G01 X68.0297 Y41.1590
G01 X68.0050 Y41.1927
G01 X67.9755 Y41.2255
G01 X67.9446 Y41.2535
G01 X67.9090 Y41.2797
G01 X67.8753 Y41.2998
G01 X67.8399 Y41.3167
G01 X67.7984 Y41.3317
G01 X67.7567 Y41.3421
G01 X67.7167 Y41.3480
G01 X67.6750 Y41.3500
G01 X66.9238 Y41.3500
G01 X66.8833 Y41.3480
G01 X66.8421 Y41.3418
G01 X66.8016 Y41.3317
G01 X66.7735 Y41.3217
G01 X66.3952 Y41.7000
G01 X67.6500 Y41.7000
G01 X67.6594 Y41.7004
G01 X67.6713 Y41.7023
G01 X67.6816 Y41.7051
G01 X67.9828 Y41.8055
G01 X67.9908 Y41.8087
G01 X67.9995 Y41.8131
G01 X68.0078 Y41.8184
G01 X68.0165 Y41.8253
G01 X68.2216 Y42.0301
G01 X68.2271 Y42.0363
G01 X68.2327 Y42.0438
G01 X68.2377 Y42.0519
G01 X68.2418 Y42.0603
G01 X68.2452 Y42.0692
G01 X68.2471 Y42.0760
G01 X68.2493 Y42.0876
G01 X68.2993 Y42.4876
G01 X68.2999 Y42.4952
G01 X68.3000 Y42.5021
G01 X68.2993 Y42.5124
G01 X68.2493 Y42.9124
G01 X68.2471 Y42.9240
G01 X68.2452 Y42.9308
G01 X68.2418 Y42.9397
G01 X68.2377 Y42.9481
G01 X68.2327 Y42.9562
G01 X68.2271 Y42.9637
G01 X68.2207 Y42.9707
G01 X68.0199 Y43.1715
G01 X68.0139 Y43.1770
G01 X68.0084 Y43.1812
G01 X67.9986 Y43.1874
G01 X67.9903 Y43.1916
G01 X67.9816 Y43.1949
G01 X67.6816 Y43.2949
G01 X67.6687 Y43.2982
G01 X67.6607 Y43.2995
G01 X67.6527 Y43.3000
G01 X65.3750 Y43.3000
G01 X65.3346 Y43.2981
G01 X65.2921 Y43.2918
G01 X65.2516 Y43.2817
G01 X65.2124 Y43.2676
G01 X65.1747 Y43.2498
G01 X65.1389 Y43.2284
G01 X65.1054 Y43.2035
G01 X65.0745 Y43.1755
G01 X65.0473 Y43.1456
G01 X65.0216 Y43.1111
G01 X65.0002 Y43.0753
G01 X64.9824 Y43.0376
G01 X64.9687 Y42.9995
G01 X64.9582 Y42.9579
G01 X64.9522 Y42.9179
G01 X64.9500 Y42.8762
G01 X64.9500 Y42.8501
G01 X63.7000 Y42.8502
G01 X63.6999 Y43.3537
G01 X63.6988 Y43.3610
G01 X63.6966 Y43.3680
G01 X63.6935 Y43.3746
G01 X63.6894 Y43.3808
G01 X63.6845 Y43.3862
G01 X63.6788 Y43.3909
G01 X63.6714 Y43.3952
G01 X63.6645 Y43.3978
G01 X63.6573 Y43.3995
G01 X63.6500 Y43.4000
G01 X61.9500 Y43.4000
G01 X61.9439 Y43.3996
G01 X61.9379 Y43.3985
G01 X61.9297 Y43.3957
G01 X61.9222 Y43.3916
G01 X61.9164 Y43.3870
G01 X61.9106 Y43.3808
G01 X61.9065 Y43.3746
G01 X61.9029 Y43.3668
G01 X61.9007 Y43.3585
G01 X61.9000 Y43.3512
G01 X61.9000 Y41.6500
G01 X61.9010 Y41.6402
G01 X61.9038 Y41.6309
G01 X61.9084 Y41.6222
G01 X61.9146 Y41.6146
G01 X61.9222 Y41.6084
G01 X61.9309 Y41.6038
G01 X61.9402 Y41.6010
G01 X61.9500 Y41.6000
G00 Z1.0000
G00 X61.7988 Y43.3451
G01 F400.00
G01 Z-0.0500
G01 F2500.00
G01 X61.7988 Y41.6549
G01 X61.8022 Y41.6206
G01 X61.8108 Y41.5923
G01 X61.8247 Y41.5663
G01 X61.8434 Y41.5434
G01 X61.8663 Y41.5247
G01 X61.8923 Y41.5108
G01 X61.9206 Y41.5022
G01 X61.9549 Y41.4988
G01 X63.6451 Y41.4988
G01 X63.6794 Y41.5022
G01 X63.7077 Y41.5108
G01 X63.7337 Y41.5247
G01 X63.7566 Y41.5434
G01 X63.7753 Y41.5663
G01 X63.7892 Y41.5923
G01 X63.7978 Y41.6206
G01 X63.8012 Y41.6549
G01 X63.8012 Y41.9500
G01 X63.8020 Y41.9622
G01 X63.8031 Y41.9695
G01 X63.8048 Y41.9767
G01 X63.8083 Y41.9871
G01 X63.8130 Y41.9972
G01 X63.8187 Y42.0066
G01 X63.8255 Y42.0153
G01 X63.8305 Y42.0207
G01 X63.8359 Y42.0257
G01 X63.8456 Y42.0332
G01 X63.8551 Y42.0388
G01 X63.8652 Y42.0433
G01 X63.8722 Y42.0457
G01 X63.8793 Y42.0476
G01 X63.8902 Y42.0494
G01 X63.9012 Y42.0500
G01 X64.7768 Y42.0500
G01 X64.7867 Y42.0495
G01 X64.7952 Y42.0483
G01 X64.8059 Y42.0457
G01 X64.8140 Y42.0429
G01 X64.8229 Y42.0388
G01 X64.8303 Y42.0345
G01 X64.8422 Y42.0257
G01 X64.8484 Y42.0198
G01 X64.8549 Y42.0125
G01 X64.8600 Y42.0056
G01 X64.8639 Y41.9993
G01 X64.8697 Y41.9871
G01 X64.8726 Y41.9790
G01 X64.8893 Y41.9238
G01 X64.9379 Y41.8329
G01 X65.0033 Y41.7533
G01 X65.0829 Y41.6879
G01 X65.1738 Y41.6393
G01 X65.2724 Y41.6094
G01 X65.3799 Y41.5988
G01 X65.4585 Y41.5988
G01 X65.4671 Y41.5983
G01 X65.4744 Y41.5973
G01 X65.4875 Y41.5941
G01 X65.4956 Y41.5912
G01 X65.5034 Y41.5876
G01 X65.5139 Y41.5813
G01 X65.5208 Y41.5761
G01 X65.5263 Y41.5712
G01 X65.5338 Y41.5632
G01 X65.5405 Y41.5544
G01 X65.5455 Y41.5459
G01 X65.5502 Y41.5359
G01 X65.5537 Y41.5255
G01 X65.5554 Y41.5183
G01 X65.5563 Y41.5124
G01 X65.5823 Y41.4270
G01 X65.6240 Y41.3488
G01 X65.6803 Y41.2803
G01 X65.6946 Y41.2685
G01 X65.7009 Y41.2627
G01 X66.2174 Y40.7462
G01 X66.2240 Y40.7390
G01 X66.2291 Y40.7321
G01 X66.2360 Y40.7205
G01 X66.2391 Y40.7138
G01 X66.2424 Y40.7045
G01 X66.2448 Y40.6950
G01 X66.2459 Y40.6878
G01 X66.2467 Y40.6743
G01 X66.2462 Y40.6657
G01 X66.2450 Y40.6572
G01 X66.2416 Y40.6441
G01 X66.2391 Y40.6372
G01 X66.2349 Y40.6284
G01 X66.2298 Y40.6199
G01 X66.2255 Y40.6140
G01 X66.2136 Y40.6000
G01 X64.7911 Y39.1774
G01 X64.7837 Y39.1709
G01 X64.7747 Y39.1645
G01 X64.7684 Y39.1608
G01 X64.7617 Y39.1576
G01 X64.7514 Y39.1537
G01 X64.7407 Y39.1509
G01 X64.6104 Y39.1250
G01 X64.4921 Y39.0760
G01 X64.3857 Y39.0049
G01 X64.2951 Y38.9143
G01 X64.2240 Y38.8079
G01 X64.1750 Y38.6896
G01 X64.1500 Y38.5640
G01 X64.1500 Y38.4360
G01 X64.1750 Y38.3104
G01 X64.2240 Y38.1921
G01 X64.2951 Y38.0857
G01 X64.3857 Y37.9951
G01 X64.4921 Y37.9240
G01 X64.6104 Y37.8750
G01 X64.7360 Y37.8500
G01 X64.8640 Y37.8500
G01 X64.9896 Y37.8750
G01 X65.1079 Y37.9240
G01 X65.2143 Y37.9951
G01 X65.3049 Y38.0857
G01 X65.3760 Y38.1921
G01 X65.4250 Y38.3104
G01 X65.4500 Y38.4360
G01 X65.4500 Y38.5234
G01 X65.4505 Y38.5320
G01 X65.4517 Y38.5405
G01 X65.4543 Y38.5512
G01 X65.4586 Y38.5627
G01 X65.4618 Y38.5693
G01 X65.4655 Y38.5757
G01 X65.4719 Y38.5847
G01 X65.4793 Y38.5929
G01 X66.2302 Y39.3438
G01 X66.2365 Y39.3495
G01 X66.2444 Y39.3554
G01 X66.2528 Y39.3604
G01 X66.2606 Y39.3641
G01 X66.2698 Y39.3675
G01 X66.2781 Y39.3697
G01 X66.2926 Y39.3719
G01 X66.3000 Y39.3722
G01 X66.3098 Y39.3717
G01 X66.3195 Y39.3703
G01 X66.3290 Y39.3679
G01 X66.3383 Y39.3646
G01 X66.3472 Y39.3604
G01 X66.3556 Y39.3554
G01 X66.3615 Y39.3510
G01 X66.3724 Y39.3411
G01 X66.3781 Y39.3347
G01 X66.3838 Y39.3267
G01 X66.3882 Y39.3193
G01 X66.3924 Y39.3105
G01 X66.3957 Y39.3012
G01 X66.3981 Y39.2917
G01 X66.3995 Y39.2820
G01 X66.4000 Y39.2722
G01 X66.4000 Y38.6549
G01 X66.4014 Y38.6409
G01 X66.4018 Y38.6276
G01 X66.4043 Y38.6113
G01 X66.4079 Y38.5985
G01 X66.4108 Y38.5852
G01 X66.5087 Y38.2914
G01 X66.5147 Y38.2760
G01 X66.5216 Y38.2625
G01 X66.5266 Y38.2513
G01 X66.5327 Y38.2414
G01 X66.5420 Y38.2295
G01 X66.5491 Y38.2195
G01 X66.5598 Y38.2074
G01 X66.7551 Y38.0121
G01 X66.7601 Y38.0079
G01 X66.7677 Y38.0007
G01 X66.7798 Y37.9918
G01 X66.7891 Y37.9842
G01 X66.7992 Y37.9778
G01 X66.8128 Y37.9714
G01 X66.8234 Y37.9658
G01 X66.8346 Y37.9615
G01 X66.8492 Y37.9579
G01 X66.8606 Y37.9544
G01 X66.8768 Y37.9514
G01 X67.2703 Y37.9022
G01 X67.2823 Y37.9012
G01 X67.2976 Y37.9014
G01 X67.3149 Y37.9010
G01 X67.3264 Y37.9018
G01 X67.7199 Y37.9510
G01 X67.7263 Y37.9523
G01 X67.7367 Y37.9539
G01 X67.7511 Y37.9580
G01 X67.7628 Y37.9606
G01 X67.7740 Y37.9648
G01 X67.7874 Y37.9716
G01 X67.7984 Y37.9764
G01 X67.8086 Y37.9827
G01 X67.8180 Y37.9901
G01 X67.8302 Y37.9988
G01 X67.8426 Y38.0098
G01 X68.0379 Y38.2051
G01 X68.0419 Y38.2099
G01 X68.0491 Y38.2174
G01 X68.0581 Y38.2296
G01 X68.0658 Y38.2391
G01 X68.0720 Y38.2489
G01 X68.0784 Y38.2626
G01 X68.0842 Y38.2734
G01 X68.0902 Y38.2883
G01 X68.1882 Y38.5821
G01 X68.1913 Y38.5958
G01 X68.1951 Y38.6085
G01 X68.1979 Y38.6249
G01 X68.1985 Y38.6381
G01 X68.2000 Y38.6517
G01 X68.2000 Y39.6627
G01 X68.2012 Y39.6799
G01 X68.2012 Y40.9201
G01 X68.1906 Y41.0276
G01 X68.1607 Y41.1262
G01 X68.1121 Y41.2171
G01 X68.0467 Y41.2967
G01 X67.9671 Y41.3621
G01 X67.8762 Y41.4107
G01 X67.7769 Y41.4408
G01 X67.7690 Y41.4437
G01 X67.7623 Y41.4468
G01 X67.7508 Y41.4535
G01 X67.7422 Y41.4601
G01 X67.7368 Y41.4651
G01 X67.7318 Y41.4704
G01 X67.7251 Y41.4790
G01 X67.7193 Y41.4883
G01 X67.7142 Y41.4993
G01 X67.7117 Y41.5061
G01 X67.7098 Y41.5131
G01 X67.7077 Y41.5251
G01 X67.7071 Y41.5360
G01 X67.7075 Y41.5445
G01 X67.7084 Y41.5517
G01 X67.7109 Y41.5636
G01 X67.7150 Y41.5750
G01 X67.7181 Y41.5816
G01 X67.7216 Y41.5880
G01 X67.7285 Y41.5980
G01 X67.7357 Y41.6062
G01 X67.7419 Y41.6120
G01 X67.7476 Y41.6165
G01 X67.7578 Y41.6232
G01 X67.7665 Y41.6275
G01 X67.7755 Y41.6310
G01 X68.0086 Y41.7087
G01 X68.0240 Y41.7147
G01 X68.0375 Y41.7216
G01 X68.0487 Y41.7266
G01 X68.0586 Y41.7327
G01 X68.0705 Y41.7420
G01 X68.0805 Y41.7491
G01 X68.0926 Y41.7598
G01 X68.2879 Y41.9551
G01 X68.2921 Y41.9601
G01 X68.2993 Y41.9677
G01 X68.3082 Y41.9798
G01 X68.3158 Y41.9891
G01 X68.3222 Y41.9992
G01 X68.3286 Y42.0128
G01 X68.3342 Y42.0234
G01 X68.3385 Y42.0346
G01 X68.3421 Y42.0492
G01 X68.3456 Y42.0606
G01 X68.3486 Y42.0768
G01 X68.3978 Y42.4703
G01 X68.3988 Y42.4823
G01 X68.3986 Y42.4976
G01 X68.3990 Y42.5149
G01 X68.3982 Y42.5264
G01 X68.3490 Y42.9199
G01 X68.3477 Y42.9263
G01 X68.3461 Y42.9367
G01 X68.3428 Y42.9482
G01 X68.3394 Y42.9628
G01 X68.3352 Y42.9740
G01 X68.3298 Y42.9847
G01 X68.3236 Y42.9984
G01 X68.3173 Y43.0086
G01 X68.3099 Y43.0180
G01 X68.3012 Y43.0302
G01 X68.2902 Y43.0426
G01 X68.0949 Y43.2379
G01 X68.0826 Y43.2491
G01 X68.0727 Y43.2563
G01 X68.0609 Y43.2658
G01 X68.0511 Y43.2720
G01 X68.0400 Y43.2771
G01 X68.0266 Y43.2842
G01 X68.0117 Y43.2902
G01 X67.7179 Y43.3882
G01 X67.7042 Y43.3913
G01 X67.6915 Y43.3951
G01 X67.6751 Y43.3979
G01 X67.6619 Y43.3985
G01 X67.6483 Y43.4000
G01 X66.6373 Y43.4000
G01 X66.6201 Y43.4012
G01 X65.3799 Y43.4012
G01 X65.2724 Y43.3906
G01 X65.1738 Y43.3607
G01 X65.0829 Y43.3121
G01 X65.0033 Y43.2467
G01 X64.9379 Y43.1671
G01 X64.8893 Y43.0762
G01 X64.8718 Y43.0186
G01 X64.8693 Y43.0117
G01 X64.8662 Y43.0050
G01 X64.8607 Y42.9955
G01 X64.8549 Y42.9875
G01 X64.8493 Y42.9810
G01 X64.8384 Y42.9712
G01 X64.8324 Y42.9668
G01 X64.8240 Y42.9618
G01 X64.8151 Y42.9576
G01 X64.8059 Y42.9543
G01 X64.7964 Y42.9519
G01 X64.7891 Y42.9508
G01 X64.7768 Y42.9500
G01 X63.9000 Y42.9500
G01 X63.8914 Y42.9505
G01 X63.8817 Y42.9519
G01 X63.8722 Y42.9543
G01 X63.8652 Y42.9567
G01 X63.8530 Y42.9624
G01 X63.8456 Y42.9668
G01 X63.8378 Y42.9727
G01 X63.8305 Y42.9793
G01 X63.8247 Y42.9856
G01 X63.8167 Y42.9965
G01 X63.8130 Y43.0028
G01 X63.8088 Y43.0117
G01 X63.8055 Y43.0210
G01 X63.8036 Y43.0281
G01 X63.8018 Y43.0390
G01 X63.8012 Y43.0500
G01 X63.8012 Y43.3451
G01 X63.7978 Y43.3794
G01 X63.7892 Y43.4077
G01 X63.7753 Y43.4337
G01 X63.7566 Y43.4566
G01 X63.7337 Y43.4753
G01 X63.7077 Y43.4892
G01 X63.6794 Y43.4978
G01 X63.6451 Y43.5012
G01 X61.9549 Y43.5012
G01 X61.9206 Y43.4978
G01 X61.8923 Y43.4892
G01 X61.8663 Y43.4753
G01 X61.8434 Y43.4566
G01 X61.8247 Y43.4337
G01 X61.8108 Y43.4077
G01 X61.8022 Y43.3794
G01 X61.7988 Y43.3451
G00 Z1.0000
G00 X61.9500 Y46.1000
G01 F400.00
G01 Z-0.0500
G01 F2500.00
G01 X63.6500 Y46.1000
G01 X63.6598 Y46.1010
G01 X63.6691 Y46.1038
G01 X63.6736 Y46.1059
G01 X63.6788 Y46.1091
G01 X63.6862 Y46.1155
G01 X63.6922 Y46.1233
G01 X63.6966 Y46.1320
G01 X63.6990 Y46.1402
G01 X63.7000 Y46.1500
G01 X63.7000 Y47.8500
G01 X63.6990 Y47.8598
G01 X63.6962 Y47.8691
G01 X63.6941 Y47.8736
G01 X63.6909 Y47.8788
G01 X63.6845 Y47.8862
G01 X63.6767 Y47.8922
G01 X63.6680 Y47.8966
G01 X63.6598 Y47.8990
G01 X63.6500 Y47.9000
G01 X61.9500 Y47.9000
G01 X61.9402 Y47.8990
G01 X61.9309 Y47.8962
G01 X61.9254 Y47.8935
G01 X61.9212 Y47.8909
G01 X61.9138 Y47.8845
G01 X61.9078 Y47.8767
G01 X61.9038 Y47.8691
G01 X61.9010 Y47.8598
G01 X61.9000 Y47.8500
G01 X61.9000 Y46.1488
G01 X61.9010 Y46.1402
G01 X61.9038 Y46.1309
G01 X61.9084 Y46.1222
G01 X61.9146 Y46.1146
G01 X61.9222 Y46.1084
G01 X61.9309 Y46.1038
G01 X61.9402 Y46.1010
G01 X61.9500 Y46.1000
G00 Z1.0000
G00 X63.3035 Y48.7942
G01 F400.00
G01 Z-0.0500
G01 F2500.00
G01 X71.8746 Y40.2231
G01 X71.8938 Y40.2059
G01 X71.9125 Y40.1920
G01 X71.9336 Y40.1794
G01 X71.9558 Y40.1689
G01 X71.9765 Y40.1614
G01 X72.0051 Y40.1543
G01 X72.0270 Y40.1511
G01 X72.0502 Y40.1499
G01 X74.2964 Y40.1499
G01 X78.5749 Y35.8714
G01 X78.5749 Y35.3182
G01 X78.5692 Y35.3144
G01 X78.5646 Y35.3104
G01 X78.5606 Y35.3058
G01 X78.5565 Y35.2996
G01 X78.5534 Y35.2930
G01 X78.5515 Y35.2871
G01 X78.5504 Y35.2811
G01 X78.5500 Y35.2750
G01 X78.5500 Y33.8250
G01 X78.5504 Y33.8189
G01 X78.5515 Y33.8129
G01 X78.5543 Y33.8047
G01 X78.5578 Y33.7983
G01 X78.5630 Y33.7914
G01 X78.5683 Y33.7863
G01 X78.5743 Y33.7821
G01 X78.5820 Y33.7784
G01 X78.5902 Y33.7760
G01 X78.5975 Y33.7751
G01 X79.0512 Y33.7750
G01 X79.0610 Y33.7762
G01 X79.0703 Y33.7793
G01 X79.0788 Y33.7841
G01 X79.0862 Y33.7905
G01 X79.0916 Y33.7972
G01 X79.0962 Y33.8059
G01 X79.0990 Y33.8152
G01 X79.1000 Y33.8250
G01 X79.1000 Y35.2762
G01 X79.0995 Y35.2823
G01 X79.0982 Y35.2883
G01 X79.0962 Y35.2941
G01 X79.0929 Y35.3007
G01 X79.0894 Y35.3058
G01 X79.0854 Y35.3104
G01 X79.0808 Y35.3144
G01 X79.0751 Y35.3182
G01 X79.0751 Y35.9750
G01 X79.0740 Y35.9983
G01 X79.0703 Y36.0238
G01 X79.0636 Y36.0499
G01 X79.0561 Y36.0707
G01 X79.0467 Y36.0907
G01 X79.0330 Y36.1139
G01 X79.0183 Y36.1337
G01 X79.0018 Y36.1518
G01 X74.5760 Y40.5777
G01 X74.5587 Y40.5933
G01 X74.5390 Y40.6079
G01 X74.5179 Y40.6206
G01 X74.4957 Y40.6311
G01 X74.4726 Y40.6393
G01 X74.4488 Y40.6453
G01 X74.4245 Y40.6489
G01 X74.4012 Y40.6501
G01 X72.1551 Y40.6501
G01 X63.6245 Y49.1807
G01 X63.6319 Y49.1967
G01 X63.6619 Y49.2811
G01 X63.6827 Y49.3644
G01 X63.6957 Y49.4518
G01 X63.6999 Y49.5425
G01 X63.6957 Y49.6282
G01 X63.6827 Y49.7156
G01 X63.6612 Y49.8013
G01 X63.6324 Y49.8821
G01 X63.5937 Y49.9643
G01 X63.5469 Y50.0420
G01 X63.4957 Y50.1110
G01 X63.4364 Y50.1764
G01 X63.3710 Y50.2357
G01 X63.3020 Y50.2869
G01 X63.2221 Y50.3348
G01 X63.1444 Y50.3715
G01 X63.0613 Y50.4012
G01 X62.9756 Y50.4227
G01 X62.8882 Y50.4357
G01 X62.8000 Y50.4400
G01 X62.7118 Y50.4357
G01 X62.6244 Y50.4227
G01 X62.5411 Y50.4019
G01 X62.4533 Y50.3705
G01 X62.3757 Y50.3337
G01 X62.3000 Y50.2883
G01 X62.2290 Y50.2357
G01 X62.1636 Y50.1764
G01 X62.1043 Y50.1110
G01 X62.0517 Y50.0400
G01 X62.0063 Y49.9643
G01 X61.9685 Y49.8844
G01 X61.9388 Y49.8013
G01 X61.9173 Y49.7156
G01 X61.9043 Y49.6282
G01 X61.9000 Y49.5400
G01 X61.9043 Y49.4518
G01 X61.9173 Y49.3644
G01 X61.9388 Y49.2787
G01 X61.9685 Y49.1956
G01 X62.0063 Y49.1157
G01 X62.0517 Y49.0400
G01 X62.1043 Y48.9690
G01 X62.1636 Y48.9036
G01 X62.2290 Y48.8443
G01 X62.3000 Y48.7917
G01 X62.3757 Y48.7463
G01 X62.4556 Y48.7085
G01 X62.5387 Y48.6788
G01 X62.6244 Y48.6573
G01 X62.7118 Y48.6443
G01 X62.8000 Y48.6400
G01 X62.8882 Y48.6443
G01 X62.9756 Y48.6573
G01 X63.0613 Y48.6788
G01 X63.1444 Y48.7085
G01 X63.2243 Y48.7463
G01 X63.2979 Y48.7904
G01 X63.3035 Y48.7942
G00 Z1.0000
G00 X65.0565 Y50.3191
G01 F400.00
G01 Z-0.0500
G01 F2500.00
G01 X65.0487 Y50.3287
G01 X65.0382 Y50.3373
G01 X65.0318 Y50.3431
G01 X63.7576 Y51.6174
G01 X63.7510 Y51.6246
G01 X63.7445 Y51.6336
G01 X63.7401 Y51.6409
G01 X63.7359 Y51.6498
G01 X63.7326 Y51.6591
G01 X63.7302 Y51.6686
G01 X63.7288 Y51.6783
G01 X63.7283 Y51.6881
G01 X63.7288 Y51.6979
G01 X63.7298 Y51.7052
G01 X63.7322 Y51.7160
G01 X63.7354 Y51.7252
G01 X63.7615 Y51.7883
G01 X63.8000 Y51.9815
G01 X63.8000 Y52.1785
G01 X63.7615 Y52.3717
G01 X63.6862 Y52.5537
G01 X63.5767 Y52.7174
G01 X63.4374 Y52.8567
G01 X63.2737 Y52.9662
G01 X63.0917 Y53.0415
G01 X62.8985 Y53.0800
G01 X62.7015 Y53.0800
G01 X62.5083 Y53.0415
G01 X62.3263 Y52.9662
G01 X62.1626 Y52.8567
G01 X62.0233 Y52.7174
G01 X61.9138 Y52.5537
G01 X61.8385 Y52.3717
G01 X61.8000 Y52.1785
G01 X61.8000 Y51.9815
G01 X61.8385 Y51.7883
G01 X61.9138 Y51.6063
G01 X62.0233 Y51.4426
G01 X62.1626 Y51.3033
G01 X62.3263 Y51.1938
G01 X62.5083 Y51.1185
G01 X62.7015 Y51.0800
G01 X62.8985 Y51.0800
G01 X63.0917 Y51.1185
G01 X63.1548 Y51.1446
G01 X63.1640 Y51.1478
G01 X63.1748 Y51.1502
G01 X63.1821 Y51.1512
G01 X63.1919 Y51.1517
G01 X63.2017 Y51.1512
G01 X63.2114 Y51.1498
G01 X63.2209 Y51.1474
G01 X63.2302 Y51.1441
G01 X63.2391 Y51.1399
G01 X63.2475 Y51.1349
G01 X63.2554 Y51.1290
G01 X63.2626 Y51.1224
G01 X64.4207 Y49.9643
G01 X64.4265 Y49.9580
G01 X64.4325 Y49.9502
G01 X64.4370 Y49.9429
G01 X64.4433 Y49.9296
G01 X64.4457 Y49.9226
G01 X64.4481 Y49.9131
G01 X64.4495 Y49.9034
G01 X64.4500 Y49.8948
G01 X64.4500 Y48.7366
G01 X64.4495 Y48.7280
G01 X64.4485 Y48.7208
G01 X64.4457 Y48.7088
G01 X64.4414 Y48.6973
G01 X64.4382 Y48.6907
G01 X64.4345 Y48.6844
G01 X64.4273 Y48.6744
G01 X64.4198 Y48.6663
G01 X64.4135 Y48.6605
G01 X64.4076 Y48.6561
G01 X64.3972 Y48.6496
G01 X64.3860 Y48.6446
G01 X64.3790 Y48.6421
G01 X64.3707 Y48.6400
G01 X64.3598 Y48.6383
G01 X64.3475 Y48.6379
G01 X64.3402 Y48.6383
G01 X64.3329 Y48.6393
G01 X64.3210 Y48.6421
G01 X64.3095 Y48.6464
G01 X64.3028 Y48.6496
G01 X64.2955 Y48.6540
G01 X64.2865 Y48.6605
G01 X64.2793 Y48.6671
G01 X63.7888 Y49.1576
G01 X63.7822 Y49.1648
G01 X63.7771 Y49.1717
G01 X63.7702 Y49.1833
G01 X63.7671 Y49.1900
G01 X63.7638 Y49.1993
G01 X63.7614 Y49.2088
G01 X63.7601 Y49.2173
G01 X63.7596 Y49.2308
G01 X63.7600 Y49.2381
G01 X63.7614 Y49.2478
G01 X63.8000 Y49.4415
G01 X63.8000 Y49.6385
G01 X63.7615 Y49.8317
G01 X63.6862 Y50.0137
G01 X63.5767 Y50.1774
G01 X63.4374 Y50.3167
G01 X63.2737 Y50.4262
G01 X63.0917 Y50.5015
G01 X62.8985 Y50.5400
G01 X62.7015 Y50.5400
G01 X62.5083 Y50.5015
G01 X62.3263 Y50.4262
G01 X62.1626 Y50.3167
G01 X62.0233 Y50.1774
G01 X61.9138 Y50.0137
G01 X61.8385 Y49.8317
G01 X61.8000 Y49.6385
G01 X61.8000 Y49.4415
G01 X61.8385 Y49.2483
G01 X61.9138 Y49.0663
G01 X62.0233 Y48.9026
G01 X62.1626 Y48.7633
G01 X62.3263 Y48.6538
G01 X62.5083 Y48.5785
G01 X62.7015 Y48.5400
G01 X62.8985 Y48.5400
G01 X63.0917 Y48.5785
G01 X63.2324 Y48.6368
G01 X63.2417 Y48.6401
G01 X63.2500 Y48.6422
G01 X63.2634 Y48.6441
G01 X63.2707 Y48.6444
G01 X63.2805 Y48.6439
G01 X63.2902 Y48.6424
G01 X63.2974 Y48.6407
G01 X63.3101 Y48.6363
G01 X63.3179 Y48.6326
G01 X63.3263 Y48.6275
G01 X63.3342 Y48.6217
G01 X63.3414 Y48.6151
G01 X63.7988 Y48.1577
G01 X63.8046 Y48.1513
G01 X63.8104 Y48.1434
G01 X63.8155 Y48.1350
G01 X63.8201 Y48.1250
G01 X63.8230 Y48.1169
G01 X63.8256 Y48.1061
G01 X63.8269 Y48.0964
G01 X63.8272 Y48.0854
G01 X63.8268 Y48.0780
G01 X63.8253 Y48.0683
G01 X63.8230 Y48.0588
G01 X63.8197 Y48.0495
G01 X63.8155 Y48.0407
G01 X63.8104 Y48.0322
G01 X63.8046 Y48.0244
G01 X63.7988 Y48.0180
G01 X63.7907 Y48.0105
G01 X63.7838 Y48.0053
G01 X63.7755 Y48.0002
G01 X63.7678 Y47.9964
G01 X63.7539 Y47.9914
G01 X63.7456 Y47.9895
G01 X63.7358 Y47.9882
G01 X63.7260 Y47.9878
G01 X63.7150 Y47.9886
G01 X63.7077 Y47.9897
G01 X63.7006 Y47.9914
G01 X63.6794 Y47.9978
G01 X63.6451 Y48.0012
G01 X61.9549 Y48.0012
G01 X61.9206 Y47.9978
G01 X61.8923 Y47.9892
G01 X61.8663 Y47.9753
G01 X61.8434 Y47.9566
G01 X61.8247 Y47.9337
G01 X61.8108 Y47.9077
G01 X61.8022 Y47.8794
G01 X61.7988 Y47.8451
G01 X61.7988 Y46.1549
G01 X61.8022 Y46.1206
G01 X61.8108 Y46.0923
G01 X61.8247 Y46.0663
G01 X61.8434 Y46.0434
G01 X61.8663 Y46.0247
G01 X61.8923 Y46.0108
G01 X61.9206 Y46.0022
G01 X61.9549 Y45.9988
G01 X63.6451 Y45.9988
G01 X63.6794 Y46.0022
G01 X63.7077 Y46.0108
G01 X63.7337 Y46.0247
G01 X63.7566 Y46.0434
G01 X63.7753 Y46.0663
G01 X63.7892 Y46.0923
G01 X63.7978 Y46.1206
G01 X63.8012 Y46.1549
G01 X63.8012 Y47.8451
G01 X63.7978 Y47.8794
G01 X63.7914 Y47.9006
G01 X63.7897 Y47.9077
G01 X63.7886 Y47.9150
G01 X63.7878 Y47.9260
G01 X63.7883 Y47.9371
G01 X63.7903 Y47.9492
G01 X63.7921 Y47.9563
G01 X63.7945 Y47.9632
G01 X63.7996 Y47.9744
G01 X63.8053 Y47.9838
G01 X63.8105 Y47.9907
G01 X63.8154 Y47.9962
G01 X63.8234 Y48.0038
G01 X63.8322 Y48.0104
G01 X63.8429 Y48.0166
G01 X63.8495 Y48.0197
G01 X63.8565 Y48.0222
G01 X63.8683 Y48.0253
G01 X63.8805 Y48.0270
G01 X63.8878 Y48.0273
G01 X63.8952 Y48.0270
G01 X63.9073 Y48.0253
G01 X63.9180 Y48.0226
G01 X63.9283 Y48.0187
G01 X63.9350 Y48.0155
G01 X63.9413 Y48.0117
G01 X63.9503 Y48.0053
G01 X63.9585 Y47.9980
G01 X71.7884 Y40.1681
G01 X71.7942 Y40.1618
G01 X71.8028 Y40.1513
G01 X71.8561 Y40.1076
G01 X71.9169 Y40.0751
G01 X71.9829 Y40.0551
G01 X72.0515 Y40.0483
G01 X72.0650 Y40.0496
G01 X72.0736 Y40.0500
G01 X74.2136 Y40.0500
G01 X74.2259 Y40.0492
G01 X74.2331 Y40.0481
G01 X74.2427 Y40.0457
G01 X74.2541 Y40.0414
G01 X74.2608 Y40.0382
G01 X74.2682 Y40.0338
G01 X74.2771 Y40.0273
G01 X74.2843 Y40.0207
G01 X78.4457 Y35.8593
G01 X78.4538 Y35.8501
G01 X78.4582 Y35.8442
G01 X78.4620 Y35.8379
G01 X78.4674 Y35.8269
G01 X78.4711 Y35.8165
G01 X78.4731 Y35.8081
G01 X78.4742 Y35.8008
G01 X78.4750 Y35.7886
G01 X78.4750 Y35.5262
G01 X78.4745 Y35.5164
G01 X78.4728 Y35.5055
G01 X78.4699 Y35.4948
G01 X78.4674 Y35.4879
G01 X78.4643 Y35.4812
G01 X78.4595 Y35.4727
G01 X78.4531 Y35.4637
G01 X78.4466 Y35.4564
G01 X78.4385 Y35.4489
G01 X78.4306 Y35.4430
G01 X78.4222 Y35.4380
G01 X78.4155 Y35.4348
G01 X78.4040 Y35.4305
G01 X78.3921 Y35.4277
G01 X78.3848 Y35.4267
G01 X78.3775 Y35.4262
G01 X77.9750 Y35.4262
G01 X77.9652 Y35.4267
G01 X77.9567 Y35.4279
G01 X77.9436 Y35.4313
G01 X77.9367 Y35.4338
G01 X77.9278 Y35.4380
G01 X77.9194 Y35.4430
G01 X77.9125 Y35.4481
G01 X77.9043 Y35.4555
G01 X77.8977 Y35.4628
G01 X77.8918 Y35.4706
G01 X77.8874 Y35.4780
G01 X77.8826 Y35.4879
G01 X77.8797 Y35.4960
G01 X77.8772 Y35.5055
G01 X77.8758 Y35.5140
G01 X77.8750 Y35.5262
G01 X77.8750 Y35.6529
G01 X77.8754 Y35.6615
G01 X77.8767 Y35.6750
G01 X77.8699 Y35.7436
G01 X77.8499 Y35.8096
G01 X77.8174 Y35.8704
G01 X77.7737 Y35.9237
G01 X77.7632 Y35.9323
G01 X77.7568 Y35.9381
G01 X74.9631 Y38.7318
G01 X74.9573 Y38.7382
G01 X74.9487 Y38.7487
G01 X74.8954 Y38.7924
G01 X74.8346 Y38.8249
G01 X74.7686 Y38.8449
G01 X74.7000 Y38.8517
G01 X74.6865 Y38.8504
G01 X74.6779 Y38.8500
G01 X74.3414 Y38.8500
G01 X74.3340 Y38.8505
G01 X74.3267 Y38.8515
G01 X74.3160 Y38.8539
G01 X74.3055 Y38.8576
G01 X74.2945 Y38.8630
G01 X74.2883 Y38.8668
G01 X74.2804 Y38.8727
G01 X74.2731 Y38.8793
G01 X74.2681 Y38.8847
G01 X74.2600 Y38.8955
G01 X74.2556 Y38.9028
G01 X74.2519 Y38.9106
G01 X74.2481 Y38.9210
G01 X74.2455 Y38.9317
G01 X74.2443 Y38.9402
G01 X74.2406 Y38.9776
G01 X74.2107 Y39.0762
G01 X74.1621 Y39.1671
G01 X74.0967 Y39.2467
G01 X74.0171 Y39.3121
G01 X73.9262 Y39.3607
G01 X73.8276 Y39.3906
G01 X73.7201 Y39.4012
G01 X72.4799 Y39.4012
G01 X72.4627 Y39.4000
G01 X71.4549 Y39.4000
G01 X71.4409 Y39.3986
G01 X71.4276 Y39.3982
G01 X71.4113 Y39.3957
G01 X71.3985 Y39.3921
G01 X71.3852 Y39.3892
G01 X71.0914 Y39.2913
G01 X71.0760 Y39.2853
G01 X71.0651 Y39.2796
G01 X71.0513 Y39.2734
G01 X71.0414 Y39.2673
G01 X71.0318 Y39.2597
G01 X71.0195 Y39.2509
G01 X71.0074 Y39.2402
G01 X70.8121 Y39.0449
G01 X70.8079 Y39.0399
G01 X70.8007 Y39.0323
G01 X70.7936 Y39.0226
G01 X70.7842 Y39.0109
G01 X70.7778 Y39.0008
G01 X70.7728 Y38.9899
G01 X70.7658 Y38.9766
G01 X70.7615 Y38.9654
G01 X70.7587 Y38.9538
G01 X70.7544 Y38.9394
G01 X70.7514 Y38.9232
G01 X70.7022 Y38.5297
G01 X70.7012 Y38.5177
G01 X70.7014 Y38.5024
G01 X70.7010 Y38.4851
G01 X70.7018 Y38.4736
G01 X70.7510 Y38.0801
G01 X70.7523 Y38.0737
G01 X70.7539 Y38.0633
G01 X70.7580 Y38.0489
G01 X70.7606 Y38.0372
G01 X70.7648 Y38.0260
G01 X70.7716 Y38.0126
G01 X70.7764 Y38.0016
G01 X70.7827 Y37.9914
G01 X70.7901 Y37.9820
G01 X70.7988 Y37.9698
G01 X70.8098 Y37.9574
G01 X71.0051 Y37.7621
G01 X71.0099 Y37.7581
G01 X71.0174 Y37.7509
G01 X71.0296 Y37.7419
G01 X71.0391 Y37.7342
G01 X71.0489 Y37.7280
G01 X71.0626 Y37.7216
G01 X71.0734 Y37.7158
G01 X71.0883 Y37.7098
G01 X71.3821 Y37.6118
G01 X71.3958 Y37.6087
G01 X71.4085 Y37.6049
G01 X71.4249 Y37.6021
G01 X71.4381 Y37.6015
G01 X71.4517 Y37.6000
G01 X72.4627 Y37.6000
G01 X72.4799 Y37.5988
G01 X73.7201 Y37.5988
G01 X73.8276 Y37.6094
G01 X73.9262 Y37.6393
G01 X74.0171 Y37.6879
G01 X74.0967 Y37.7533
G01 X74.1621 Y37.8329
G01 X74.2107 Y37.9238
G01 X74.2406 Y38.0224
G01 X74.2443 Y38.0598
G01 X74.2453 Y38.0671
G01 X74.2478 Y38.0779
G01 X74.2505 Y38.0860
G01 X74.2562 Y38.0982
G01 X74.2607 Y38.1056
G01 X74.2657 Y38.1125
G01 X74.2749 Y38.1224
G01 X74.2804 Y38.1273
G01 X74.2872 Y38.1325
G01 X74.2978 Y38.1388
G01 X74.3055 Y38.1424
G01 X74.3125 Y38.1449
G01 X74.3243 Y38.1481
G01 X74.3352 Y38.1496
G01 X74.3438 Y38.1500
G01 X74.5148 Y38.1500
G01 X74.5234 Y38.1495
G01 X74.5331 Y38.1481
G01 X74.5426 Y38.1457
G01 X74.5496 Y38.1433
G01 X74.5618 Y38.1376
G01 X74.5692 Y38.1332
G01 X74.5771 Y38.1273
G01 X74.5843 Y38.1207
G01 X76.8093 Y35.8957
G01 X76.8159 Y35.8885
G01 X76.8204 Y35.8826
G01 X76.8274 Y35.8711
G01 X76.8315 Y35.8621
G01 X76.8350 Y35.8517
G01 X76.8367 Y35.8445
G01 X76.8378 Y35.8372
G01 X76.8386 Y35.8275
G01 X76.8383 Y35.8164
G01 X76.8369 Y35.8067
G01 X76.8343 Y35.7960
G01 X76.8310 Y35.7867
G01 X76.8268 Y35.7778
G01 X76.8218 Y35.7694
G01 X76.8159 Y35.7615
G01 X76.8093 Y35.7543
G01 X76.8021 Y35.7477
G01 X76.7942 Y35.7418
G01 X76.7858 Y35.7368
G01 X76.7750 Y35.7319
G01 X76.7750 Y35.7113
G01 X76.7742 Y35.7003
G01 X76.7731 Y35.6930
G01 X76.7711 Y35.6846
G01 X76.7669 Y35.6731
G01 X76.7632 Y35.6654
G01 X76.7595 Y35.6590
G01 X76.7523 Y35.6490
G01 X76.7457 Y35.6418
G01 X76.7403 Y35.6368
G01 X76.7295 Y35.6287
G01 X76.7200 Y35.6232
G01 X76.7133 Y35.6201
G01 X76.7064 Y35.6176
G01 X76.6957 Y35.6147
G01 X76.6848 Y35.6130
G01 X76.6725 Y35.6125
G01 X76.6652 Y35.6130
G01 X76.6579 Y35.6140
G01 X76.6471 Y35.6164
G01 X76.6367 Y35.6201
G01 X76.6278 Y35.6243
G01 X76.6205 Y35.6287
G01 X76.6097 Y35.6368
G01 X76.6043 Y35.6418
G01 X76.5346 Y35.7114
G01 X76.4589 Y35.6848
G01 X76.3826 Y35.6396
G01 X76.3166 Y35.5804
G01 X76.2634 Y35.5095
G01 X76.2251 Y35.4296
G01 X76.2031 Y35.3437
G01 X76.1979 Y35.2484
G01 X76.1998 Y34.9292
G01 X76.2789 Y34.8500
G01 X76.6000 Y34.8500
G01 X76.6001 Y35.2775
G01 X76.6007 Y35.2835
G01 X76.6018 Y35.2883
G01 X76.6053 Y35.2975
G01 X76.6078 Y35.3017
G01 X76.6113 Y35.3067
G01 X76.6183 Y35.3137
G01 X76.6254 Y35.3185
G01 X76.6332 Y35.3221
G01 X76.6402 Y35.3240
G01 X76.6488 Y35.3250
G01 X77.1012 Y35.3250
G01 X77.1073 Y35.3245
G01 X77.1145 Y35.3228
G01 X77.1203 Y35.3207
G01 X77.1257 Y35.3179
G01 X77.1317 Y35.3137
G01 X77.1362 Y35.3095
G01 X77.1402 Y35.3048
G01 X77.1435 Y35.2996
G01 X77.1462 Y35.2941
G01 X77.1482 Y35.2883
G01 X77.1496 Y35.2811
G01 X77.1500 Y35.2750
G01 X77.1500 Y33.8250
G01 X77.1497 Y33.8199
G01 X77.1500 Y33.8127
G01 X77.1500 Y33.4539
G01 X77.2154 Y33.3886
G01 X77.2911 Y33.4152
G01 X77.3674 Y33.4604
G01 X77.4334 Y33.5196
G01 X77.4866 Y33.5905
G01 X77.4993 Y33.6170
G01 X77.5035 Y33.6249
G01 X77.5100 Y33.6344
G01 X77.5157 Y33.6413
G01 X77.5259 Y33.6509
G01 X77.5320 Y33.6556
G01 X77.5406 Y33.6611
G01 X77.5498 Y33.6656
G01 X77.5581 Y33.6688
G01 X77.5717 Y33.6722
G01 X77.5793 Y33.6733
G01 X77.5895 Y33.6738
G01 X77.7262 Y33.6738
G01 X77.7348 Y33.6733
G01 X77.7445 Y33.6719
G01 X77.7540 Y33.6695
G01 X77.7644 Y33.6657
G01 X77.7722 Y33.6620
G01 X77.7795 Y33.6576
G01 X77.7903 Y33.6495
G01 X77.7957 Y33.6445
G01 X77.8023 Y33.6372
G01 X77.8082 Y33.6294
G01 X77.8126 Y33.6220
G01 X77.8183 Y33.6098
G01 X77.8207 Y33.6028
G01 X77.8231 Y33.5933
G01 X77.8247 Y33.5811
G01 X77.8250 Y33.5614
G01 X77.8245 Y33.5516
G01 X77.8231 Y33.5419
G01 X77.8207 Y33.5324
G01 X77.8174 Y33.5231
G01 X77.8132 Y33.5142
G01 X77.8082 Y33.5058
G01 X77.8023 Y33.4979
G01 X77.7957 Y33.4907
G01 X76.1843 Y31.8793
G01 X76.1761 Y31.8719
G01 X76.1671 Y31.8655
G01 X76.1608 Y31.8618
G01 X76.1541 Y31.8586
G01 X76.1438 Y31.8547
G01 X76.1307 Y31.8515
G01 X76.1234 Y31.8505
G01 X76.1136 Y31.8500
G01 X74.8221 Y31.8500
G01 X74.8135 Y31.8504
G01 X74.8000 Y31.8517
G01 X74.7314 Y31.8449
G01 X74.6654 Y31.8249
G01 X74.6046 Y31.7924
G01 X74.5513 Y31.7487
G01 X74.5427 Y31.7382
G01 X74.5369 Y31.7318
G01 X74.1339 Y31.3288
G01 X74.1275 Y31.3231
G01 X74.1206 Y31.3179
G01 X74.1090 Y31.3111
G01 X74.1023 Y31.3080
G01 X74.0931 Y31.3047
G01 X74.0835 Y31.3023
G01 X74.0750 Y31.3010
G01 X74.0640 Y31.3004
G01 X74.0530 Y31.3010
G01 X74.0421 Y31.3029
G01 X74.0350 Y31.3047
G01 X74.0280 Y31.3071
G01 X74.0169 Y31.3122
G01 X73.9262 Y31.3607
G01 X73.8276 Y31.3906
G01 X73.7201 Y31.4012
G01 X72.4799 Y31.4012
G01 X72.4627 Y31.4000
G01 X71.4549 Y31.4000
G01 X71.4409 Y31.3986
G01 X71.4276 Y31.3982
G01 X71.4113 Y31.3957
G01 X71.3985 Y31.3921
G01 X71.3852 Y31.3892
G01 X71.0914 Y31.2913
G01 X71.0760 Y31.2853
G01 X71.0651 Y31.2796
G01 X71.0513 Y31.2734
G01 X71.0414 Y31.2673
G01 X71.0318 Y31.2597
G01 X71.0195 Y31.2509
G01 X71.0074 Y31.2402
G01 X70.8121 Y31.0449
G01 X70.8079 Y31.0399
G01 X70.8007 Y31.0323
G01 X70.7936 Y31.0226
G01 X70.7842 Y31.0109
G01 X70.7778 Y31.0008
G01 X70.7728 Y30.9899
G01 X70.7658 Y30.9766
G01 X70.7615 Y30.9654
G01 X70.7587 Y30.9538
G01 X70.7544 Y30.9394
G01 X70.7514 Y30.9232
G01 X70.7022 Y30.5297
G01 X70.7012 Y30.5177
G01 X70.7014 Y30.5024
G01 X70.7010 Y30.4851
G01 X70.7018 Y30.4736
G01 X70.7510 Y30.0801
G01 X70.7523 Y30.0737
G01 X70.7539 Y30.0633
G01 X70.7580 Y30.0489
G01 X70.7606 Y30.0372
G01 X70.7648 Y30.0260
G01 X70.7716 Y30.0126
G01 X70.7764 Y30.0016
G01 X70.7827 Y29.9914
G01 X70.7901 Y29.9820
G01 X70.7988 Y29.9698
G01 X70.8098 Y29.9574
G01 X71.0051 Y29.7621
G01 X71.0099 Y29.7581
G01 X71.0174 Y29.7509
G01 X71.0296 Y29.7419
G01 X71.0391 Y29.7342
G01 X71.0489 Y29.7280
G01 X71.0626 Y29.7216
G01 X71.0734 Y29.7158
G01 X71.0883 Y29.7098
G01 X71.3821 Y29.6118
G01 X71.3958 Y29.6087
G01 X71.4085 Y29.6049
G01 X71.4249 Y29.6021
G01 X71.4381 Y29.6015
G01 X71.4517 Y29.6000
G01 X72.4627 Y29.6000
G01 X72.4799 Y29.5988
G01 X73.7201 Y29.5988
G01 X73.8276 Y29.6094
G01 X73.9262 Y29.6393
G01 X74.0171 Y29.6879
G01 X74.0967 Y29.7533
G01 X74.1621 Y29.8329
G01 X74.2107 Y29.9238
G01 X74.2406 Y30.0224
G01 X74.2512 Y30.1299
G01 X74.2512 Y30.4148
G01 X74.2515 Y30.4222
G01 X74.2531 Y30.4343
G01 X74.2559 Y30.4450
G01 X74.2588 Y30.4531
G01 X74.2619 Y30.4598
G01 X74.2680 Y30.4704
G01 X74.2739 Y30.4783
G01 X74.2805 Y30.4855
G01 X74.9157 Y31.1207
G01 X74.9239 Y31.1281
G01 X74.9308 Y31.1332
G01 X74.9392 Y31.1382
G01 X74.9481 Y31.1424
G01 X74.9550 Y31.1449
G01 X74.9681 Y31.1483
G01 X74.9766 Y31.1495
G01 X74.9852 Y31.1500
G01 X76.2779 Y31.1500
G01 X76.2865 Y31.1496
G01 X76.3000 Y31.1483
G01 X76.3686 Y31.1551
G01 X76.4346 Y31.1751
G01 X76.4954 Y31.2076
G01 X76.5487 Y31.2513
G01 X76.5573 Y31.2618
G01 X76.5631 Y31.2682
G01 X78.4068 Y33.1119
G01 X78.4132 Y33.1177
G01 X78.4237 Y33.1263
G01 X78.4674 Y33.1796
G01 X78.4999 Y33.2404
G01 X78.5199 Y33.3064
G01 X78.5267 Y33.3750
G01 X78.5254 Y33.3885
G01 X78.5250 Y33.3971
G01 X78.5250 Y33.5738
G01 X78.5255 Y33.5836
G01 X78.5269 Y33.5933
G01 X78.5293 Y33.6028
G01 X78.5326 Y33.6121
G01 X78.5357 Y33.6188
G01 X78.5432 Y33.6314
G01 X78.5485 Y33.6382
G01 X78.5552 Y33.6454
G01 X78.5615 Y33.6511
G01 X78.5694 Y33.6570
G01 X78.5778 Y33.6620
G01 X78.5856 Y33.6657
G01 X78.5948 Y33.6691
G01 X78.6031 Y33.6714
G01 X78.6176 Y33.6735
G01 X78.6250 Y33.6738
G01 X79.0250 Y33.6738
G01 X79.0348 Y33.6733
G01 X79.0457 Y33.6716
G01 X79.0540 Y33.6695
G01 X79.0633 Y33.6662
G01 X79.0722 Y33.6620
G01 X79.0785 Y33.6583
G01 X79.0894 Y33.6503
G01 X79.0957 Y33.6445
G01 X79.1023 Y33.6372
G01 X79.1082 Y33.6294
G01 X79.1126 Y33.6220
G01 X79.1183 Y33.6098
G01 X79.1207 Y33.6028
G01 X79.1231 Y33.5933
G01 X79.1245 Y33.5836
G01 X79.1250 Y33.5750
G01 X79.1250 Y31.1029
G01 X79.1247 Y31.0956
G01 X79.1231 Y31.0834
G01 X79.1199 Y31.0716
G01 X79.1174 Y31.0646
G01 X79.1138 Y31.0569
G01 X79.1075 Y31.0463
G01 X79.1015 Y31.0385
G01 X79.0940 Y31.0305
G01 X79.0885 Y31.0256
G01 X79.0533 Y30.9967
G01 X78.9879 Y30.9171
G01 X78.9393 Y30.8262
G01 X78.9094 Y30.7276
G01 X78.8988 Y30.6201
G01 X78.8988 Y30.4500
G01 X78.8983 Y30.4402
G01 X78.8973 Y30.4329
G01 X78.8941 Y30.4198
G01 X78.8912 Y30.4117
G01 X78.8876 Y30.4039
G01 X78.8805 Y30.3924
G01 X78.8761 Y30.3865
G01 X78.8695 Y30.3793
G01 X78.8622 Y30.3727
G01 X78.8544 Y30.3668
G01 X78.8459 Y30.3618
G01 X78.8371 Y30.3576
G01 X78.8278 Y30.3543
G01 X78.8183 Y30.3519
G01 X78.8086 Y30.3505
G01 X78.8000 Y30.3500
G01 X78.5438 Y30.3500
G01 X78.5365 Y30.3503
G01 X78.5243 Y30.3519
G01 X78.5136 Y30.3547
G01 X78.5033 Y30.3586
G01 X78.4967 Y30.3618
G01 X78.4903 Y30.3655
G01 X78.4794 Y30.3735
G01 X78.4731 Y30.3793
G01 X78.4665 Y30.3865
G01 X78.4607 Y30.3944
G01 X78.4568 Y30.4007
G01 X78.4510 Y30.4129
G01 X78.4478 Y30.4221
G01 X78.4453 Y30.4329
G01 X78.4443 Y30.4402
G01 X78.4406 Y30.4776
G01 X78.4107 Y30.5762
G01 X78.3621 Y30.6671
G01 X78.2967 Y30.7467
G01 X78.2171 Y30.8121
G01 X78.1262 Y30.8607
G01 X78.0276 Y30.8906
G01 X77.9201 Y30.9012
G01 X76.6799 Y30.9012
G01 X76.6627 Y30.9000
G01 X75.6549 Y30.9000
G01 X75.6409 Y30.8986
G01 X75.6276 Y30.8982
G01 X75.6113 Y30.8957
G01 X75.5985 Y30.8921
G01 X75.5852 Y30.8892
G01 X75.2914 Y30.7913
G01 X75.2760 Y30.7853
G01 X75.2651 Y30.7796
G01 X75.2513 Y30.7734
G01 X75.2414 Y30.7673
G01 X75.2318 Y30.7597
G01 X75.2195 Y30.7509
G01 X75.2074 Y30.7402
G01 X75.0121 Y30.5449
G01 X75.0079 Y30.5399
G01 X75.0007 Y30.5323
G01 X74.9936 Y30.5226
G01 X74.9842 Y30.5109
G01 X74.9778 Y30.5008
G01 X74.9728 Y30.4899
G01 X74.9658 Y30.4766
G01 X74.9615 Y30.4654
G01 X74.9587 Y30.4538
G01 X74.9544 Y30.4394
G01 X74.9514 Y30.4232
G01 X74.9022 Y30.0297
G01 X74.9012 Y30.0177
G01 X74.9014 Y30.0024
G01 X74.9010 Y29.9851
G01 X74.9018 Y29.9736
G01 X74.9510 Y29.5801
G01 X74.9523 Y29.5737
G01 X74.9539 Y29.5633
G01 X74.9580 Y29.5489
G01 X74.9606 Y29.5372
G01 X74.9648 Y29.5260
G01 X74.9716 Y29.5126
G01 X74.9764 Y29.5016
G01 X74.9827 Y29.4914
G01 X74.9901 Y29.4820
G01 X74.9988 Y29.4698
G01 X75.0098 Y29.4574
G01 X75.2051 Y29.2621
G01 X75.2099 Y29.2581
G01 X75.2174 Y29.2509
G01 X75.2296 Y29.2419
G01 X75.2391 Y29.2342
G01 X75.2489 Y29.2280
G01 X75.2626 Y29.2216
G01 X75.2734 Y29.2158
G01 X75.2883 Y29.2098
G01 X75.5821 Y29.1118
G01 X75.5958 Y29.1087
G01 X75.6085 Y29.1049
G01 X75.6249 Y29.1021
G01 X75.6381 Y29.1015
G01 X75.6517 Y29.1000
G01 X76.6627 Y29.1000
G01 X76.6799 Y29.0988
G01 X77.9201 Y29.0988
G01 X78.0276 Y29.1094
G01 X78.1262 Y29.1393
G01 X78.2171 Y29.1879
G01 X78.2967 Y29.2533
G01 X78.3621 Y29.3329
G01 X78.4107 Y29.4238
G01 X78.4406 Y29.5224
G01 X78.4443 Y29.5598
G01 X78.4453 Y29.5671
G01 X78.4478 Y29.5779
G01 X78.4510 Y29.5871
G01 X78.4550 Y29.5961
G01 X78.4593 Y29.6035
G01 X78.4673 Y29.6144
G01 X78.4731 Y29.6207
G01 X78.4804 Y29.6273
G01 X78.4883 Y29.6332
G01 X78.4945 Y29.6370
G01 X78.5055 Y29.6424
G01 X78.5160 Y29.6461
G01 X78.5243 Y29.6481
G01 X78.5316 Y29.6492
G01 X78.5426 Y29.6500
G01 X78.8000 Y29.6500
G01 X78.8086 Y29.6495
G01 X78.8183 Y29.6481
G01 X78.8278 Y29.6457
G01 X78.8348 Y29.6433
G01 X78.8459 Y29.6382
G01 X78.8564 Y29.6318
G01 X78.8622 Y29.6273
G01 X78.8686 Y29.6216
G01 X78.8776 Y29.6115
G01 X78.8820 Y29.6056
G01 X78.8864 Y29.5982
G01 X78.8917 Y29.5871
G01 X78.8945 Y29.5790
G01 X78.8966 Y29.5707
G01 X78.8985 Y29.5574
G01 X78.8988 Y29.5500
G01 X78.8988 Y29.3799
G01 X78.9000 Y29.3627
G01 X78.9000 Y28.3549
G01 X78.9014 Y28.3409
G01 X78.9018 Y28.3276
G01 X78.9043 Y28.3113
G01 X78.9079 Y28.2985
G01 X78.9108 Y28.2852
G01 X79.0087 Y27.9914
G01 X79.0147 Y27.9760
G01 X79.0216 Y27.9625
G01 X79.0266 Y27.9513
G01 X79.0327 Y27.9414
G01 X79.0420 Y27.9295
G01 X79.0491 Y27.9195
G01 X79.0598 Y27.9074
G01 X79.2551 Y27.7121
G01 X79.2601 Y27.7079
G01 X79.2677 Y27.7007
G01 X79.2798 Y27.6918
G01 X79.2891 Y27.6842
G01 X79.2992 Y27.6778
G01 X79.3128 Y27.6714
G01 X79.3234 Y27.6658
G01 X79.3346 Y27.6615
G01 X79.3492 Y27.6579
G01 X79.3606 Y27.6544
G01 X79.3768 Y27.6514
G01 X79.7703 Y27.6022
G01 X79.7823 Y27.6012
G01 X79.7976 Y27.6014
G01 X79.8149 Y27.6010
G01 X79.8264 Y27.6018
G01 X80.2199 Y27.6510
G01 X80.2263 Y27.6523
G01 X80.2367 Y27.6539
G01 X80.2511 Y27.6580
G01 X80.2628 Y27.6606
G01 X80.2740 Y27.6648
G01 X80.2874 Y27.6716
G01 X80.2984 Y27.6764
G01 X80.3086 Y27.6827
G01 X80.3180 Y27.6901
G01 X80.3302 Y27.6988
G01 X80.3426 Y27.7098
G01 X80.5379 Y27.9051
G01 X80.5419 Y27.9099
G01 X80.5491 Y27.9174
G01 X80.5581 Y27.9296
G01 X80.5658 Y27.9391
G01 X80.5720 Y27.9489
G01 X80.5784 Y27.9626
G01 X80.5842 Y27.9734
G01 X80.5902 Y27.9883
G01 X80.6882 Y28.2821
G01 X80.6913 Y28.2958
G01 X80.6951 Y28.3085
G01 X80.6979 Y28.3249
G01 X80.6985 Y28.3381
G01 X80.7000 Y28.3517
G01 X80.7000 Y29.3627
G01 X80.7012 Y29.3799
G01 X80.7012 Y30.6201
G01 X80.6906 Y30.7276
G01 X80.6607 Y30.8262
G01 X80.6121 Y30.9171
G01 X80.5467 Y30.9967
G01 X80.4671 Y31.0621
G01 X80.3762 Y31.1107
G01 X80.2776 Y31.1406
G01 X80.1701 Y31.1512
G01 X79.9250 Y31.1512
G01 X79.9140 Y31.1518
G01 X79.9031 Y31.1536
G01 X79.8960 Y31.1555
G01 X79.8890 Y31.1579
G01 X79.8800 Y31.1619
G01 X79.8705 Y31.1674
G01 X79.8615 Y31.1739
G01 X79.8534 Y31.1814
G01 X79.8462 Y31.1897
G01 X79.8418 Y31.1956
G01 X79.8380 Y31.2019
G01 X79.8326 Y31.2129
G01 X79.8293 Y31.2222
G01 X79.8269 Y31.2317
G01 X79.8255 Y31.2414
G01 X79.8250 Y31.2512
G01 X79.8250 Y32.5558
G01 X79.8256 Y32.5656
G01 X79.8274 Y32.5765
G01 X79.8293 Y32.5836
G01 X79.8317 Y32.5906
G01 X79.8362 Y32.6007
G01 X79.8418 Y32.6102
G01 X79.8477 Y32.6181
G01 X79.8552 Y32.6262
G01 X79.8635 Y32.6334
G01 X79.8694 Y32.6378
G01 X79.8778 Y32.6428
G01 X79.8867 Y32.6470
G01 X79.8960 Y32.6503
G01 X79.9055 Y32.6527
G01 X79.9152 Y32.6541
G01 X79.9250 Y32.6546
G01 X79.9324 Y32.6543
G01 X79.9469 Y32.6522
G01 X79.9552 Y32.6499
G01 X79.9644 Y32.6465
G01 X79.9722 Y32.6428
G01 X79.9806 Y32.6378
G01 X79.9885 Y32.6319
G01 X79.9949 Y32.6262
G01 X81.6530 Y30.9681
G01 X81.6588 Y30.9618
G01 X81.6674 Y30.9513
G01 X81.7207 Y30.9075
G01 X81.7815 Y30.8751
G01 X81.8474 Y30.8550
G01 X81.9160 Y30.8483
G01 X81.9296 Y30.8496
G01 X81.9381 Y30.8500
G01 X84.6619 Y30.8500
G01 X84.6705 Y30.8496
G01 X84.6840 Y30.8483
G01 X84.7526 Y30.8550
G01 X84.8186 Y30.8750
G01 X84.8794 Y30.9075
G01 X84.9327 Y30.9513
G01 X84.9413 Y30.9618
G01 X84.9471 Y30.9681
G01 X86.0318 Y32.0529
G01 X86.0382 Y32.0587
G01 X86.0487 Y32.0673
G01 X86.0924 Y32.1206
G01 X86.1249 Y32.1814
G01 X86.1449 Y32.2473
G01 X86.1517 Y32.3159
G01 X86.1504 Y32.3295
G01 X86.1500 Y32.3380
G01 X86.1500 Y40.7972
G01 X86.1503 Y40.8051
G01 X86.1517 Y40.8195
G01 X86.1504 Y40.8330
G01 X86.1500 Y40.8416
G01 X86.1500 Y44.5336
G01 X86.1506 Y44.5446
G01 X86.1519 Y44.5531
G01 X86.1543 Y44.5627
G01 X86.1576 Y44.5719
G01 X86.1607 Y44.5786
G01 X86.1675 Y44.5902
G01 X86.1727 Y44.5971
G01 X86.1784 Y44.6035
G01 X87.1174 Y45.5424
G01 X87.1266 Y45.5505
G01 X87.1325 Y45.5549
G01 X87.1399 Y45.5593
G01 X87.1487 Y45.5636
G01 X87.1567 Y45.5666
G01 X87.1710 Y45.5702
G01 X87.1783 Y45.5712
G01 X87.1881 Y45.5717
G01 X87.1979 Y45.5712
G01 X87.2064 Y45.5700
G01 X87.2171 Y45.5674
G01 X87.2252 Y45.5646
G01 X87.2883 Y45.5385
G01 X87.4815 Y45.5000
G01 X87.6785 Y45.5000
G01 X87.8717 Y45.5385
G01 X88.0537 Y45.6138
G01 X88.2174 Y45.7233
G01 X88.3567 Y45.8626
G01 X88.4662 Y46.0263
G01 X88.5415 Y46.2083
G01 X88.5800 Y46.4015
G01 X88.5800 Y46.5985
G01 X88.5464 Y46.7672
G01 X88.5448 Y46.7793
G01 X88.5445 Y46.7867
G01 X88.5448 Y46.7941
G01 X88.5464 Y46.8062
G01 X88.5496 Y46.8181
G01 X88.5521 Y46.8250
G01 X88.5557 Y46.8328
G01 X88.5628 Y46.8443
G01 X88.5672 Y46.8502
G01 X88.5738 Y46.8574
G01 X88.9491 Y47.2327
G01 X88.9554 Y47.2385
G01 X88.9697 Y47.2503
G01 X89.0260 Y47.3188
G01 X89.0677 Y47.3970
G01 X89.0935 Y47.4818
G01 X89.1022 Y47.5700
G01 X89.1004 Y47.5884
G01 X89.1000 Y47.5970
G01 X89.1000 Y50.9730
G01 X89.1004 Y50.9816
G01 X89.1022 Y51.0000
G01 X89.0935 Y51.0882
G01 X89.0677 Y51.1730
G01 X89.0260 Y51.2512
G01 X88.9697 Y51.3197
G01 X88.9554 Y51.3315
G01 X88.9491 Y51.3373
G01 X88.8864 Y51.4000
G01 X88.8815 Y51.4054
G01 X88.8697 Y51.4197
G01 X88.8012 Y51.4760
G01 X88.7530 Y51.5017
G01 X88.7456 Y51.5062
G01 X88.7387 Y51.5113
G01 X88.7305 Y51.5186
G01 X88.7239 Y51.5259
G01 X88.7180 Y51.5338
G01 X88.7130 Y51.5422
G01 X88.7088 Y51.5511
G01 X88.7055 Y51.5603
G01 X88.7031 Y51.5699
G01 X88.7016 Y51.5808
G01 X88.7012 Y51.5894
G01 X88.7012 Y51.7201
G01 X88.6906 Y51.8276
G01 X88.6607 Y51.9262
G01 X88.6121 Y52.0171
G01 X88.5467 Y52.0967
G01 X88.4671 Y52.1621
G01 X88.3762 Y52.2107
G01 X88.2776 Y52.2406
G01 X88.1701 Y52.2512
G01 X87.4299 Y52.2512
G01 X87.3224 Y52.2406
G01 X87.2238 Y52.2107
G01 X87.1329 Y52.1621
G01 X87.0533 Y52.0967
G01 X86.9879 Y52.0171
G01 X86.9393 Y51.9262
G01 X86.9094 Y51.8276
G01 X86.8988 Y51.7201
G01 X86.8988 Y50.4799
G01 X86.9000 Y50.4627
G01 X86.9000 Y49.4549
G01 X86.9014 Y49.4409
G01 X86.9018 Y49.4276
G01 X86.9043 Y49.4113
G01 X86.9079 Y49.3985
G01 X86.9108 Y49.3852
G01 X87.0087 Y49.0914
G01 X87.0147 Y49.0760
G01 X87.0216 Y49.0625
G01 X87.0266 Y49.0513
G01 X87.0327 Y49.0414
G01 X87.0420 Y49.0295
G01 X87.0491 Y49.0195
G01 X87.0598 Y49.0074
G01 X87.2551 Y48.8121
G01 X87.2601 Y48.8079
G01 X87.2677 Y48.8007
G01 X87.2798 Y48.7918
G01 X87.2891 Y48.7842
G01 X87.2992 Y48.7778
G01 X87.3128 Y48.7714
G01 X87.3234 Y48.7658
G01 X87.3346 Y48.7615
G01 X87.3492 Y48.7579
G01 X87.3606 Y48.7544
G01 X87.3768 Y48.7514
G01 X87.7703 Y48.7022
G01 X87.7823 Y48.7012
G01 X87.7976 Y48.7014
G01 X87.8149 Y48.7010
G01 X87.8264 Y48.7018
G01 X88.0876 Y48.7344
G01 X88.0988 Y48.7352
G01 X88.1087 Y48.7348
G01 X88.1198 Y48.7332
G01 X88.1295 Y48.7307
G01 X88.1366 Y48.7283
G01 X88.1434 Y48.7252
G01 X88.1532 Y48.7198
G01 X88.1624 Y48.7134
G01 X88.1699 Y48.7068
G01 X88.1774 Y48.6985
G01 X88.1827 Y48.6915
G01 X88.1879 Y48.6830
G01 X88.1922 Y48.6740
G01 X88.1948 Y48.6670
G01 X88.1983 Y48.6538
G01 X88.1995 Y48.6451
G01 X88.2000 Y48.6364
G01 X88.2000 Y47.7978
G01 X88.1995 Y47.7880
G01 X88.1981 Y47.7783
G01 X88.1957 Y47.7688
G01 X88.1933 Y47.7618
G01 X88.1882 Y47.7507
G01 X88.1818 Y47.7402
G01 X88.1773 Y47.7344
G01 X88.1716 Y47.7280
G01 X87.9366 Y47.4929
G01 X87.9302 Y47.4872
G01 X87.9223 Y47.4814
G01 X87.9139 Y47.4763
G01 X87.9072 Y47.4731
G01 X87.8957 Y47.4688
G01 X87.8838 Y47.4660
G01 X87.8765 Y47.4650
G01 X87.8679 Y47.4645
G01 X87.8557 Y47.4651
G01 X87.8472 Y47.4664
G01 X87.6785 Y47.5000
G01 X87.4815 Y47.5000
G01 X87.2883 Y47.4615
G01 X87.1063 Y47.3862
G01 X86.9426 Y47.2767
G01 X86.8033 Y47.1374
G01 X86.6938 Y46.9737
G01 X86.6185 Y46.7917
G01 X86.5800 Y46.5985
G01 X86.5800 Y46.4015
G01 X86.6185 Y46.2083
G01 X86.6446 Y46.1452
G01 X86.6474 Y46.1371
G01 X86.6500 Y46.1264
G01 X86.6512 Y46.1179
G01 X86.6517 Y46.1081
G01 X86.6512 Y46.0983
G01 X86.6500 Y46.0898
G01 X86.6478 Y46.0802
G01 X86.6450 Y46.0721
G01 X86.6387 Y46.0588
G01 X86.6349 Y46.0525
G01 X86.6305 Y46.0466
G01 X86.6224 Y46.0374
G01 X85.5673 Y44.9823
G01 X85.5535 Y44.9704
G01 X85.5466 Y44.9653
G01 X85.5382 Y44.9601
G01 X85.5305 Y44.9563
G01 X85.5202 Y44.9524
G01 X85.5107 Y44.9499
G01 X85.5010 Y44.9483
G01 X85.4925 Y44.9478
G01 X85.4778 Y44.9485
G01 X85.4693 Y44.9499
G01 X85.4598 Y44.9524
G01 X85.4517 Y44.9553
G01 X85.4428 Y44.9595
G01 X85.4344 Y44.9646
G01 X85.4265 Y44.9704
G01 X85.4193 Y44.9770
G01 X85.4127 Y44.9843
G01 X85.4068 Y44.9922
G01 X85.4030 Y44.9984
G01 X85.3967 Y45.0117
G01 X85.3939 Y45.0199
G01 X85.3917 Y45.0294
G01 X85.3905 Y45.0379
G01 X85.3900 Y45.0477
G01 X85.3900 Y45.4958
G01 X85.3905 Y45.5056
G01 X85.3915 Y45.5129
G01 X85.3947 Y45.5260
G01 X85.3976 Y45.5340
G01 X85.4018 Y45.5429
G01 X85.4068 Y45.5513
G01 X85.4112 Y45.5573
G01 X85.4201 Y45.5674
G01 X85.4265 Y45.5731
G01 X85.4334 Y45.5782
G01 X85.4428 Y45.5840
G01 X85.4506 Y45.5877
G01 X85.5137 Y45.6138
G01 X85.6774 Y45.7233
G01 X85.8167 Y45.8626
G01 X85.9262 Y46.0263
G01 X86.0015 Y46.2083
G01 X86.0400 Y46.4015
G01 X86.0400 Y46.5985
G01 X86.0064 Y46.7672
G01 X86.0053 Y46.7745
G01 X86.0045 Y46.7855
G01 X86.0049 Y46.7953
G01 X86.0064 Y46.8062
G01 X86.0085 Y46.8146
G01 X86.0121 Y46.8250
G01 X86.0163 Y46.8339
G01 X86.0214 Y46.8423
G01 X86.0280 Y46.8511
G01 X86.0338 Y46.8574
G01 X86.1000 Y46.9236
G01 X86.1054 Y46.9285
G01 X86.1197 Y46.9403
G01 X86.1760 Y47.0088
G01 X86.2177 Y47.0870
G01 X86.2435 Y47.1718
G01 X86.2522 Y47.2600
G01 X86.2504 Y47.2784
G01 X86.2500 Y47.2870
G01 X86.2500 Y50.8230
G01 X86.2504 Y50.8316
G01 X86.2522 Y50.8500
G01 X86.2435 Y50.9382
G01 X86.2177 Y51.0230
G01 X86.1760 Y51.1012
G01 X86.1197 Y51.1697
G01 X86.1054 Y51.1815
G01 X86.0991 Y51.1873
G01 X85.8873 Y51.3991
G01 X85.8815 Y51.4054
G01 X85.8697 Y51.4197
G01 X85.8012 Y51.4760
G01 X85.7530 Y51.5017
G01 X85.7456 Y51.5062
G01 X85.7397 Y51.5105
G01 X85.7296 Y51.5195
G01 X85.7239 Y51.5259
G01 X85.7180 Y51.5338
G01 X85.7119 Y51.5444
G01 X85.7088 Y51.5511
G01 X85.7063 Y51.5580
G01 X85.7034 Y51.5686
G01 X85.7017 Y51.5796
G01 X85.7012 Y51.5894
G01 X85.7012 Y51.7201
G01 X85.6906 Y51.8276
G01 X85.6607 Y51.9262
G01 X85.6121 Y52.0171
G01 X85.5467 Y52.0967
G01 X85.4671 Y52.1621
G01 X85.3762 Y52.2107
G01 X85.2776 Y52.2406
G01 X85.1701 Y52.2512
G01 X84.4299 Y52.2512
G01 X84.3224 Y52.2406
G01 X84.2238 Y52.2107
G01 X84.1329 Y52.1621
G01 X84.0533 Y52.0967
G01 X83.9879 Y52.0171
G01 X83.9393 Y51.9262
G01 X83.9094 Y51.8276
G01 X83.8988 Y51.7201
G01 X83.8988 Y50.4799
G01 X83.9000 Y50.4627
G01 X83.9000 Y49.4549
G01 X83.9014 Y49.4409
G01 X83.9018 Y49.4276
G01 X83.9043 Y49.4113
G01 X83.9079 Y49.3985
G01 X83.9108 Y49.3852
G01 X84.0087 Y49.0914
G01 X84.0147 Y49.0760
G01 X84.0216 Y49.0625
G01 X84.0266 Y49.0513
G01 X84.0327 Y49.0414
G01 X84.0420 Y49.0295
G01 X84.0491 Y49.0195
G01 X84.0598 Y49.0074
G01 X84.2551 Y48.8121
G01 X84.2601 Y48.8079
G01 X84.2677 Y48.8007
G01 X84.2798 Y48.7918
G01 X84.2891 Y48.7842
G01 X84.2992 Y48.7778
G01 X84.3128 Y48.7714
G01 X84.3234 Y48.7658
G01 X84.3346 Y48.7615
G01 X84.3492 Y48.7579
G01 X84.3606 Y48.7544
G01 X84.3768 Y48.7514
G01 X84.7703 Y48.7022
G01 X84.7823 Y48.7012
G01 X84.7976 Y48.7014
G01 X84.8149 Y48.7010
G01 X84.8264 Y48.7018
G01 X85.2199 Y48.7510
G01 X85.2263 Y48.7523
G01 X85.2363 Y48.7539
G01 X85.2498 Y48.7547
G01 X85.2608 Y48.7541
G01 X85.2704 Y48.7526
G01 X85.2798 Y48.7501
G01 X85.2890 Y48.7468
G01 X85.2967 Y48.7431
G01 X85.3051 Y48.7381
G01 X85.3120 Y48.7331
G01 X85.3228 Y48.7232
G01 X85.3276 Y48.7178
G01 X85.3334 Y48.7099
G01 X85.3384 Y48.7015
G01 X85.3425 Y48.6927
G01 X85.3458 Y48.6835
G01 X85.3481 Y48.6741
G01 X85.3496 Y48.6644
G01 X85.3500 Y48.6559
G01 X85.3500 Y47.5786
G01 X85.3495 Y47.5700
G01 X85.3485 Y47.5627
G01 X85.3457 Y47.5507
G01 X85.3414 Y47.5393
G01 X85.3382 Y47.5326
G01 X85.3338 Y47.5252
G01 X85.3273 Y47.5163
G01 X85.3207 Y47.5090
G01 X85.3125 Y47.5017
G01 X85.3035 Y47.4953
G01 X85.2972 Y47.4916
G01 X85.2905 Y47.4884
G01 X85.2814 Y47.4848
G01 X85.2707 Y47.4819
G01 X85.2598 Y47.4802
G01 X85.2475 Y47.4798
G01 X85.2402 Y47.4802
G01 X85.2317 Y47.4815
G01 X85.1385 Y47.5000
G01 X84.9415 Y47.5000
G01 X84.7483 Y47.4615
G01 X84.5663 Y47.3862
G01 X84.4026 Y47.2767
G01 X84.2633 Y47.1374
G01 X84.1538 Y46.9737
G01 X84.0785 Y46.7917
G01 X84.0400 Y46.5985
G01 X84.0400 Y46.4015
G01 X84.0785 Y46.2083
G01 X84.1538 Y46.0263
G01 X84.2633 Y45.8626
G01 X84.4026 Y45.7233
G01 X84.5663 Y45.6138
G01 X84.6305 Y45.5872
G01 X84.6372 Y45.5840
G01 X84.6435 Y45.5802
G01 X84.6525 Y45.5739
G01 X84.6607 Y45.5665
G01 X84.6673 Y45.5592
G01 X84.6738 Y45.5503
G01 X84.6793 Y45.5407
G01 X84.6833 Y45.5318
G01 X84.6857 Y45.5248
G01 X84.6876 Y45.5177
G01 X84.6894 Y45.5068
G01 X84.6900 Y45.4970
G01 X84.6900 Y41.0944
G01 X84.6895 Y41.0846
G01 X84.6881 Y41.0749
G01 X84.6861 Y41.0665
G01 X84.6814 Y41.0539
G01 X84.6782 Y41.0472
G01 X84.6732 Y41.0388
G01 X84.6673 Y41.0309
G01 X84.6624 Y41.0254
G01 X84.2830 Y40.6459
G01 X84.2757 Y40.6393
G01 X84.2678 Y40.6335
G01 X84.2594 Y40.6284
G01 X84.2528 Y40.6252
G01 X84.2389 Y40.6203
G01 X84.2305 Y40.6183
G01 X84.2208 Y40.6170
G01 X84.2122 Y40.6166
G01 X84.2024 Y40.6171
G01 X84.1927 Y40.6185
G01 X84.1832 Y40.6209
G01 X84.1740 Y40.6242
G01 X84.1651 Y40.6284
G01 X84.1567 Y40.6335
G01 X84.1507 Y40.6378
G01 X84.1398 Y40.6477
G01 X84.1341 Y40.6541
G01 X84.1284 Y40.6621
G01 X84.1240 Y40.6695
G01 X84.1198 Y40.6784
G01 X84.1165 Y40.6876
G01 X84.1144 Y40.6959
G01 X84.1127 Y40.7068
G01 X84.1122 Y40.7166
G01 X84.1127 Y40.7264
G01 X84.1139 Y40.7349
G01 X84.1162 Y40.7445
G01 X84.1189 Y40.7526
G01 X84.1249 Y40.7654
G01 X84.1449 Y40.8314
G01 X84.1526 Y40.9096
G01 X84.1545 Y40.9217
G01 X84.1564 Y40.9289
G01 X84.1588 Y40.9359
G01 X84.1639 Y40.9471
G01 X84.1703 Y40.9576
G01 X84.1748 Y40.9635
G01 X84.1797 Y40.9690
G01 X84.1906 Y40.9789
G01 X84.2143 Y40.9951
G01 X84.3049 Y41.0857
G01 X84.3760 Y41.1921
G01 X84.4250 Y41.3104
G01 X84.4500 Y41.4360
G01 X84.4500 Y41.5640
G01 X84.4250 Y41.6896
G01 X84.3760 Y41.8079
G01 X84.3049 Y41.9143
G01 X84.2143 Y42.0049
G01 X84.1079 Y42.0760
G01 X83.9896 Y42.1250
G01 X83.8640 Y42.1500
G01 X83.7360 Y42.1500
G01 X83.6104 Y42.1250
G01 X83.4921 Y42.0760
G01 X83.3857 Y42.0049
G01 X83.2951 Y41.9143
G01 X83.2240 Y41.8079
G01 X83.1750 Y41.6896
G01 X83.1500 Y41.5640
G01 X83.1500 Y41.4360
G01 X83.1539 Y41.4148
G01 X83.1547 Y41.4025
G01 X83.1539 Y41.3903
G01 X83.1528 Y41.3830
G01 X83.1508 Y41.3747
G01 X83.1471 Y41.3642
G01 X83.1429 Y41.3554
G01 X83.1372 Y41.3459
G01 X83.1304 Y41.3372
G01 X83.1254 Y41.3318
G01 X83.1200 Y41.3268
G01 X83.1113 Y41.3200
G01 X83.1019 Y41.3143
G01 X83.0918 Y41.3096
G01 X83.0814 Y41.3061
G01 X83.0742 Y41.3044
G01 X83.0669 Y41.3033
G01 X83.0547 Y41.3025
G01 X83.0437 Y41.3031
G01 X83.0352 Y41.3044
G01 X83.0257 Y41.3068
G01 X83.0164 Y41.3101
G01 X83.0077 Y41.3142
G01 X82.9794 Y41.3228
G01 X82.9451 Y41.3262
G01 X82.5250 Y41.3262
G01 X82.5152 Y41.3267
G01 X82.5067 Y41.3279
G01 X82.4971 Y41.3301
G01 X82.4890 Y41.3329
G01 X82.4757 Y41.3392
G01 X82.4694 Y41.3430
G01 X82.4615 Y41.3489
G01 X82.4543 Y41.3555
G01 X82.4477 Y41.3628
G01 X82.4418 Y41.3706
G01 X82.4368 Y41.3791
G01 X82.4326 Y41.3879
G01 X82.4301 Y41.3948
G01 X82.4267 Y41.4079
G01 X82.4255 Y41.4164
G01 X82.4250 Y41.4262
G01 X82.4250 Y41.7982
G01 X82.4255 Y41.8055
G01 X82.4265 Y41.8128
G01 X82.4293 Y41.8247
G01 X82.4336 Y41.8362
G01 X82.4368 Y41.8429
G01 X82.4412 Y41.8503
G01 X82.4477 Y41.8592
G01 X82.4543 Y41.8664
G01 X83.1636 Y42.5758
G01 X83.1709 Y42.5823
G01 X83.1798 Y42.5889
G01 X83.1872 Y42.5932
G01 X83.1938 Y42.5964
G01 X83.2053 Y42.6007
G01 X83.2172 Y42.6035
G01 X83.2245 Y42.6046
G01 X83.2319 Y42.6050
G01 X83.2441 Y42.6046
G01 X83.2550 Y42.6029
G01 X83.2633 Y42.6007
G01 X83.2703 Y42.5983
G01 X83.2804 Y42.5938
G01 X83.2919 Y42.5868
G01 X83.2978 Y42.5823
G01 X83.3042 Y42.5766
G01 X83.3857 Y42.4951
G01 X83.4921 Y42.4240
G01 X83.6104 Y42.3750
G01 X83.7360 Y42.3500
G01 X83.8640 Y42.3500
G01 X83.9896 Y42.3750
G01 X84.1079 Y42.4240
G01 X84.2143 Y42.4951
G01 X84.3049 Y42.5857
G01 X84.3760 Y42.6921
G01 X84.4250 Y42.8104
G01 X84.4500 Y42.9360
G01 X84.4500 Y43.0640
G01 X84.4250 Y43.1896
G01 X84.3760 Y43.3079
G01 X84.3049 Y43.4143
G01 X84.2143 Y43.5049
G01 X84.1079 Y43.5760
G01 X83.9896 Y43.6250
G01 X83.8532 Y43.6521
G01 X83.8449 Y43.6543
G01 X83.8379 Y43.6567
G01 X83.8267 Y43.6618
G01 X83.8163 Y43.6682
G01 X83.8104 Y43.6727
G01 X83.8049 Y43.6776
G01 X83.7974 Y43.6856
G01 X83.7907 Y43.6944
G01 X83.7846 Y43.7050
G01 X83.7815 Y43.7117
G01 X83.7789 Y43.7186
G01 X83.7758 Y43.7305
G01 X83.7742 Y43.7414
G01 X83.7739 Y43.7500
G01 X83.7742 Y43.7574
G01 X83.7758 Y43.7695
G01 X83.7789 Y43.7814
G01 X83.7815 Y43.7883
G01 X83.7857 Y43.7971
G01 X83.7921 Y43.8076
G01 X83.7966 Y43.8135
G01 X83.8032 Y43.8207
G01 X83.8124 Y43.8288
G01 X83.8183 Y43.8332
G01 X83.8257 Y43.8376
G01 X83.8379 Y43.8433
G01 X83.8449 Y43.8457
G01 X83.8532 Y43.8478
G01 X83.9896 Y43.8750
G01 X84.1079 Y43.9240
G01 X84.2143 Y43.9951
G01 X84.3049 Y44.0857
G01 X84.3760 Y44.1921
G01 X84.4250 Y44.3104
G01 X84.4500 Y44.4360
G01 X84.4500 Y44.5640
G01 X84.4250 Y44.6896
G01 X84.3760 Y44.8079
G01 X84.3049 Y44.9143
G01 X84.2143 Y45.0049
G01 X84.1079 Y45.0760
G01 X83.9896 Y45.1250
G01 X83.8640 Y45.1500
G01 X83.7360 Y45.1500
G01 X83.6104 Y45.1250
G01 X83.4921 Y45.0760
G01 X83.3857 Y45.0049
G01 X83.2951 Y44.9143
G01 X83.2804 Y44.8924
G01 X83.2760 Y44.8865
G01 X83.2694 Y44.8793
G01 X83.2621 Y44.8727
G01 X83.2542 Y44.8668
G01 X83.2458 Y44.8618
G01 X83.2369 Y44.8576
G01 X83.2277 Y44.8543
G01 X83.2194 Y44.8521
G01 X83.2060 Y44.8503
G01 X83.1987 Y44.8500
G01 X83.1138 Y44.8500
G01 X83.0929 Y44.8517
G01 X83.0243 Y44.8449
G01 X82.9583 Y44.8249
G01 X82.8975 Y44.7924
G01 X82.8442 Y44.7487
G01 X82.8356 Y44.7382
G01 X82.8298 Y44.7318
G01 X81.2957 Y43.1978
G01 X81.2894 Y43.1920
G01 X81.2795 Y43.1847
G01 X81.2722 Y43.1803
G01 X81.2655 Y43.1771
G01 X81.2540 Y43.1728
G01 X81.2433 Y43.1702
G01 X81.2348 Y43.1689
G01 X81.2275 Y43.1685
G01 X81.2152 Y43.1689
G01 X81.2031 Y43.1709
G01 X81.1960 Y43.1728
G01 X81.1890 Y43.1752
G01 X81.1778 Y43.1803
G01 X81.1684 Y43.1860
G01 X81.1615 Y43.1912
G01 X81.1560 Y43.1961
G01 X81.1477 Y43.2050
G01 X81.1405 Y43.2150
G01 X81.1368 Y43.2213
G01 X81.1331 Y43.2291
G01 X81.1293 Y43.2395
G01 X81.1265 Y43.2514
G01 X81.1255 Y43.2587
G01 X81.1250 Y43.2685
G01 X81.1250 Y44.5898
G01 X81.1255 Y44.5984
G01 X81.1267 Y44.6069
G01 X81.1301 Y44.6200
G01 X81.1326 Y44.6269
G01 X81.1368 Y44.6358
G01 X81.1418 Y44.6442
G01 X81.1462 Y44.6501
G01 X81.1543 Y44.6593
G01 X82.0374 Y45.5424
G01 X82.0466 Y45.5505
G01 X82.0525 Y45.5549
G01 X82.0609 Y45.5599
G01 X82.0698 Y45.5641
G01 X82.0779 Y45.5670
G01 X82.0910 Y45.5702
G01 X82.0983 Y45.5712
G01 X82.1081 Y45.5717
G01 X82.1179 Y45.5712
G01 X82.1264 Y45.5700
G01 X82.1371 Y45.5674
G01 X82.1452 Y45.5646
G01 X82.2083 Y45.5385
G01 X82.4015 Y45.5000
G01 X82.5985 Y45.5000
G01 X82.7917 Y45.5385
G01 X82.9737 Y45.6138
G01 X83.1374 Y45.7233
G01 X83.2767 Y45.8626
G01 X83.3862 Y46.0263
G01 X83.4615 Y46.2083
G01 X83.5000 Y46.4015
G01 X83.5000 Y46.5985
G01 X83.4615 Y46.7917
G01 X83.3862 Y46.9737
G01 X83.2763 Y47.1381
G01 X83.2719 Y47.1431
G01 X83.2655 Y47.1521
G01 X83.2618 Y47.1585
G01 X83.2586 Y47.1651
G01 X83.2547 Y47.1754
G01 X83.2519 Y47.1861
G01 X83.2503 Y47.1983
G01 X83.2500 Y47.2056
G01 X83.2500 Y50.8230
G01 X83.2504 Y50.8316
G01 X83.2522 Y50.8500
G01 X83.2435 Y50.9382
G01 X83.2177 Y51.0230
G01 X83.1760 Y51.1012
G01 X83.1197 Y51.1697
G01 X83.1054 Y51.1815
G01 X83.0991 Y51.1873
G01 X82.8873 Y51.3991
G01 X82.8815 Y51.4054
G01 X82.8697 Y51.4197
G01 X82.8012 Y51.4760
G01 X82.7530 Y51.5017
G01 X82.7456 Y51.5062
G01 X82.7397 Y51.5105
G01 X82.7296 Y51.5195
G01 X82.7239 Y51.5259
G01 X82.7180 Y51.5338
G01 X82.7119 Y51.5444
G01 X82.7088 Y51.5511
G01 X82.7063 Y51.5580
G01 X82.7034 Y51.5686
G01 X82.7017 Y51.5796
G01 X82.7012 Y51.5894
G01 X82.7012 Y51.7201
G01 X82.6906 Y51.8276
G01 X82.6607 Y51.9262
G01 X82.6121 Y52.0171
G01 X82.5467 Y52.0967
G01 X82.4671 Y52.1621
G01 X82.3762 Y52.2107
G01 X82.2776 Y52.2406
G01 X82.1701 Y52.2512
G01 X81.4299 Y52.2512
G01 X81.3224 Y52.2406
G01 X81.2238 Y52.2107
G01 X81.1329 Y52.1621
G01 X81.0533 Y52.0967
G01 X80.9879 Y52.0171
G01 X80.9393 Y51.9262
G01 X80.9094 Y51.8276
G01 X80.8988 Y51.7201
G01 X80.8988 Y50.4799
G01 X80.9000 Y50.4627
G01 X80.9000 Y49.4549
G01 X80.9014 Y49.4409
G01 X80.9018 Y49.4276
G01 X80.9043 Y49.4113
G01 X80.9079 Y49.3985
G01 X80.9108 Y49.3852
G01 X81.0087 Y49.0914
G01 X81.0147 Y49.0760
G01 X81.0216 Y49.0625
G01 X81.0266 Y49.0513
G01 X81.0327 Y49.0414
G01 X81.0420 Y49.0295
G01 X81.0491 Y49.0195
G01 X81.0598 Y49.0074
G01 X81.2551 Y48.8121
G01 X81.2601 Y48.8079
G01 X81.2677 Y48.8007
G01 X81.2798 Y48.7918
G01 X81.2891 Y48.7842
G01 X81.2992 Y48.7778
G01 X81.3128 Y48.7714
G01 X81.3234 Y48.7658
G01 X81.3346 Y48.7615
G01 X81.3492 Y48.7579
G01 X81.3606 Y48.7544
G01 X81.3768 Y48.7514
G01 X81.7703 Y48.7022
G01 X81.7823 Y48.7012
G01 X81.7976 Y48.7014
G01 X81.8149 Y48.7010
G01 X81.8264 Y48.7018
G01 X82.2199 Y48.7510
G01 X82.2352 Y48.7537
G01 X82.2486 Y48.7547
G01 X82.2596 Y48.7542
G01 X82.2704 Y48.7526
G01 X82.2798 Y48.7501
G01 X82.2901 Y48.7463
G01 X82.2988 Y48.7419
G01 X82.3081 Y48.7361
G01 X82.3157 Y48.7300
G01 X82.3211 Y48.7250
G01 X82.3260 Y48.7196
G01 X82.3347 Y48.7078
G01 X82.3389 Y48.7004
G01 X82.3430 Y48.6916
G01 X82.3458 Y48.6835
G01 X82.3481 Y48.6741
G01 X82.3496 Y48.6644
G01 X82.3500 Y48.6559
G01 X82.3500 Y47.5694
G01 X82.3492 Y47.5596
G01 X82.3481 Y47.5523
G01 X82.3464 Y47.5452
G01 X82.3429 Y47.5347
G01 X82.3382 Y47.5247
G01 X82.3325 Y47.5152
G01 X82.3257 Y47.5065
G01 X82.3207 Y47.5011
G01 X82.3153 Y47.4961
G01 X82.3066 Y47.4893
G01 X82.2982 Y47.4842
G01 X82.2905 Y47.4804
G01 X82.2779 Y47.4758
G01 X82.2695 Y47.4737
G01 X82.2083 Y47.4615
G01 X82.0263 Y47.3862
G01 X81.8626 Y47.2767
G01 X81.7233 Y47.1374
G01 X81.6138 Y46.9737
G01 X81.5385 Y46.7917
G01 X81.5000 Y46.5985
G01 X81.5000 Y46.4015
G01 X81.5385 Y46.2083
G01 X81.5646 Y46.1452
G01 X81.5674 Y46.1371
G01 X81.5700 Y46.1264
G01 X81.5712 Y46.1179
G01 X81.5717 Y46.1081
G01 X81.5712 Y46.0983
G01 X81.5702 Y46.0910
G01 X81.5666 Y46.0767
G01 X81.5636 Y46.0687
G01 X81.5593 Y46.0599
G01 X81.5549 Y46.0525
G01 X81.5505 Y46.0466
G01 X81.5424 Y46.0374
G01 X80.6449 Y45.1398
G01 X80.6385 Y45.1341
G01 X80.6306 Y45.1282
G01 X80.6222 Y45.1232
G01 X80.6155 Y45.1200
G01 X80.6017 Y45.1150
G01 X80.5933 Y45.1131
G01 X80.5836 Y45.1117
G01 X80.5750 Y45.1114
G01 X80.5652 Y45.1119
G01 X80.5555 Y45.1133
G01 X80.5460 Y45.1157
G01 X80.5367 Y45.1190
G01 X80.5278 Y45.1232
G01 X80.5194 Y45.1282
G01 X80.5135 Y45.1326
G01 X80.5026 Y45.1424
G01 X80.4969 Y45.1489
G01 X80.4912 Y45.1569
G01 X80.4868 Y45.1642
G01 X80.4826 Y45.1731
G01 X80.4793 Y45.1824
G01 X80.4769 Y45.1919
G01 X80.4755 Y45.2016
G01 X80.4750 Y45.2114
G01 X80.4750 Y45.5880
G01 X80.4758 Y45.6002
G01 X80.4769 Y45.6075
G01 X80.4786 Y45.6146
G01 X80.4826 Y45.6262
G01 X80.4880 Y45.6373
G01 X80.4918 Y45.6435
G01 X80.4969 Y45.6505
G01 X80.5052 Y45.6596
G01 X80.5115 Y45.6653
G01 X80.5184 Y45.6704
G01 X80.5974 Y45.7233
G01 X80.7367 Y45.8626
G01 X80.8462 Y46.0263
G01 X80.9215 Y46.2083
G01 X80.9600 Y46.4015
G01 X80.9600 Y46.5985
G01 X80.9215 Y46.7917
G01 X80.8462 Y46.9737
G01 X80.7367 Y47.1374
G01 X80.5974 Y47.2767
G01 X80.4544 Y47.3723
G01 X80.4465 Y47.3781
G01 X80.4410 Y47.3830
G01 X80.4319 Y47.3930
G01 X80.4268 Y47.3999
G01 X80.4224 Y47.4072
G01 X80.4171 Y47.4183
G01 X80.4143 Y47.4264
G01 X80.4124 Y47.4336
G01 X80.4106 Y47.4444
G01 X80.4100 Y47.4555
G01 X80.4100 Y48.3130
G01 X80.4104 Y48.3216
G01 X80.4122 Y48.3400
G01 X80.4035 Y48.4282
G01 X80.3777 Y48.5130
G01 X80.3360 Y48.5912
G01 X80.2727 Y48.6680
G01 X80.2655 Y48.6779
G01 X80.2618 Y48.6843
G01 X80.2586 Y48.6909
G01 X80.2547 Y48.7012
G01 X80.2519 Y48.7119
G01 X80.2503 Y48.7241
G01 X80.2500 Y48.7314
G01 X80.2500 Y50.2060
G01 X80.2504 Y50.2146
G01 X80.2522 Y50.2330
G01 X80.2435 Y50.3212
G01 X80.2177 Y50.4060
G01 X80.1760 Y50.4842
G01 X80.1197 Y50.5527
G01 X80.1054 Y50.5645
G01 X80.0991 Y50.5703
G01 X79.7305 Y50.9389
G01 X79.7239 Y50.9462
G01 X79.7174 Y50.9551
G01 X79.7124 Y50.9635
G01 X79.7079 Y50.9736
G01 X79.7055 Y50.9806
G01 X79.7031 Y50.9901
G01 X79.7017 Y50.9998
G01 X79.7012 Y51.0096
G01 X79.7012 Y51.7201
G01 X79.6906 Y51.8276
G01 X79.6607 Y51.9262
G01 X79.6121 Y52.0171
G01 X79.5467 Y52.0967
G01 X79.4671 Y52.1621
G01 X79.3762 Y52.2107
G01 X79.2776 Y52.2406
G01 X79.1701 Y52.2512
G01 X78.4299 Y52.2512
G01 X78.3224 Y52.2406
G01 X78.2238 Y52.2107
G01 X78.1329 Y52.1621
G01 X78.0533 Y52.0967
G01 X77.9879 Y52.0171
G01 X77.9393 Y51.9262
G01 X77.9094 Y51.8276
G01 X77.8988 Y51.7201
G01 X77.8988 Y50.4799
G01 X77.9000 Y50.4627
G01 X77.9000 Y49.4549
G01 X77.9014 Y49.4409
G01 X77.9018 Y49.4276
G01 X77.9043 Y49.4113
G01 X77.9079 Y49.3985
G01 X77.9108 Y49.3852
G01 X78.0087 Y49.0914
G01 X78.0147 Y49.0760
G01 X78.0216 Y49.0625
G01 X78.0266 Y49.0513
G01 X78.0327 Y49.0414
G01 X78.0420 Y49.0295
G01 X78.0491 Y49.0195
G01 X78.0598 Y49.0074
G01 X78.2551 Y48.8121
G01 X78.2601 Y48.8079
G01 X78.2677 Y48.8007
G01 X78.2798 Y48.7918
G01 X78.2891 Y48.7842
G01 X78.2992 Y48.7778
G01 X78.3128 Y48.7714
G01 X78.3234 Y48.7658
G01 X78.3346 Y48.7615
G01 X78.3492 Y48.7579
G01 X78.3606 Y48.7544
G01 X78.3768 Y48.7514
G01 X78.7703 Y48.7022
G01 X78.7823 Y48.7012
G01 X78.7976 Y48.7014
G01 X78.8149 Y48.7010
G01 X78.8264 Y48.7018
G01 X79.2199 Y48.7510
G01 X79.2263 Y48.7523
G01 X79.2363 Y48.7539
G01 X79.2498 Y48.7547
G01 X79.2596 Y48.7542
G01 X79.2728 Y48.7520
G01 X79.2798 Y48.7501
G01 X79.2879 Y48.7472
G01 X79.2988 Y48.7419
G01 X79.3061 Y48.7375
G01 X79.3120 Y48.7331
G01 X79.3211 Y48.7250
G01 X79.3291 Y48.7158
G01 X79.3334 Y48.7099
G01 X79.3378 Y48.7026
G01 X79.3430 Y48.6916
G01 X79.3458 Y48.6835
G01 X79.3481 Y48.6741
G01 X79.3496 Y48.6644
G01 X79.3500 Y48.6571
G01 X79.3500 Y48.5258
G01 X79.3496 Y48.5184
G01 X79.3478 Y48.5000
G01 X79.3565 Y48.4118
G01 X79.3823 Y48.3270
G01 X79.4240 Y48.2488
G01 X79.4873 Y48.1720
G01 X79.4945 Y48.1620
G01 X79.4982 Y48.1557
G01 X79.5014 Y48.1491
G01 X79.5050 Y48.1399
G01 X79.5079 Y48.1293
G01 X79.5094 Y48.1196
G01 X79.5100 Y48.1086
G01 X79.5100 Y47.4555
G01 X79.5095 Y47.4457
G01 X79.5083 Y47.4372
G01 X79.5049 Y47.4241
G01 X79.5024 Y47.4172
G01 X79.4982 Y47.4083
G01 X79.4932 Y47.3999
G01 X79.4881 Y47.3930
G01 X79.4790 Y47.3830
G01 X79.4735 Y47.3781
G01 X79.4656 Y47.3723
G01 X79.3226 Y47.2767
G01 X79.1833 Y47.1374
G01 X79.0738 Y46.9737
G01 X78.9985 Y46.7917
G01 X78.9600 Y46.5985
G01 X78.9600 Y46.4015
G01 X78.9985 Y46.2083
G01 X79.0738 Y46.0263
G01 X79.1833 Y45.8626
G01 X79.3226 Y45.7233
G01 X79.4863 Y45.6138
G01 X79.6683 Y45.5385
G01 X79.6945 Y45.5332
G01 X79.7029 Y45.5312
G01 X79.7133 Y45.5276
G01 X79.7211 Y45.5239
G01 X79.7295 Y45.5190
G01 X79.7365 Y45.5140
G01 X79.7474 Y45.5041
G01 X79.7523 Y45.4986
G01 X79.7582 Y45.4907
G01 X79.7632 Y45.4823
G01 X79.7669 Y45.4745
G01 X79.7707 Y45.4642
G01 X79.7731 Y45.4547
G01 X79.7745 Y45.4449
G01 X79.7750 Y45.4364
G01 X79.7750 Y44.8814
G01 X79.7744 Y44.8704
G01 X79.7731 Y44.8619
G01 X79.7707 Y44.8524
G01 X79.7674 Y44.8431
G01 X79.7638 Y44.8353
G01 X79.7588 Y44.8269
G01 X79.7538 Y44.8199
G01 X79.7440 Y44.8090
G01 X79.7385 Y44.8041
G01 X79.7306 Y44.7982
G01 X79.7222 Y44.7932
G01 X79.7133 Y44.7890
G01 X79.7040 Y44.7857
G01 X79.6945 Y44.7833
G01 X79.6848 Y44.7819
G01 X79.6775 Y44.7814
G01 X79.6664 Y44.7817
G01 X79.6567 Y44.7831
G01 X79.6460 Y44.7857
G01 X79.6379 Y44.7885
G01 X79.6278 Y44.7932
G01 X79.6194 Y44.7982
G01 X79.6115 Y44.8041
G01 X79.6052 Y44.8098
G01 X78.3776 Y46.0374
G01 X78.3710 Y46.0446
G01 X78.3645 Y46.0536
G01 X78.3601 Y46.0609
G01 X78.3559 Y46.0698
G01 X78.3526 Y46.0791
G01 X78.3507 Y46.0862
G01 X78.3487 Y46.0995
G01 X78.3483 Y46.1081
G01 X78.3488 Y46.1179
G01 X78.3507 Y46.1300
G01 X78.3526 Y46.1371
G01 X78.3550 Y46.1441
G01 X78.3815 Y46.2083
G01 X78.4200 Y46.4015
G01 X78.4200 Y46.5985
G01 X78.3815 Y46.7917
G01 X78.3062 Y46.9737
G01 X78.1967 Y47.1374
G01 X78.0574 Y47.2767
G01 X77.8937 Y47.3862
G01 X77.7117 Y47.4615
G01 X77.5185 Y47.5000
G01 X77.3488 Y47.5000
G01 X77.3378 Y47.5008
G01 X77.3305 Y47.5019
G01 X77.3221 Y47.5039
G01 X77.3117 Y47.5076
G01 X77.3028 Y47.5118
G01 X77.2934 Y47.5175
G01 X77.2847 Y47.5243
G01 X77.2793 Y47.5293
G01 X77.2743 Y47.5347
G01 X77.2682 Y47.5424
G01 X77.2624 Y47.5518
G01 X77.2576 Y47.5617
G01 X77.2543 Y47.5710
G01 X77.2519 Y47.5805
G01 X77.2505 Y47.5902
G01 X77.2500 Y47.6000
G01 X77.2500 Y50.2030
G01 X77.2504 Y50.2116
G01 X77.2522 Y50.2300
G01 X77.2435 Y50.3182
G01 X77.2177 Y50.4030
G01 X77.1760 Y50.4812
G01 X77.1197 Y50.5497
G01 X77.1054 Y50.5615
G01 X77.0991 Y50.5673
G01 X76.7305 Y50.9359
G01 X76.7239 Y50.9432
G01 X76.7174 Y50.9521
G01 X76.7124 Y50.9605
G01 X76.7079 Y50.9706
G01 X76.7055 Y50.9776
G01 X76.7031 Y50.9871
G01 X76.7017 Y50.9968
G01 X76.7012 Y51.0066
G01 X76.7012 Y51.7201
G01 X76.6906 Y51.8276
G01 X76.6607 Y51.9262
G01 X76.6121 Y52.0171
G01 X76.5467 Y52.0967
G01 X76.4671 Y52.1621
G01 X76.3762 Y52.2107
G01 X76.2776 Y52.2406
G01 X76.1701 Y52.2512
G01 X75.4299 Y52.2512
G01 X75.3224 Y52.2406
G01 X75.2238 Y52.2107
G01 X75.1329 Y52.1621
G01 X75.0533 Y52.0967
G01 X74.9879 Y52.0171
G01 X74.9393 Y51.9262
G01 X74.9094 Y51.8276
G01 X74.8988 Y51.7201
G01 X74.8988 Y50.4799
G01 X74.9000 Y50.4627
G01 X74.9000 Y49.4549
G01 X74.9014 Y49.4409
G01 X74.9018 Y49.4276
G01 X74.9043 Y49.4113
G01 X74.9079 Y49.3985
G01 X74.9108 Y49.3852
G01 X75.0087 Y49.0914
G01 X75.0147 Y49.0760
G01 X75.0216 Y49.0625
G01 X75.0266 Y49.0513
G01 X75.0327 Y49.0414
G01 X75.0420 Y49.0295
G01 X75.0491 Y49.0195
G01 X75.0598 Y49.0074
G01 X75.2551 Y48.8121
G01 X75.2601 Y48.8079
G01 X75.2677 Y48.8007
G01 X75.2798 Y48.7918
G01 X75.2891 Y48.7842
G01 X75.2992 Y48.7778
G01 X75.3128 Y48.7714
G01 X75.3234 Y48.7658
G01 X75.3346 Y48.7615
G01 X75.3492 Y48.7579
G01 X75.3606 Y48.7544
G01 X75.3768 Y48.7514
G01 X75.7703 Y48.7022
G01 X75.7823 Y48.7012
G01 X75.7976 Y48.7014
G01 X75.8149 Y48.7010
G01 X75.8264 Y48.7018
G01 X76.2199 Y48.7510
G01 X76.2352 Y48.7537
G01 X76.2437 Y48.7545
G01 X76.2535 Y48.7546
G01 X76.2632 Y48.7538
G01 X76.2704 Y48.7526
G01 X76.2775 Y48.7508
G01 X76.2879 Y48.7472
G01 X76.2978 Y48.7425
G01 X76.3071 Y48.7368
G01 X76.3157 Y48.7300
G01 X76.3211 Y48.7250
G01 X76.3260 Y48.7196
G01 X76.3334 Y48.7099
G01 X76.3384 Y48.7015
G01 X76.3415 Y48.6949
G01 X76.3458 Y48.6835
G01 X76.3481 Y48.6741
G01 X76.3493 Y48.6668
G01 X76.3500 Y48.6547
G01 X76.3500 Y47.1470
G01 X76.3496 Y47.1384
G01 X76.3478 Y47.1200
G01 X76.3565 Y47.0318
G01 X76.3823 Y46.9470
G01 X76.4240 Y46.8688
G01 X76.4385 Y46.8507
G01 X76.4450 Y46.8403
G01 X76.4492 Y46.8314
G01 X76.4517 Y46.8245
G01 X76.4551 Y46.8114
G01 X76.4563 Y46.8029
G01 X76.4568 Y46.7931
G01 X76.4563 Y46.7833
G01 X76.4551 Y46.7748
G01 X76.4200 Y46.5985
G01 X76.4200 Y46.4015
G01 X76.4585 Y46.2083
G01 X76.5338 Y46.0263
G01 X76.6433 Y45.8626
G01 X76.7826 Y45.7233
G01 X76.9463 Y45.6138
G01 X77.1283 Y45.5385
G01 X77.3215 Y45.5000
G01 X77.5185 Y45.5000
G01 X77.7117 Y45.5385
G01 X77.7748 Y45.5646
G01 X77.7840 Y45.5678
G01 X77.7948 Y45.5702
G01 X77.8021 Y45.5712
G01 X77.8119 Y45.5717
G01 X77.8217 Y45.5712
G01 X77.8314 Y45.5698
G01 X77.8409 Y45.5674
G01 X77.8502 Y45.5641
G01 X77.8591 Y45.5599
G01 X77.8675 Y45.5549
G01 X77.8754 Y45.5490
G01 X77.8826 Y45.5424
G01 X79.0957 Y44.3293
G01 X79.1031 Y44.3211
G01 X79.1082 Y44.3142
G01 X79.1132 Y44.3058
G01 X79.1174 Y44.2969
G01 X79.1199 Y44.2900
G01 X79.1233 Y44.2769
G01 X79.1245 Y44.2684
G01 X79.1250 Y44.2598
G01 X79.1250 Y42.9914
G01 X79.1247 Y42.9840
G01 X79.1233 Y42.9731
G01 X79.1214 Y42.9647
G01 X79.1164 Y42.9509
G01 X79.1126 Y42.9432
G01 X79.1075 Y42.9348
G01 X79.1023 Y42.9279
G01 X79.0948 Y42.9198
G01 X79.0885 Y42.9141
G01 X79.0806 Y42.9082
G01 X79.0722 Y42.9032
G01 X79.0633 Y42.8990
G01 X79.0540 Y42.8957
G01 X79.0445 Y42.8933
G01 X79.0348 Y42.8919
G01 X79.0262 Y42.8914
G01 X79.0152 Y42.8919
G01 X79.0055 Y42.8933
G01 X78.9960 Y42.8957
G01 X78.9867 Y42.8990
G01 X78.9778 Y42.9032
G01 X78.9694 Y42.9082
G01 X78.9615 Y42.9141
G01 X78.9543 Y42.9207
G01 X75.8376 Y46.0374
G01 X75.8302 Y46.0456
G01 X75.8251 Y46.0525
G01 X75.8201 Y46.0609
G01 X75.8159 Y46.0698
G01 X75.8126 Y46.0791
G01 X75.8102 Y46.0886
G01 X75.8088 Y46.0983
G01 X75.8083 Y46.1081
G01 X75.8088 Y46.1179
G01 X75.8107 Y46.1300
G01 X75.8126 Y46.1371
G01 X75.8150 Y46.1441
G01 X75.8415 Y46.2083
G01 X75.8800 Y46.4015
G01 X75.8800 Y46.5985
G01 X75.8415 Y46.7917
G01 X75.7662 Y46.9737
G01 X75.6567 Y47.1374
G01 X75.5174 Y47.2767
G01 X75.3537 Y47.3862
G01 X75.1717 Y47.4615
G01 X74.9785 Y47.5000
G01 X74.7815 Y47.5000
G01 X74.7134 Y47.4864
G01 X74.7049 Y47.4852
G01 X74.6951 Y47.4848
G01 X74.6841 Y47.4854
G01 X74.6732 Y47.4872
G01 X74.6661 Y47.4891
G01 X74.6591 Y47.4915
G01 X74.6480 Y47.4966
G01 X74.6396 Y47.5016
G01 X74.6336 Y47.5059
G01 X74.6244 Y47.5140
G01 X74.2793 Y47.8592
G01 X74.2719 Y47.8674
G01 X74.2655 Y47.8764
G01 X74.2618 Y47.8827
G01 X74.2586 Y47.8894
G01 X74.2543 Y47.9009
G01 X74.2519 Y47.9104
G01 X74.2508 Y47.9177
G01 X74.2500 Y47.9299
G01 X74.2500 Y50.8230
G01 X74.2504 Y50.8316
G01 X74.2522 Y50.8500
G01 X74.2435 Y50.9382
G01 X74.2177 Y51.0230
G01 X74.1760 Y51.1012
G01 X74.1197 Y51.1697
G01 X74.1054 Y51.1815
G01 X74.0991 Y51.1873
G01 X73.8873 Y51.3991
G01 X73.8815 Y51.4054
G01 X73.8697 Y51.4197
G01 X73.8012 Y51.4760
G01 X73.7530 Y51.5017
G01 X73.7456 Y51.5062
G01 X73.7397 Y51.5105
G01 X73.7288 Y51.5204
G01 X73.7231 Y51.5269
G01 X73.7174 Y51.5348
G01 X73.7119 Y51.5444
G01 X73.7088 Y51.5511
G01 X73.7063 Y51.5580
G01 X73.7034 Y51.5686
G01 X73.7017 Y51.5796
G01 X73.7012 Y51.5894
G01 X73.7012 Y51.7201
G01 X73.6906 Y51.8276
G01 X73.6607 Y51.9262
G01 X73.6121 Y52.0171
G01 X73.5467 Y52.0967
G01 X73.4671 Y52.1621
G01 X73.3762 Y52.2107
G01 X73.2776 Y52.2406
G01 X73.1701 Y52.2512
G01 X72.4299 Y52.2512
G01 X72.3224 Y52.2406
G01 X72.2238 Y52.2107
G01 X72.1329 Y52.1621
G01 X72.0533 Y52.0967
G01 X71.9879 Y52.0171
G01 X71.9393 Y51.9262
G01 X71.9094 Y51.8276
G01 X71.8988 Y51.7201
G01 X71.8988 Y50.4799
G01 X71.9000 Y50.4627
G01 X71.9000 Y49.4549
G01 X71.9014 Y49.4409
G01 X71.9018 Y49.4276
G01 X71.9043 Y49.4113
G01 X71.9079 Y49.3985
G01 X71.9108 Y49.3852
G01 X72.0087 Y49.0914
G01 X72.0147 Y49.0760
G01 X72.0216 Y49.0625
G01 X72.0266 Y49.0513
G01 X72.0327 Y49.0414
G01 X72.0420 Y49.0295
G01 X72.0491 Y49.0195
G01 X72.0598 Y49.0074
G01 X72.2551 Y48.8121
G01 X72.2601 Y48.8079
G01 X72.2677 Y48.8007
G01 X72.2798 Y48.7918
G01 X72.2891 Y48.7842
G01 X72.2992 Y48.7778
G01 X72.3128 Y48.7714
G01 X72.3234 Y48.7658
G01 X72.3346 Y48.7615
G01 X72.3492 Y48.7579
G01 X72.3606 Y48.7544
G01 X72.3768 Y48.7514
G01 X72.7703 Y48.7022
G01 X72.7823 Y48.7012
G01 X72.7976 Y48.7014
G01 X72.8149 Y48.7010
G01 X72.8264 Y48.7018
G01 X73.2199 Y48.7510
G01 X73.2352 Y48.7537
G01 X73.2498 Y48.7547
G01 X73.2584 Y48.7543
G01 X73.2704 Y48.7526
G01 X73.2810 Y48.7498
G01 X73.2912 Y48.7458
G01 X73.2978 Y48.7425
G01 X73.3051 Y48.7381
G01 X73.3139 Y48.7316
G01 X73.3219 Y48.7241
G01 X73.3291 Y48.7158
G01 X73.3334 Y48.7099
G01 X73.3372 Y48.7037
G01 X73.3425 Y48.6927
G01 X73.3461 Y48.6823
G01 X73.3481 Y48.6741
G01 X73.3493 Y48.6668
G01 X73.3500 Y48.6559
G01 X73.3500 Y47.7291
G01 X73.3496 Y47.7205
G01 X73.3478 Y47.7021
G01 X73.3565 Y47.6139
G01 X73.3823 Y47.5290
G01 X73.4240 Y47.4509
G01 X73.4803 Y47.3824
G01 X73.4946 Y47.3706
G01 X73.5009 Y47.3648
G01 X73.9168 Y46.9490
G01 X73.9234 Y46.9417
G01 X73.9292 Y46.9338
G01 X73.9343 Y46.9254
G01 X73.9389 Y46.9154
G01 X73.9418 Y46.9073
G01 X73.9436 Y46.9001
G01 X73.9456 Y46.8880
G01 X73.9460 Y46.8758
G01 X73.9456 Y46.8684
G01 X73.9444 Y46.8599
G01 X73.9418 Y46.8492
G01 X73.9389 Y46.8411
G01 X73.9185 Y46.7917
G01 X73.8800 Y46.5985
G01 X73.8800 Y46.4015
G01 X73.9185 Y46.2083
G01 X73.9938 Y46.0263
G01 X74.1033 Y45.8626
G01 X74.1951 Y45.7707
G01 X74.2009 Y45.7644
G01 X74.2075 Y45.7556
G01 X74.2126 Y45.7472
G01 X74.2168 Y45.7383
G01 X74.2197 Y45.7302
G01 X74.2225 Y45.7195
G01 X74.2239 Y45.7098
G01 X74.2244 Y45.6988
G01 X74.2236 Y45.6878
G01 X74.2219 Y45.6781
G01 X74.2201 Y45.6710
G01 X74.2177 Y45.6640
G01 X74.2131 Y45.6539
G01 X74.2075 Y45.6444
G01 X74.2017 Y45.6365
G01 X74.1942 Y45.6284
G01 X74.1869 Y45.6219
G01 X74.1779 Y45.6155
G01 X74.1715 Y45.6118
G01 X74.1649 Y45.6086
G01 X74.1557 Y45.6051
G01 X74.1451 Y45.6022
G01 X74.1342 Y45.6005
G01 X74.1244 Y45.6000
G01 X73.7752 Y45.6000
G01 X73.7642 Y45.6008
G01 X73.7569 Y45.6019
G01 X73.7497 Y45.6036
G01 X73.7393 Y45.6071
G01 X73.7292 Y45.6118
G01 X73.7208 Y45.6168
G01 X73.7149 Y45.6212
G01 X73.7057 Y45.6293
G01 X73.2976 Y46.0374
G01 X73.2910 Y46.0446
G01 X73.2858 Y46.0515
G01 X73.2801 Y46.0609
G01 X73.2759 Y46.0698
G01 X73.2726 Y46.0791
G01 X73.2705 Y46.0874
G01 X73.2688 Y46.0983
G01 X73.2683 Y46.1069
G01 X73.2687 Y46.1167
G01 X73.2698 Y46.1252
G01 X73.2722 Y46.1360
G01 X73.2754 Y46.1452
G01 X73.3015 Y46.2083
G01 X73.3400 Y46.4015
G01 X73.3400 Y46.5985
G01 X73.3015 Y46.7917
G01 X73.2262 Y46.9737
G01 X73.1167 Y47.1374
G01 X72.9774 Y47.2767
G01 X72.8137 Y47.3862
G01 X72.6317 Y47.4615
G01 X72.4385 Y47.5000
G01 X72.2415 Y47.5000
G01 X72.0728 Y47.4664
G01 X72.0607 Y47.4648
G01 X72.0533 Y47.4645
G01 X72.0459 Y47.4648
G01 X72.0338 Y47.4664
G01 X72.0219 Y47.4696
G01 X72.0150 Y47.4721
G01 X72.0061 Y47.4763
G01 X71.9977 Y47.4814
G01 X71.9918 Y47.4857
G01 X71.9826 Y47.4938
G01 X71.2793 Y48.1971
G01 X71.2712 Y48.2063
G01 X71.2668 Y48.2122
G01 X71.2624 Y48.2196
G01 X71.2576 Y48.2295
G01 X71.2536 Y48.2411
G01 X71.2519 Y48.2483
G01 X71.2508 Y48.2556
G01 X71.2500 Y48.2678
G01 X71.2500 Y50.8230
G01 X71.2504 Y50.8316
G01 X71.2522 Y50.8500
G01 X71.2435 Y50.9382
G01 X71.2177 Y51.0230
G01 X71.1760 Y51.1012
G01 X71.1197 Y51.1697
G01 X71.1054 Y51.1815
G01 X71.0991 Y51.1873
G01 X70.8873 Y51.3991
G01 X70.8815 Y51.4054
G01 X70.8697 Y51.4197
G01 X70.8012 Y51.4760
G01 X70.7530 Y51.5017
G01 X70.7456 Y51.5062
G01 X70.7397 Y51.5105
G01 X70.7288 Y51.5204
G01 X70.7231 Y51.5269
G01 X70.7174 Y51.5348
G01 X70.7119 Y51.5444
G01 X70.7088 Y51.5511
G01 X70.7063 Y51.5580
G01 X70.7034 Y51.5686
G01 X70.7017 Y51.5796
G01 X70.7012 Y51.5894
G01 X70.7012 Y51.7201
G01 X70.6906 Y51.8276
G01 X70.6607 Y51.9262
G01 X70.6121 Y52.0171
G01 X70.5467 Y52.0967
G01 X70.4671 Y52.1621
G01 X70.3762 Y52.2107
G01 X70.2776 Y52.2406
G01 X70.1701 Y52.2512
G01 X69.4299 Y52.2512
G01 X69.3224 Y52.2406
G01 X69.2238 Y52.2107
G01 X69.1329 Y52.1621
G01 X69.0533 Y52.0967
G01 X68.9879 Y52.0171
G01 X68.9393 Y51.9262
G01 X68.9094 Y51.8276
G01 X68.8988 Y51.7201
G01 X68.8988 Y50.4799
G01 X68.9000 Y50.4627
G01 X68.9000 Y49.4549
G01 X68.9014 Y49.4409
G01 X68.9018 Y49.4276
G01 X68.9043 Y49.4113
G01 X68.9079 Y49.3985
G01 X68.9108 Y49.3852
G01 X69.0087 Y49.0914
G01 X69.0147 Y49.0760
G01 X69.0216 Y49.0625
G01 X69.0266 Y49.0513
G01 X69.0327 Y49.0414
G01 X69.0420 Y49.0295
G01 X69.0491 Y49.0195
G01 X69.0598 Y49.0074
G01 X69.2551 Y48.8121
G01 X69.2601 Y48.8079
G01 X69.2677 Y48.8007
G01 X69.2798 Y48.7918
G01 X69.2891 Y48.7842
G01 X69.2992 Y48.7778
G01 X69.3128 Y48.7714
G01 X69.3234 Y48.7658
G01 X69.3346 Y48.7615
G01 X69.3492 Y48.7579
G01 X69.3606 Y48.7544
G01 X69.3768 Y48.7514
G01 X69.7703 Y48.7022
G01 X69.7823 Y48.7012
G01 X69.7976 Y48.7014
G01 X69.8149 Y48.7010
G01 X69.8264 Y48.7018
G01 X70.2199 Y48.7510
G01 X70.2341 Y48.7536
G01 X70.2437 Y48.7545
G01 X70.2535 Y48.7546
G01 X70.2608 Y48.7541
G01 X70.2680 Y48.7530
G01 X70.2787 Y48.7505
G01 X70.2879 Y48.7472
G01 X70.2978 Y48.7425
G01 X70.3061 Y48.7375
G01 X70.3139 Y48.7316
G01 X70.3219 Y48.7241
G01 X70.3276 Y48.7178
G01 X70.3334 Y48.7099
G01 X70.3384 Y48.7015
G01 X70.3425 Y48.6927
G01 X70.3458 Y48.6835
G01 X70.3481 Y48.6741
G01 X70.3496 Y48.6644
G01 X70.3500 Y48.6571
G01 X70.3500 Y48.0670
G01 X70.3496 Y48.0584
G01 X70.3478 Y48.0400
G01 X70.3565 Y47.9518
G01 X70.3823 Y47.8670
G01 X70.4240 Y47.7888
G01 X70.4803 Y47.7203
G01 X70.4946 Y47.7085
G01 X70.5000 Y47.7036
G01 X70.5317 Y47.6719
G01 X70.5391 Y47.6637
G01 X70.5441 Y47.6568
G01 X70.5480 Y47.6505
G01 X70.5534 Y47.6395
G01 X70.5573 Y47.6279
G01 X70.5591 Y47.6207
G01 X70.5604 Y47.6122
G01 X70.5610 Y47.6012
G01 X70.5605 Y47.5914
G01 X70.5591 Y47.5817
G01 X70.5567 Y47.5722
G01 X70.5534 Y47.5629
G01 X70.5492 Y47.5541
G01 X70.5441 Y47.5456
G01 X70.5383 Y47.5378
G01 X70.5317 Y47.5305
G01 X70.5244 Y47.5239
G01 X70.5165 Y47.5180
G01 X70.5070 Y47.5124
G01 X70.4993 Y47.5088
G01 X70.4888 Y47.5051
G01 X70.4793 Y47.5029
G01 X70.4683 Y47.5015
G01 X70.4610 Y47.5012
G01 X69.4766 Y47.5012
G01 X69.4656 Y47.5018
G01 X69.4547 Y47.5036
G01 X69.4476 Y47.5055
G01 X69.4406 Y47.5079
G01 X69.4295 Y47.5130
G01 X69.4210 Y47.5180
G01 X69.4151 Y47.5224
G01 X69.4059 Y47.5305
G01 X68.2793 Y48.6571
G01 X68.2727 Y48.6644
G01 X68.2662 Y48.6733
G01 X68.2618 Y48.6807
G01 X68.2586 Y48.6873
G01 X68.2543 Y48.6988
G01 X68.2515 Y48.7107
G01 X68.2505 Y48.7180
G01 X68.2500 Y48.7266
G01 X68.2500 Y50.2060
G01 X68.2504 Y50.2146
G01 X68.2522 Y50.2330
G01 X68.2435 Y50.3212
G01 X68.2177 Y50.4060
G01 X68.1760 Y50.4842
G01 X68.1197 Y50.5527
G01 X68.1054 Y50.5645
G01 X68.0991 Y50.5703
G01 X67.7305 Y50.9389
G01 X67.7239 Y50.9462
G01 X67.7180 Y50.9540
G01 X67.7130 Y50.9625
G01 X67.7083 Y50.9725
G01 X67.7055 Y50.9806
G01 X67.7031 Y50.9901
G01 X67.7017 Y50.9998
G01 X67.7012 Y51.0096
G01 X67.7012 Y51.7201
G01 X67.6906 Y51.8276
G01 X67.6607 Y51.9262
G01 X67.6121 Y52.0171
G01 X67.5467 Y52.0967
G01 X67.4671 Y52.1621
G01 X67.3762 Y52.2107
G01 X67.2776 Y52.2406
G01 X67.1701 Y52.2512
G01 X66.4299 Y52.2512
G01 X66.3224 Y52.2406
G01 X66.2238 Y52.2107
G01 X66.1329 Y52.1621
G01 X66.0533 Y52.0967
G01 X65.9879 Y52.0171
G01 X65.9393 Y51.9262
G01 X65.9094 Y51.8276
G01 X65.8988 Y51.7201
G01 X65.8988 Y50.4799
G01 X65.9000 Y50.4627
G01 X65.9000 Y49.4549
G01 X65.9014 Y49.4409
G01 X65.9018 Y49.4276
G01 X65.9043 Y49.4113
G01 X65.9079 Y49.3985
G01 X65.9108 Y49.3852
G01 X66.0087 Y49.0914
G01 X66.0147 Y49.0760
G01 X66.0216 Y49.0625
G01 X66.0266 Y49.0513
G01 X66.0327 Y49.0414
G01 X66.0420 Y49.0295
G01 X66.0491 Y49.0195
G01 X66.0598 Y49.0074
G01 X66.2551 Y48.8121
G01 X66.2601 Y48.8079
G01 X66.2677 Y48.8007
G01 X66.2798 Y48.7918
G01 X66.2891 Y48.7842
G01 X66.2992 Y48.7778
G01 X66.3128 Y48.7714
G01 X66.3234 Y48.7658
G01 X66.3346 Y48.7615
G01 X66.3492 Y48.7579
G01 X66.3606 Y48.7544
G01 X66.3768 Y48.7514
G01 X66.7703 Y48.7022
G01 X66.7823 Y48.7012
G01 X66.7976 Y48.7014
G01 X66.8149 Y48.7010
G01 X66.8264 Y48.7018
G01 X67.2199 Y48.7510
G01 X67.2352 Y48.7537
G01 X67.2486 Y48.7547
G01 X67.2596 Y48.7542
G01 X67.2704 Y48.7526
G01 X67.2798 Y48.7501
G01 X67.2901 Y48.7463
G01 X67.2999 Y48.7413
G01 X67.3061 Y48.7375
G01 X67.3120 Y48.7331
G01 X67.3202 Y48.7259
G01 X67.3276 Y48.7178
G01 X67.3347 Y48.7078
G01 X67.3384 Y48.7015
G01 X67.3425 Y48.6927
G01 X67.3464 Y48.6812
G01 X67.3481 Y48.6741
G01 X67.3496 Y48.6644
G01 X67.3500 Y48.6547
G01 X67.3500 Y48.5270
G01 X67.3496 Y48.5184
G01 X67.3478 Y48.5000
G01 X67.3565 Y48.4118
G01 X67.3823 Y48.3270
G01 X67.4240 Y48.2488
G01 X67.4803 Y48.1803
G01 X67.4946 Y48.1685
G01 X67.5009 Y48.1627
G01 X68.7695 Y46.8941
G01 X68.7761 Y46.8868
G01 X68.7813 Y46.8800
G01 X68.7881 Y46.8684
G01 X68.7921 Y46.8594
G01 X68.7945 Y46.8524
G01 X68.7964 Y46.8453
G01 X68.7982 Y46.8344
G01 X68.7988 Y46.8234
G01 X68.7988 Y45.6549
G01 X68.8022 Y45.6206
G01 X68.8108 Y45.5923
G01 X68.8247 Y45.5663
G01 X68.8434 Y45.5434
G01 X68.8663 Y45.5247
G01 X68.8923 Y45.5108
G01 X68.9206 Y45.5022
G01 X68.9549 Y45.4988
G01 X69.3500 Y45.4988
G01 X69.3574 Y45.4985
G01 X69.3707 Y45.4966
G01 X69.3790 Y45.4945
G01 X69.3883 Y45.4912
G01 X69.3972 Y45.4870
G01 X69.4035 Y45.4833
G01 X69.4144 Y45.4753
G01 X69.4207 Y45.4695
G01 X69.4273 Y45.4622
G01 X69.4332 Y45.4544
G01 X69.4382 Y45.4459
G01 X69.4424 Y45.4371
G01 X69.4457 Y45.4278
G01 X69.4481 Y45.4183
G01 X69.4492 Y45.4110
G01 X69.4500 Y45.3988
G01 X69.4500 Y45.2721
G01 X69.4496 Y45.2635
G01 X69.4483 Y45.2500
G01 X69.4551 Y45.1814
G01 X69.4751 Y45.1154
G01 X69.5076 Y45.0546
G01 X69.5513 Y45.0013
G01 X69.5618 Y44.9927
G01 X69.5682 Y44.9869
G01 X70.6869 Y43.8682
G01 X70.6927 Y43.8618
G01 X70.7013 Y43.8513
G01 X70.7546 Y43.8076
G01 X70.8154 Y43.7751
G01 X70.8814 Y43.7551
G01 X70.9500 Y43.7483
G01 X70.9635 Y43.7497
G01 X70.9721 Y43.7500
G01 X74.8136 Y43.7500
G01 X74.8258 Y43.7493
G01 X74.8331 Y43.7481
G01 X74.8426 Y43.7457
G01 X74.8541 Y43.7414
G01 X74.8607 Y43.7382
G01 X74.8681 Y43.7338
G01 X74.8770 Y43.7273
G01 X74.8843 Y43.7207
G01 X77.1081 Y41.4969
G01 X77.1162 Y41.4877
G01 X77.1206 Y41.4818
G01 X77.1256 Y41.4734
G01 X77.1303 Y41.4633
G01 X77.1338 Y41.4529
G01 X77.1359 Y41.4433
G01 X77.1369 Y41.4360
G01 X77.1374 Y41.4287
G01 X77.1370 Y41.4176
G01 X77.1357 Y41.4079
G01 X77.1331 Y41.3972
G01 X77.1298 Y41.3879
G01 X77.1256 Y41.3791
G01 X77.1199 Y41.3696
G01 X77.1139 Y41.3618
G01 X77.1063 Y41.3538
G01 X77.1009 Y41.3489
G01 X77.0950 Y41.3445
G01 X77.0867 Y41.3392
G01 X77.0768 Y41.3343
G01 X77.0676 Y41.3309
G01 X77.0545 Y41.3277
G01 X77.0472 Y41.3267
G01 X77.0374 Y41.3262
G01 X76.6549 Y41.3262
G01 X76.6206 Y41.3228
G01 X76.5923 Y41.3142
G01 X76.5663 Y41.3003
G01 X76.5434 Y41.2816
G01 X76.5247 Y41.2587
G01 X76.5108 Y41.2327
G01 X76.5022 Y41.2044
G01 X76.4988 Y41.1701
G01 X76.4988 Y40.9364
G01 X76.4983 Y40.9278
G01 X76.4973 Y40.9205
G01 X76.4945 Y40.9086
G01 X76.4912 Y40.8993
G01 X76.4881 Y40.8926
G01 X76.4820 Y40.8820
G01 X76.4745 Y40.8723
G01 X76.4695 Y40.8669
G01 X76.4622 Y40.8603
G01 X76.4523 Y40.8531
G01 X76.4459 Y40.8494
G01 X76.4371 Y40.8452
G01 X76.4255 Y40.8412
G01 X76.4183 Y40.8395
G01 X76.4086 Y40.8381
G01 X76.3988 Y40.8376
G01 X76.3878 Y40.8382
G01 X76.3781 Y40.8398
G01 X76.3674 Y40.8427
G01 X76.3605 Y40.8452
G01 X76.3538 Y40.8483
G01 X76.3453 Y40.8531
G01 X76.3363 Y40.8595
G01 X76.3289 Y40.8660
G01 X75.7778 Y41.4171
G01 X75.7712 Y41.4244
G01 X75.7647 Y41.4333
G01 X75.7598 Y41.4418
G01 X75.7552 Y41.4519
G01 X75.7528 Y41.4588
G01 X75.7504 Y41.4684
G01 X75.7490 Y41.4781
G01 X75.7485 Y41.4879
G01 X75.7490 Y41.4977
G01 X75.7504 Y41.5074
G01 X75.7528 Y41.5169
G01 X75.7561 Y41.5261
G01 X75.7615 Y41.5372
G01 X75.7654 Y41.5434
G01 X75.7712 Y41.5513
G01 X75.7778 Y41.5586
G01 X75.8049 Y41.5857
G01 X75.8760 Y41.6921
G01 X75.9250 Y41.8104
G01 X75.9500 Y41.9360
G01 X75.9500 Y42.0640
G01 X75.9250 Y42.1896
G01 X75.8760 Y42.3079
G01 X75.8049 Y42.4143
G01 X75.7143 Y42.5049
G01 X75.6079 Y42.5760
G01 X75.4896 Y42.6250
G01 X75.3640 Y42.6500
G01 X75.2360 Y42.6500
G01 X75.1104 Y42.6250
G01 X74.9921 Y42.5760
G01 X74.8857 Y42.5049
G01 X74.7951 Y42.4143
G01 X74.7240 Y42.3079
G01 X74.6750 Y42.1896
G01 X74.6500 Y42.0640
G01 X74.6500 Y41.9360
G01 X74.6750 Y41.8104
G01 X74.7240 Y41.6921
G01 X74.7951 Y41.5857
G01 X74.8923 Y41.4885
G01 X74.8997 Y41.4803
G01 X74.9061 Y41.4713
G01 X74.9098 Y41.4649
G01 X74.9130 Y41.4583
G01 X74.9169 Y41.4480
G01 X74.9194 Y41.4385
G01 X74.9210 Y41.4288
G01 X74.9215 Y41.4202
G01 X74.9208 Y41.4055
G01 X74.9197 Y41.3982
G01 X74.9173 Y41.3887
G01 X74.9140 Y41.3795
G01 X74.9098 Y41.3706
G01 X74.9047 Y41.3622
G01 X74.8997 Y41.3553
G01 X74.8905 Y41.3453
G01 X74.8850 Y41.3404
G01 X74.8771 Y41.3346
G01 X74.8687 Y41.3295
G01 X74.8610 Y41.3258
G01 X74.8506 Y41.3220
G01 X74.8387 Y41.3192
G01 X74.8314 Y41.3182
G01 X74.8228 Y41.3177
G01 X74.8106 Y41.3184
G01 X74.8021 Y41.3197
G01 X74.7937 Y41.3217
G01 X74.7171 Y41.3449
G01 X74.6485 Y41.3517
G01 X74.6350 Y41.3504
G01 X74.6264 Y41.3500
G01 X72.4864 Y41.3500
G01 X72.4766 Y41.3505
G01 X72.4681 Y41.3517
G01 X72.4550 Y41.3551
G01 X72.4481 Y41.3576
G01 X72.4392 Y41.3618
G01 X72.4308 Y41.3668
G01 X72.4229 Y41.3727
G01 X72.4157 Y41.3793
G01 X65.1793 Y48.6157
G01 X65.1727 Y48.6229
G01 X65.1668 Y48.6308
G01 X65.1624 Y48.6382
G01 X65.1567 Y48.6504
G01 X65.1543 Y48.6574
G01 X65.1519 Y48.6669
G01 X65.1505 Y48.6766
G01 X65.1500 Y48.6852
G01 X65.1500 Y50.0579
G01 X65.1504 Y50.0665
G01 X65.1517 Y50.0800
G01 X65.1449 Y50.1486
G01 X65.1249 Y50.2146
G01 X65.0924 Y50.2754
G01 X65.0565 Y50.3191
G00 Z1.0000
G00 X66.0000 Y50.5015
G01 F400.00
G01 Z-0.0500
G01 F2500.00
G01 X66.0000 Y49.4500
G01 X66.0004 Y49.4406
G01 X66.0023 Y49.4287
G01 X66.0051 Y49.4184
G01 X66.1051 Y49.1184
G01 X66.1087 Y49.1092
G01 X66.1124 Y49.1018
G01 X66.1168 Y49.0944
G01 X66.1227 Y49.0865
G01 X66.1293 Y49.0793
G01 X66.3301 Y48.8784
G01 X66.3363 Y48.8729
G01 X66.3438 Y48.8673
G01 X66.3519 Y48.8623
G01 X66.3603 Y48.8582
G01 X66.3692 Y48.8548
G01 X66.3760 Y48.8529
G01 X66.3876 Y48.8507
G01 X66.7876 Y48.8007
G01 X66.7965 Y48.8000
G01 X66.8048 Y48.8001
G01 X66.8124 Y48.8007
G01 X67.2124 Y48.8507
G01 X67.2240 Y48.8529
G01 X67.2308 Y48.8548
G01 X67.2386 Y48.8577
G01 X67.2481 Y48.8623
G01 X67.2562 Y48.8673
G01 X67.2637 Y48.8729
G01 X67.2699 Y48.8784
G01 X67.4499 Y49.0584
G01 X67.4499 Y48.5000
G01 X67.4514 Y48.4669
G01 X67.4566 Y48.4317
G01 X67.4657 Y48.3960
G01 X67.4765 Y48.3660
G01 X67.4901 Y48.3371
G01 X67.5089 Y48.3055
G01 X67.5293 Y48.2779
G01 X67.5524 Y48.2524
G01 X68.9000 Y46.9048
G01 X68.9000 Y45.6488
G01 X68.9004 Y45.6439
G01 X68.9015 Y45.6379
G01 X68.9048 Y45.6286
G01 X68.9098 Y45.6202
G01 X68.9164 Y45.6130
G01 X68.9233 Y45.6078
G01 X68.9309 Y45.6038
G01 X68.9402 Y45.6010
G01 X68.9488 Y45.6000
G01 X69.5499 Y45.6000
G01 X69.5499 Y45.2500
G01 X69.5511 Y45.2255
G01 X69.5547 Y45.2012
G01 X69.5600 Y45.1798
G01 X69.5689 Y45.1543
G01 X69.5806 Y45.1300
G01 X69.5920 Y45.1111
G01 X69.6059 Y45.0923
G01 X69.6232 Y45.0732
G01 X70.7740 Y43.9223
G01 X70.7933 Y43.9052
G01 X70.8110 Y43.8921
G01 X70.8300 Y43.8807
G01 X70.8543 Y43.8689
G01 X70.8774 Y43.8607
G01 X70.9012 Y43.8547
G01 X70.9230 Y43.8514
G01 X70.9500 Y43.8499
G01 X74.8964 Y43.8499
G01 X77.2749 Y41.4714
G01 X77.2749 Y41.2182
G01 X77.2692 Y41.2144
G01 X77.2646 Y41.2104
G01 X77.2606 Y41.2058
G01 X77.2571 Y41.2007
G01 X77.2543 Y41.1953
G01 X77.2522 Y41.1895
G01 X77.2505 Y41.1823
G01 X77.2500 Y41.1762
G01 X77.2500 Y39.7250
G01 X77.2504 Y39.7189
G01 X77.2518 Y39.7117
G01 X77.2543 Y39.7047
G01 X77.2584 Y39.6972
G01 X77.2638 Y39.6905
G01 X77.2692 Y39.6856
G01 X77.2754 Y39.6815
G01 X77.2832 Y39.6779
G01 X77.2902 Y39.6760
G01 X77.2975 Y39.6751
G01 X77.7512 Y39.6750
G01 X77.7610 Y39.6762
G01 X77.7703 Y39.6793
G01 X77.7746 Y39.6815
G01 X77.7798 Y39.6848
G01 X77.7870 Y39.6914
G01 X77.7929 Y39.6993
G01 X77.7966 Y39.7070
G01 X77.7993 Y39.7165
G01 X77.8000 Y39.7250
G01 X77.8000 Y41.1762
G01 X77.7995 Y41.1823
G01 X77.7982 Y41.1883
G01 X77.7962 Y41.1941
G01 X77.7929 Y41.2007
G01 X77.7894 Y41.2058
G01 X77.7854 Y41.2104
G01 X77.7808 Y41.2144
G01 X77.7751 Y41.2182
G01 X77.7751 Y41.5750
G01 X77.7740 Y41.5983
G01 X77.7703 Y41.6238
G01 X77.7643 Y41.6476
G01 X77.7561 Y41.6707
G01 X77.7450 Y41.6940
G01 X77.7330 Y41.7139
G01 X77.7198 Y41.7317
G01 X77.7018 Y41.7518
G01 X75.1768 Y44.2769
G01 X75.1587 Y44.2933
G01 X75.1409 Y44.3065
G01 X75.1157 Y44.3217
G01 X75.0957 Y44.3311
G01 X75.0726 Y44.3393
G01 X75.0488 Y44.3453
G01 X75.0269 Y44.3486
G01 X75.0000 Y44.3501
G01 X71.0536 Y44.3501
G01 X70.0501 Y45.3536
G01 X70.0501 Y45.6000
G01 X70.6525 Y45.6001
G01 X70.6598 Y45.6010
G01 X70.6668 Y45.6029
G01 X70.6736 Y45.6059
G01 X70.6798 Y45.6098
G01 X70.6854 Y45.6146
G01 X70.6909 Y45.6212
G01 X70.6947 Y45.6275
G01 X70.6975 Y45.6343
G01 X70.6995 Y45.6427
G01 X70.7000 Y45.6500
G01 X70.7000 Y47.3500
G01 X70.6990 Y47.3598
G01 X70.6966 Y47.3680
G01 X70.6935 Y47.3746
G01 X70.6894 Y47.3808
G01 X70.6845 Y47.3862
G01 X70.6788 Y47.3909
G01 X70.6725 Y47.3947
G01 X70.6657 Y47.3975
G01 X70.6585 Y47.3993
G01 X70.6512 Y47.4000
G01 X69.3952 Y47.4000
G01 X68.1501 Y48.6450
G01 X68.1501 Y50.2330
G01 X68.1485 Y50.2673
G01 X68.1434 Y50.3013
G01 X68.1343 Y50.3370
G01 X68.1235 Y50.3670
G01 X68.1099 Y50.3959
G01 X68.0911 Y50.4275
G01 X68.0699 Y50.4561
G01 X68.0476 Y50.4806
G01 X67.6000 Y50.9282
G01 X67.6000 Y51.7250
G01 X67.5978 Y51.7679
G01 X67.5918 Y51.8079
G01 X67.5817 Y51.8484
G01 X67.5676 Y51.8876
G01 X67.5509 Y51.9232
G01 X67.5270 Y51.9631
G01 X67.5035 Y51.9946
G01 X67.4737 Y52.0272
G01 X67.4446 Y52.0535
G01 X67.4111 Y52.0784
G01 X67.3753 Y52.0998
G01 X67.3399 Y52.1167
G01 X67.2960 Y52.1324
G01 X67.2579 Y52.1418
G01 X67.2179 Y52.1478
G01 X67.1750 Y52.1500
G01 X66.4250 Y52.1500
G01 X66.3833 Y52.1480
G01 X66.3421 Y52.1418
G01 X66.3016 Y52.1317
G01 X66.2624 Y52.1176
G01 X66.2247 Y52.0998
G01 X66.1889 Y52.0784
G01 X66.1554 Y52.0535
G01 X66.1236 Y52.0246
G01 X66.0965 Y51.9946
G01 X66.0716 Y51.9611
G01 X66.0502 Y51.9253
G01 X66.0333 Y51.8899
G01 X66.0176 Y51.8460
G01 X66.0082 Y51.8079
G01 X66.0019 Y51.7654
G01 X66.0000 Y51.7250
G01 X66.0000 Y50.5015
G00 Z1.0000
G00 X63.2342 Y51.2921
G01 F400.00
G01 Z-0.0500
G01 F2500.00
G01 X64.5499 Y49.9764
G01 X64.5499 Y48.4988
G01 X64.5511 Y48.4755
G01 X64.5547 Y48.4512
G01 X64.5607 Y48.4274
G01 X64.5681 Y48.4066
G01 X64.5806 Y48.3800
G01 X64.5920 Y48.3611
G01 X64.6075 Y48.3404
G01 X64.6232 Y48.3232
G01 X72.1240 Y40.8223
G01 X72.1413 Y40.8067
G01 X72.1611 Y40.7920
G01 X72.1821 Y40.7794
G01 X72.2043 Y40.7689
G01 X72.2274 Y40.7607
G01 X72.2512 Y40.7547
G01 X72.2755 Y40.7511
G01 X72.2988 Y40.7499
G01 X74.5449 Y40.7499
G01 X79.2249 Y36.0699
G01 X79.2249 Y35.3182
G01 X79.2192 Y35.3144
G01 X79.2146 Y35.3104
G01 X79.2106 Y35.3058
G01 X79.2065 Y35.2996
G01 X79.2034 Y35.2930
G01 X79.2015 Y35.2871
G01 X79.2004 Y35.2811
G01 X79.2000 Y35.2750
G01 X79.2000 Y33.8238
G01 X79.2005 Y33.8177
G01 X79.2018 Y33.8117
G01 X79.2038 Y33.8059
G01 X79.2071 Y33.7993
G01 X79.2106 Y33.7942
G01 X79.2146 Y33.7896
G01 X79.2192 Y33.7856
G01 X79.2249 Y33.7818
G01 X79.2249 Y30.9999
G01 X79.1889 Y30.9784
G01 X79.1554 Y30.9535
G01 X79.1245 Y30.9255
G01 X79.0965 Y30.8946
G01 X79.0716 Y30.8611
G01 X79.0502 Y30.8253
G01 X79.0324 Y30.7876
G01 X79.0183 Y30.7484
G01 X79.0077 Y30.7055
G01 X79.0020 Y30.6667
G01 X79.0000 Y30.6262
G01 X79.0000 Y30.2501
G01 X78.3500 Y30.2501
G01 X78.3499 Y30.3775
G01 X78.3480 Y30.4167
G01 X78.3418 Y30.4579
G01 X78.3317 Y30.4984
G01 X78.3176 Y30.5376
G01 X78.2998 Y30.5753
G01 X78.2790 Y30.6101
G01 X78.2535 Y30.6446
G01 X78.2255 Y30.6755
G01 X78.1946 Y30.7035
G01 X78.1611 Y30.7284
G01 X78.1253 Y30.7498
G01 X78.0876 Y30.7676
G01 X78.0484 Y30.7817
G01 X78.0067 Y30.7921
G01 X77.9667 Y30.7980
G01 X77.9250 Y30.8000
G01 X75.6500 Y30.8000
G01 X75.6420 Y30.7997
G01 X75.6300 Y30.7980
G01 X75.6184 Y30.7949
G01 X75.3184 Y30.6949
G01 X75.3092 Y30.6913
G01 X75.2994 Y30.6863
G01 X75.2934 Y30.6825
G01 X75.2875 Y30.6781
G01 X75.2793 Y30.6707
G01 X75.0793 Y30.4707
G01 X75.0722 Y30.4628
G01 X75.0673 Y30.4562
G01 X75.0635 Y30.4502
G01 X75.0582 Y30.4397
G01 X75.0542 Y30.4286
G01 X75.0524 Y30.4217
G01 X75.0509 Y30.4136
G01 X75.0007 Y30.0124
G01 X75.0000 Y30.0021
G01 X75.0001 Y29.9952
G01 X75.0007 Y29.9876
G01 X75.0509 Y29.5864
G01 X75.0524 Y29.5783
G01 X75.0542 Y29.5714
G01 X75.0582 Y29.5603
G01 X75.0635 Y29.5498
G01 X75.0673 Y29.5438
G01 X75.0729 Y29.5363
G01 X75.0793 Y29.5293
G01 X75.2793 Y29.3293
G01 X75.2879 Y29.3216
G01 X75.2935 Y29.3174
G01 X75.3004 Y29.3131
G01 X75.3097 Y29.3084
G01 X75.3184 Y29.3051
G01 X75.6184 Y29.2051
G01 X75.6300 Y29.2020
G01 X75.6420 Y29.2003
G01 X75.6500 Y29.2000
G01 X77.9250 Y29.2000
G01 X77.9667 Y29.2020
G01 X78.0067 Y29.2079
G01 X78.0484 Y29.2183
G01 X78.0876 Y29.2324
G01 X78.1253 Y29.2502
G01 X78.1611 Y29.2716
G01 X78.1946 Y29.2965
G01 X78.2255 Y29.3245
G01 X78.2535 Y29.3554
G01 X78.2790 Y29.3899
G01 X78.2998 Y29.4247
G01 X78.3176 Y29.4624
G01 X78.3317 Y29.5016
G01 X78.3418 Y29.5421
G01 X78.3480 Y29.5833
G01 X78.3499 Y29.6225
G01 X78.3500 Y29.7499
G01 X79.0000 Y29.7499
G01 X79.0000 Y28.3500
G01 X79.0003 Y28.3420
G01 X79.0020 Y28.3300
G01 X79.0051 Y28.3184
G01 X79.1051 Y28.0184
G01 X79.1094 Y28.0076
G01 X79.1126 Y28.0014
G01 X79.1168 Y27.9945
G01 X79.1230 Y27.9861
G01 X79.1293 Y27.9793
G01 X79.3310 Y27.7776
G01 X79.3363 Y27.7729
G01 X79.3428 Y27.7679
G01 X79.3529 Y27.7618
G01 X79.3603 Y27.7582
G01 X79.3670 Y27.7556
G01 X79.3794 Y27.7521
G01 X79.3876 Y27.7507
G01 X79.7876 Y27.7007
G01 X79.7952 Y27.7001
G01 X79.8035 Y27.7000
G01 X79.8124 Y27.7007
G01 X80.2136 Y27.7509
G01 X80.2240 Y27.7529
G01 X80.2308 Y27.7548
G01 X80.2375 Y27.7573
G01 X80.2481 Y27.7623
G01 X80.2572 Y27.7679
G01 X80.2637 Y27.7729
G01 X80.2707 Y27.7793
G01 X80.4707 Y27.9793
G01 X80.4781 Y27.9875
G01 X80.4823 Y27.9932
G01 X80.4863 Y27.9994
G01 X80.4913 Y28.0092
G01 X80.4949 Y28.0184
G01 X80.5949 Y28.3184
G01 X80.5977 Y28.3287
G01 X80.5995 Y28.3393
G01 X80.6000 Y28.3500
G01 X80.6000 Y30.6250
G01 X80.5981 Y30.6654
G01 X80.5913 Y30.7103
G01 X80.5817 Y30.7484
G01 X80.5685 Y30.7854
G01 X80.5498 Y30.8253
G01 X80.5270 Y30.8631
G01 X80.5035 Y30.8946
G01 X80.4772 Y30.9237
G01 X80.4446 Y30.9535
G01 X80.4090 Y30.9797
G01 X80.3753 Y30.9998
G01 X80.3388 Y31.0172
G01 X80.2984 Y31.0317
G01 X80.2603 Y31.0413
G01 X80.2142 Y31.0481
G01 X80.1750 Y31.0500
G01 X79.7251 Y31.0500
G01 X79.7251 Y33.7818
G01 X79.7308 Y33.7856
G01 X79.7354 Y33.7896
G01 X79.7394 Y33.7942
G01 X79.7429 Y33.7993
G01 X79.7457 Y33.8047
G01 X79.7478 Y33.8105
G01 X79.7495 Y33.8177
G01 X79.7500 Y33.8238
G01 X79.7500 Y35.2750
G01 X79.7495 Y35.2823
G01 X79.7482 Y35.2883
G01 X79.7462 Y35.2941
G01 X79.7435 Y35.2996
G01 X79.7394 Y35.3058
G01 X79.7354 Y35.3104
G01 X79.7308 Y35.3144
G01 X79.7251 Y35.3182
G01 X79.7251 Y36.1735
G01 X79.7240 Y36.1968
G01 X79.7198 Y36.2247
G01 X79.7143 Y36.2461
G01 X79.7069 Y36.2670
G01 X79.6956 Y36.2914
G01 X79.6815 Y36.3145
G01 X79.6683 Y36.3322
G01 X79.6518 Y36.3504
G01 X74.8254 Y41.1768
G01 X74.8072 Y41.1933
G01 X74.7875 Y41.2079
G01 X74.7642 Y41.2217
G01 X74.7443 Y41.2311
G01 X74.7212 Y41.2393
G01 X74.6949 Y41.2457
G01 X74.6731 Y41.2489
G01 X74.6499 Y41.2501
G01 X72.4036 Y41.2501
G01 X65.0501 Y48.6036
G01 X65.0501 Y50.0800
G01 X65.0489 Y50.1045
G01 X65.0453 Y50.1288
G01 X65.0393 Y50.1526
G01 X65.0315 Y50.1746
G01 X65.0206 Y50.1979
G01 X65.0080 Y50.2189
G01 X64.9933 Y50.2387
G01 X64.9768 Y50.2568
G01 X63.5879 Y51.6458
G01 X63.5948 Y51.6579
G01 X63.6315 Y51.7356
G01 X63.6619 Y51.8211
G01 X63.6827 Y51.9044
G01 X63.6954 Y51.9893
G01 X63.6999 Y52.0825
G01 X63.6957 Y52.1682
G01 X63.6831 Y52.2532
G01 X63.6612 Y52.3413
G01 X63.6305 Y52.4267
G01 X63.5937 Y52.5043
G01 X63.5490 Y52.5790
G01 X63.4957 Y52.6510
G01 X63.4364 Y52.7164
G01 X63.3710 Y52.7757
G01 X63.3020 Y52.8269
G01 X63.2221 Y52.8748
G01 X63.1444 Y52.9115
G01 X63.0589 Y52.9419
G01 X62.9756 Y52.9627
G01 X62.8882 Y52.9757
G01 X62.8000 Y52.9800
G01 X62.7118 Y52.9757
G01 X62.6244 Y52.9627
G01 X62.5387 Y52.9412
G01 X62.4556 Y52.9115
G01 X62.3757 Y52.8737
G01 X62.3000 Y52.8283
G01 X62.2290 Y52.7757
G01 X62.1636 Y52.7164
G01 X62.1043 Y52.6510
G01 X62.0517 Y52.5800
G01 X62.0063 Y52.5043
G01 X61.9685 Y52.4244
G01 X61.9388 Y52.3413
G01 X61.9173 Y52.2556
G01 X61.9043 Y52.1682
G01 X61.9000 Y52.0800
G01 X61.9043 Y51.9918
G01 X61.9173 Y51.9044
G01 X61.9388 Y51.8187
G01 X61.9685 Y51.7356
G01 X62.0063 Y51.6557
G01 X62.0517 Y51.5800
G01 X62.1043 Y51.5090
G01 X62.1636 Y51.4436
G01 X62.2290 Y51.3843
G01 X62.3000 Y51.3317
G01 X62.3757 Y51.2863
G01 X62.4556 Y51.2485
G01 X62.5387 Y51.2188
G01 X62.6244 Y51.1973
G01 X62.7118 Y51.1843
G01 X62.8000 Y51.1800
G01 X62.8882 Y51.1843
G01 X62.9756 Y51.1973
G01 X63.0613 Y51.2188
G01 X63.1444 Y51.2485
G01 X63.2221 Y51.2852
G01 X63.2342 Y51.2921
G00 Z1.0000
G00 X63.6474 Y54.3200
G01 F400.00
G01 Z-0.0500
G01 F2500.00
G01 X63.6310 Y54.2745
G01 X63.5943 Y54.1968
G01 X63.5490 Y54.1210
G01 X63.4957 Y54.0490
G01 X63.4364 Y53.9836
G01 X63.3710 Y53.9243
G01 X63.2990 Y53.8710
G01 X63.2232 Y53.8257
G01 X63.1455 Y53.7890
G01 X63.1000 Y53.7726
G01 X63.1000 Y53.4386
G01 X63.2141 Y53.3911
G01 X63.4193 Y53.4776
G01 X63.6303 Y53.6204
G01 X63.8094 Y53.8015
G01 X63.9498 Y54.0144
G01 X64.0289 Y54.2053
G01 X63.9803 Y54.3200
G01 X63.6474 Y54.3200
G00 Z1.0000
G00 X63.1000 Y55.4674
G01 F400.00
G01 Z-0.0500
G01 F2500.00
G01 X63.1455 Y55.4510
G01 X63.2232 Y55.4143
G01 X63.2990 Y55.3690
G01 X63.3710 Y55.3157
G01 X63.4364 Y55.2564
G01 X63.4957 Y55.1910
G01 X63.5490 Y55.1190
G01 X63.5943 Y55.0432
G01 X63.6310 Y54.9655
G01 X63.6474 Y54.9200
G01 X63.9803 Y54.9200
G01 X64.0289 Y55.0347
G01 X63.9498 Y55.2256
G01 X63.8094 Y55.4385
G01 X63.6303 Y55.6196
G01 X63.4193 Y55.7624
G01 X63.2141 Y55.8489
G01 X63.1000 Y55.8014
G01 X63.1000 Y55.4674
G00 Z1.0000
G00 X62.5000 Y55.4674
G01 F400.00
G01 Z-0.0500
G01 F2500.00
G01 X62.5000 Y55.8014
G01 X62.3859 Y55.8489
G01 X62.1807 Y55.7624
G01 X61.9697 Y55.6196
G01 X61.7906 Y55.4385
G01 X61.6502 Y55.2256
G01 X61.5711 Y55.0347
G01 X61.6197 Y54.9200
G01 X61.9526 Y54.9200
G01 X61.9690 Y54.9655
G01 X62.0057 Y55.0432
G01 X62.0510 Y55.1190
G01 X62.1043 Y55.1910
G01 X62.1636 Y55.2564
G01 X62.2290 Y55.3157
G01 X62.3010 Y55.3690
G01 X62.3768 Y55.4143
G01 X62.4545 Y55.4510
G01 X62.5000 Y55.4674
G00 Z1.0000
G00 X61.9526 Y54.3200
G01 F400.00
G01 Z-0.0500
G01 F2500.00
G01 X61.6197 Y54.3200
G01 X61.5711 Y54.2053
G01 X61.6502 Y54.0144
G01 X61.7906 Y53.8015
G01 X61.9697 Y53.6204
G01 X62.1807 Y53.4776
G01 X62.3859 Y53.3911
G01 X62.5000 Y53.4386
G01 X62.5000 Y53.7726
G01 X62.4545 Y53.7890
G01 X62.3768 Y53.8257
G01 X62.3010 Y53.8710
G01 X62.2290 Y53.9243
G01 X62.1636 Y53.9836
G01 X62.1043 Y54.0490
G01 X62.0510 Y54.1210
G01 X62.0057 Y54.1968
G01 X61.9690 Y54.2745
G01 X61.9526 Y54.3200
G00 Z1.0000
G00 X60.3750 Y56.8250
G01 F400.00
G01 Z-0.0500
G01 F2500.00
G01 X60.3750 Y26.4250
G01 X60.3755 Y26.4152
G01 X60.3769 Y26.4055
G01 X60.3793 Y26.3960
G01 X60.3826 Y26.3867
G01 X60.3868 Y26.3778
G01 X60.3918 Y26.3694
G01 X60.3977 Y26.3615
G01 X60.4034 Y26.3552
G01 X60.4115 Y26.3477
G01 X60.4194 Y26.3418
G01 X60.4278 Y26.3368
G01 X60.4367 Y26.3326
G01 X60.4460 Y26.3293
G01 X60.4555 Y26.3269
G01 X60.4652 Y26.3255
G01 X60.4750 Y26.3250
G01 X90.0014 Y26.3250
G01 X90.0112 Y26.3255
G01 X90.0208 Y26.3269
G01 X90.0303 Y26.3292
G01 X90.0395 Y26.3325
G01 X90.0483 Y26.3367
G01 X90.0567 Y26.3417
