(G-CODE GENERATED BY FLATCAM v8.992 - www.flatcam.org - Version Date: 2020/05/03)

(Name: MSP430G2553_array-F_Cu.gbr_iso_cnc)
(Type: G-code from Geometry)
(Units: MM)

(Created on Sunday, 31 May 2020 at 17:18)

(This preprocessor is the default preprocessor used by FlatCAM.)
(It is made to work with MACH3 compatible motion controllers.)

(TOOL DIAMETER: 0.1 mm)
(Feedrate_XY: 2500.0 mm/min)
(Feedrate_Z: 400.0 mm/min)
(Feedrate rapids 1500.0 mm/min)

(Z_Cut: -0.04 mm)
(Z_Move: 1.0 mm)
(Z Start: None mm)
(Z End: 15.0 mm)
(Steps per circle: 64)
(Preprocessor Geometry: default)

(X range:   60.4750 ...   90.3250  mm)
(Y range:   27.1750 ...   89.0250  mm)

(Spindle Speed: None RPM)
G21
G90
G94



G01 F2500.00
G00 Z1.0000

M03
G00 X68.2499 Y29.9025
G01 F400.00
G01 Z-0.0400
G01 F2500.00
G01 X68.2449 Y30.0029
G01 X68.2298 Y30.1048
G01 X68.2048 Y30.2048
G01 X68.1701 Y30.3018
G01 X68.1260 Y30.3950
G01 X68.0730 Y30.4833
G01 X68.0117 Y30.5661
G01 X67.9425 Y30.6425
G01 X67.8661 Y30.7117
G01 X67.7833 Y30.7730
G01 X67.6950 Y30.8260
G01 X67.6018 Y30.8701
G01 X67.5048 Y30.9048
G01 X67.4048 Y30.9298
G01 X67.3029 Y30.9449
G01 X67.2000 Y30.9500
G01 X67.0971 Y30.9449
G01 X66.9952 Y30.9298
G01 X66.8952 Y30.9048
G01 X66.7982 Y30.8701
G01 X66.7050 Y30.8260
G01 X66.6167 Y30.7730
G01 X66.5339 Y30.7117
G01 X66.4575 Y30.6425
G01 X66.3883 Y30.5661
G01 X66.3270 Y30.4833
G01 X66.2740 Y30.3950
G01 X66.2299 Y30.3018
G01 X66.1952 Y30.2048
G01 X66.1702 Y30.1048
G01 X66.1551 Y30.0029
G01 X66.1500 Y29.9000
G01 X66.1551 Y29.7971
G01 X66.1702 Y29.6952
G01 X66.1952 Y29.5952
G01 X66.2299 Y29.4982
G01 X66.2740 Y29.4050
G01 X66.3270 Y29.3167
G01 X66.3883 Y29.2339
G01 X66.4575 Y29.1575
G01 X66.5339 Y29.0883
G01 X66.6167 Y29.0270
G01 X66.7050 Y28.9740
G01 X66.7982 Y28.9299
G01 X66.8952 Y28.8952
G01 X66.9952 Y28.8702
G01 X67.0971 Y28.8551
G01 X67.2000 Y28.8500
G01 X67.3029 Y28.8551
G01 X67.4048 Y28.8702
G01 X67.5048 Y28.8952
G01 X67.6018 Y28.9299
G01 X67.6950 Y28.9740
G01 X67.7833 Y29.0270
G01 X67.8661 Y29.0883
G01 X67.9425 Y29.1575
G01 X68.0117 Y29.2339
G01 X68.0730 Y29.3167
G01 X68.1260 Y29.4050
G01 X68.1701 Y29.4982
G01 X68.2048 Y29.5952
G01 X68.2298 Y29.6952
G01 X68.2449 Y29.7971
G01 X68.2499 Y29.9025
G00 Z1.0000
G00 X68.2497 Y29.8975
G01 F400.00
G01 Z-0.0400
G01 F2500.00
G01 X68.2499 Y29.9025
G01 X68.2497 Y29.9074
G01 X68.2499 Y29.9025
G00 Z1.0000
G00 X69.8000 Y32.9500
G01 F400.00
G01 Z-0.0400
G01 F2500.00
G01 X69.4789 Y32.9500
G01 X69.3999 Y32.8709
G01 X69.3974 Y32.2047
G01 X69.4065 Y32.1118
G01 X69.4323 Y32.0270
G01 X69.4740 Y31.9488
G01 X69.5303 Y31.8803
G01 X69.5988 Y31.8240
G01 X69.6770 Y31.7823
G01 X69.7618 Y31.7565
G01 X69.8547 Y31.7474
G01 X70.3709 Y31.7498
G01 X70.4500 Y31.8289
G01 X70.4500 Y32.1500
G01 X69.8475 Y32.1501
G01 X69.8415 Y32.1507
G01 X69.8343 Y32.1525
G01 X69.8275 Y32.1553
G01 X69.8222 Y32.1584
G01 X69.8173 Y32.1621
G01 X69.8121 Y32.1673
G01 X69.8084 Y32.1722
G01 X69.8048 Y32.1786
G01 X69.8029 Y32.1832
G01 X69.8012 Y32.1890
G01 X69.8004 Y32.1939
G01 X69.8000 Y32.2000
G01 X69.8000 Y32.9500
G00 Z1.0000
G00 X69.8000 Y32.9450
G01 F400.00
G01 Z-0.0400
G01 F2500.00
G01 X69.8000 Y32.9500
G01 X69.7950 Y32.9500
G01 X69.8000 Y32.9500
G00 Z1.0000
G00 X69.8000 Y34.3000
G01 F400.00
G01 Z-0.0400
G01 F2500.00
G01 X69.8010 Y34.3098
G01 X69.8034 Y34.3180
G01 X69.8078 Y34.3267
G01 X69.8138 Y34.3345
G01 X69.8212 Y34.3409
G01 X69.8297 Y34.3457
G01 X69.8390 Y34.3488
G01 X69.8488 Y34.3500
G01 X71.6500 Y34.3500
G01 X71.6561 Y34.3496
G01 X71.6621 Y34.3485
G01 X71.6680 Y34.3466
G01 X71.6736 Y34.3441
G01 X71.6788 Y34.3409
G01 X71.6836 Y34.3370
G01 X71.6879 Y34.3327
G01 X71.6916 Y34.3278
G01 X71.6952 Y34.3214
G01 X71.6978 Y34.3145
G01 X71.6995 Y34.3073
G01 X71.7000 Y34.3000
G01 X71.7000 Y32.2000
G01 X71.6998 Y32.1951
G01 X71.6988 Y32.1890
G01 X71.6962 Y32.1809
G01 X71.6929 Y32.1743
G01 X71.6887 Y32.1683
G01 X71.6827 Y32.1621
G01 X71.6757 Y32.1571
G01 X71.6680 Y32.1534
G01 X71.6598 Y32.1510
G01 X71.6525 Y32.1501
G01 X71.0500 Y32.1500
G01 X71.0500 Y31.8289
G01 X71.1442 Y31.7347
G01 X71.1500 Y31.7283
G01 X71.1558 Y31.7204
G01 X71.1609 Y31.7120
G01 X71.1651 Y31.7031
G01 X71.1684 Y31.6939
G01 X71.1707 Y31.6844
G01 X71.1722 Y31.6747
G01 X71.1727 Y31.6649
G01 X71.1722 Y31.6550
G01 X71.1712 Y31.6478
G01 X71.1676 Y31.6335
G01 X71.1646 Y31.6254
G01 X71.1597 Y31.6156
G01 X71.1551 Y31.6083
G01 X71.1492 Y31.6005
G01 X71.1425 Y31.5933
G01 X71.1342 Y31.5860
G01 X71.1282 Y31.5817
G01 X71.1219 Y31.5778
G01 X71.1109 Y31.5724
G01 X71.1029 Y31.5695
G01 X71.0738 Y31.5607
G01 X70.9829 Y31.5121
G01 X70.9033 Y31.4467
G01 X70.8379 Y31.3671
G01 X70.7893 Y31.2762
G01 X70.7594 Y31.1776
G01 X70.7488 Y31.0701
G01 X70.7488 Y30.3299
G01 X70.7594 Y30.2224
G01 X70.7893 Y30.1238
G01 X70.8379 Y30.0329
G01 X70.9033 Y29.9533
G01 X70.9829 Y29.8879
G01 X71.0738 Y29.8393
G01 X71.1724 Y29.8094
G01 X71.2799 Y29.7988
G01 X72.5201 Y29.7988
G01 X72.6276 Y29.8094
G01 X72.7262 Y29.8393
G01 X72.8171 Y29.8879
G01 X72.8967 Y29.9533
G01 X72.9621 Y30.0329
G01 X73.0107 Y30.1238
G01 X73.0406 Y30.2224
G01 X73.0512 Y30.3299
G01 X73.0512 Y31.0701
G01 X73.0406 Y31.1776
G01 X73.0185 Y31.2503
G01 X73.0165 Y31.2587
G01 X73.0151 Y31.2684
G01 X73.0146 Y31.2782
G01 X73.0149 Y31.2856
G01 X73.0165 Y31.2977
G01 X73.0189 Y31.3072
G01 X73.0213 Y31.3142
G01 X73.0270 Y31.3264
G01 X73.0314 Y31.3338
G01 X73.0358 Y31.3397
G01 X73.0439 Y31.3489
G01 X73.2818 Y31.5869
G01 X73.2882 Y31.5927
G01 X73.2987 Y31.6013
G01 X73.3424 Y31.6546
G01 X73.3749 Y31.7154
G01 X73.3949 Y31.7814
G01 X73.4017 Y31.8500
G01 X73.4000 Y31.8709
G01 X73.4000 Y31.9500
G01 X73.4008 Y31.9610
G01 X73.4019 Y31.9683
G01 X73.4036 Y31.9755
G01 X73.4081 Y31.9882
G01 X73.4118 Y31.9959
G01 X73.4168 Y32.0044
G01 X73.4227 Y32.0122
G01 X73.4276 Y32.0177
G01 X73.4375 Y32.0269
G01 X73.4444 Y32.0320
G01 X73.4518 Y32.0364
G01 X73.4640 Y32.0421
G01 X73.4710 Y32.0445
G01 X73.4805 Y32.0469
G01 X73.4902 Y32.0483
G01 X73.4975 Y32.0488
G01 X73.9451 Y32.0488
G01 X73.9794 Y32.0522
G01 X74.0077 Y32.0608
G01 X74.0337 Y32.0747
G01 X74.0566 Y32.0934
G01 X74.0753 Y32.1163
G01 X74.0892 Y32.1423
G01 X74.0978 Y32.1706
G01 X74.1012 Y32.2049
G01 X74.1012 Y34.2951
G01 X74.0978 Y34.3294
G01 X74.0892 Y34.3577
G01 X74.0753 Y34.3837
G01 X74.0566 Y34.4066
G01 X74.0337 Y34.4253
G01 X74.0077 Y34.4392
G01 X73.9794 Y34.4478
G01 X73.9525 Y34.4508
G01 X73.9394 Y34.4539
G01 X73.9314 Y34.4569
G01 X73.9225 Y34.4611
G01 X73.9141 Y34.4661
G01 X73.9062 Y34.4720
G01 X73.8981 Y34.4794
G01 X73.8908 Y34.4878
G01 X73.8865 Y34.4937
G01 X73.8826 Y34.5000
G01 X73.8772 Y34.5110
G01 X73.8733 Y34.5226
G01 X73.8715 Y34.5298
G01 X73.8704 Y34.5370
G01 X73.8696 Y34.5480
G01 X73.8701 Y34.5591
G01 X73.8718 Y34.5700
G01 X73.8747 Y34.5806
G01 X73.8772 Y34.5876
G01 X73.8803 Y34.5942
G01 X73.8865 Y34.6048
G01 X73.8931 Y34.6137
G01 X73.9007 Y34.6217
G01 X73.9062 Y34.6266
G01 X73.9121 Y34.6310
G01 X73.9214 Y34.6369
G01 X73.9302 Y34.6412
G01 X73.9383 Y34.6442
G01 X73.9513 Y34.6476
G01 X73.9598 Y34.6488
G01 X74.0382 Y34.6565
G01 X74.1230 Y34.6823
G01 X74.2012 Y34.7240
G01 X74.2697 Y34.7803
G01 X74.3260 Y34.8488
G01 X74.3677 Y34.9270
G01 X74.3935 Y35.0118
G01 X74.4026 Y35.1047
G01 X74.4017 Y35.3446
G01 X74.0000 Y35.7463
G01 X73.9999 Y35.0975
G01 X73.9990 Y35.0902
G01 X73.9971 Y35.0832
G01 X73.9941 Y35.0764
G01 X73.9902 Y35.0702
G01 X73.9854 Y35.0646
G01 X73.9798 Y35.0598
G01 X73.9736 Y35.0559
G01 X73.9668 Y35.0529
G01 X73.9585 Y35.0507
G01 X73.9500 Y35.0500
G01 X72.1488 Y35.0500
G01 X72.1415 Y35.0507
G01 X72.1343 Y35.0525
G01 X72.1275 Y35.0553
G01 X72.1212 Y35.0591
G01 X72.1155 Y35.0638
G01 X72.1106 Y35.0692
G01 X72.1059 Y35.0764
G01 X72.1029 Y35.0832
G01 X72.1007 Y35.0915
G01 X72.1000 Y35.1000
G01 X72.1000 Y37.2000
G01 X72.1005 Y37.2073
G01 X72.1022 Y37.2145
G01 X72.1048 Y37.2214
G01 X72.1091 Y37.2288
G01 X72.1138 Y37.2345
G01 X72.1192 Y37.2394
G01 X72.1254 Y37.2435
G01 X72.1332 Y37.2471
G01 X72.1402 Y37.2490
G01 X72.1475 Y37.2499
G01 X72.7500 Y37.2500
G01 X72.7500 Y37.5711
G01 X72.6558 Y37.6653
G01 X72.6493 Y37.6726
G01 X72.6429 Y37.6816
G01 X72.6391 Y37.6880
G01 X72.6359 Y37.6946
G01 X72.6324 Y37.7038
G01 X72.6295 Y37.7144
G01 X72.6281 Y37.7229
G01 X72.6273 Y37.7339
G01 X72.6277 Y37.7437
G01 X72.6293 Y37.7547
G01 X72.6316 Y37.7642
G01 X72.6349 Y37.7734
G01 X72.6386 Y37.7812
G01 X72.6456 Y37.7927
G01 X72.6500 Y37.7986
G01 X72.6566 Y37.8059
G01 X72.6639 Y37.8125
G01 X72.6708 Y37.8176
G01 X72.6802 Y37.8234
G01 X72.6902 Y37.8280
G01 X72.6983 Y37.8309
G01 X72.7262 Y37.8393
G01 X72.8171 Y37.8879
G01 X72.8967 Y37.9533
G01 X72.9621 Y38.0329
G01 X73.0107 Y38.1238
G01 X73.0406 Y38.2224
G01 X73.0512 Y38.3299
G01 X73.0512 Y39.0701
G01 X73.0406 Y39.1776
G01 X73.0107 Y39.2762
G01 X72.9621 Y39.3671
G01 X72.8967 Y39.4467
G01 X72.8171 Y39.5121
G01 X72.7262 Y39.5607
G01 X72.6276 Y39.5906
G01 X72.5201 Y39.6012
G01 X71.2799 Y39.6012
G01 X71.1724 Y39.5906
G01 X71.0738 Y39.5607
G01 X70.9829 Y39.5121
G01 X70.9033 Y39.4467
G01 X70.8379 Y39.3671
G01 X70.7893 Y39.2762
G01 X70.7594 Y39.1776
G01 X70.7488 Y39.0701
G01 X70.7488 Y38.3299
G01 X70.7594 Y38.2224
G01 X70.7815 Y38.1497
G01 X70.7835 Y38.1413
G01 X70.7849 Y38.1316
G01 X70.7854 Y38.1193
G01 X70.7849 Y38.1120
G01 X70.7835 Y38.1023
G01 X70.7804 Y38.0904
G01 X70.7778 Y38.0835
G01 X70.7736 Y38.0746
G01 X70.7686 Y38.0662
G01 X70.7642 Y38.0603
G01 X70.7561 Y38.0511
G01 X70.5182 Y37.8131
G01 X70.5118 Y37.8073
G01 X70.5013 Y37.7987
G01 X70.4576 Y37.7454
G01 X70.4251 Y37.6846
G01 X70.4051 Y37.6186
G01 X70.3983 Y37.5500
G01 X70.4000 Y37.5291
G01 X70.4000 Y37.4500
G01 X70.3992 Y37.4390
G01 X70.3981 Y37.4317
G01 X70.3964 Y37.4245
G01 X70.3919 Y37.4118
G01 X70.3882 Y37.4041
G01 X70.3832 Y37.3956
G01 X70.3773 Y37.3878
G01 X70.3724 Y37.3823
G01 X70.3625 Y37.3731
G01 X70.3556 Y37.3680
G01 X70.3482 Y37.3636
G01 X70.3360 Y37.3579
G01 X70.3290 Y37.3555
G01 X70.3195 Y37.3531
G01 X70.3098 Y37.3517
G01 X70.3025 Y37.3512
G01 X69.8549 Y37.3512
G01 X69.8206 Y37.3478
G01 X69.7923 Y37.3392
G01 X69.7663 Y37.3253
G01 X69.7434 Y37.3066
G01 X69.7247 Y37.2837
G01 X69.7108 Y37.2577
G01 X69.7022 Y37.2294
G01 X69.6988 Y37.1951
G01 X69.6988 Y35.1049
G01 X69.7022 Y35.0706
G01 X69.7108 Y35.0423
G01 X69.7247 Y35.0163
G01 X69.7434 Y34.9934
G01 X69.7663 Y34.9747
G01 X69.7923 Y34.9608
G01 X69.8206 Y34.9522
G01 X69.8475 Y34.9492
G01 X69.8606 Y34.9461
G01 X69.8686 Y34.9431
G01 X69.8775 Y34.9389
G01 X69.8859 Y34.9339
G01 X69.8938 Y34.9280
G01 X69.9028 Y34.9197
G01 X69.9077 Y34.9142
G01 X69.9121 Y34.9083
G01 X69.9180 Y34.8990
G01 X69.9228 Y34.8890
G01 X69.9264 Y34.8786
G01 X69.9289 Y34.8678
G01 X69.9299 Y34.8605
G01 X69.9303 Y34.8532
G01 X69.9301 Y34.8434
G01 X69.9285 Y34.8312
G01 X69.9257 Y34.8205
G01 X69.9228 Y34.8124
G01 X69.9197 Y34.8058
G01 X69.9135 Y34.7952
G01 X69.9061 Y34.7854
G01 X69.9011 Y34.7800
G01 X69.8957 Y34.7750
G01 X69.8859 Y34.7676
G01 X69.8764 Y34.7619
G01 X69.8686 Y34.7583
G01 X69.8617 Y34.7558
G01 X69.8487 Y34.7524
G01 X69.8402 Y34.7512
G01 X69.7618 Y34.7435
G01 X69.6770 Y34.7177
G01 X69.5988 Y34.6760
G01 X69.5303 Y34.6197
G01 X69.4740 Y34.5512
G01 X69.4323 Y34.4730
G01 X69.4065 Y34.3882
G01 X69.3974 Y34.2953
G01 X69.3999 Y33.6291
G01 X69.4789 Y33.5500
G01 X69.8000 Y33.5500
G01 X69.8000 Y34.3000
G00 Z1.0000
G00 X69.8000 Y34.2950
G01 F400.00
G01 Z-0.0400
G01 F2500.00
G01 X69.8000 Y34.3000
G01 X69.8005 Y34.3050
G01 X69.8000 Y34.3000
G00 Z1.0000
G00 X69.8500 Y35.0500
G01 F400.00
G01 Z-0.0400
G01 F2500.00
G01 X71.6500 Y35.0500
G01 X71.6561 Y35.0504
G01 X71.6621 Y35.0515
G01 X71.6680 Y35.0534
G01 X71.6736 Y35.0559
G01 X71.6788 Y35.0591
G01 X71.6836 Y35.0630
G01 X71.6879 Y35.0673
G01 X71.6916 Y35.0722
G01 X71.6952 Y35.0786
G01 X71.6978 Y35.0855
G01 X71.6995 Y35.0927
G01 X71.7000 Y35.1000
G01 X71.7000 Y37.2000
G01 X71.6995 Y37.2073
G01 X71.6978 Y37.2145
G01 X71.6947 Y37.2225
G01 X71.6909 Y37.2288
G01 X71.6862 Y37.2345
G01 X71.6808 Y37.2394
G01 X71.6746 Y37.2435
G01 X71.6668 Y37.2471
G01 X71.6598 Y37.2490
G01 X71.6525 Y37.2499
G01 X71.0001 Y37.2500
G01 X71.0001 Y37.4464
G01 X71.4537 Y37.9000
G01 X72.5250 Y37.9000
G01 X72.5667 Y37.9020
G01 X72.6079 Y37.9082
G01 X72.6484 Y37.9183
G01 X72.6876 Y37.9324
G01 X72.7253 Y37.9502
G01 X72.7611 Y37.9716
G01 X72.7946 Y37.9965
G01 X72.8255 Y38.0245
G01 X72.8519 Y38.0535
G01 X72.8797 Y38.0910
G01 X72.8998 Y38.1247
G01 X72.9176 Y38.1624
G01 X72.9324 Y38.2040
G01 X72.9418 Y38.2421
G01 X72.9480 Y38.2833
G01 X72.9500 Y38.3250
G01 X72.9500 Y39.0750
G01 X72.9481 Y39.1154
G01 X72.9418 Y39.1579
G01 X72.9317 Y39.1984
G01 X72.9176 Y39.2376
G01 X72.8986 Y39.2775
G01 X72.8770 Y39.3131
G01 X72.8535 Y39.3446
G01 X72.8272 Y39.3737
G01 X72.7946 Y39.4035
G01 X72.7611 Y39.4284
G01 X72.7253 Y39.4498
G01 X72.6899 Y39.4667
G01 X72.6484 Y39.4817
G01 X72.6055 Y39.4923
G01 X72.5667 Y39.4980
G01 X72.5275 Y39.4999
G01 X71.2750 Y39.5000
G01 X71.2346 Y39.4981
G01 X71.1921 Y39.4918
G01 X71.1516 Y39.4817
G01 X71.1124 Y39.4676
G01 X71.0725 Y39.4486
G01 X71.0369 Y39.4270
G01 X71.0054 Y39.4035
G01 X70.9763 Y39.3772
G01 X70.9465 Y39.3446
G01 X70.9216 Y39.3111
G01 X70.8991 Y39.2732
G01 X70.8824 Y39.2376
G01 X70.8691 Y39.2007
G01 X70.8582 Y39.1579
G01 X70.8519 Y39.1154
G01 X70.8500 Y39.0750
G01 X70.8500 Y38.3250
G01 X70.8520 Y38.2833
G01 X70.8577 Y38.2445
G01 X70.8687 Y38.2005
G01 X70.8824 Y38.1624
G01 X70.8996 Y38.1257
G01 X70.9210 Y38.0899
G01 X70.9274 Y38.0811
G01 X70.5723 Y37.7260
G01 X70.5567 Y37.7087
G01 X70.5435 Y37.6910
G01 X70.5289 Y37.6668
G01 X70.5189 Y37.6457
G01 X70.5107 Y37.6226
G01 X70.5047 Y37.5988
G01 X70.5010 Y37.5733
G01 X70.4999 Y37.5500
G01 X70.4999 Y37.2500
G01 X69.8475 Y37.2499
G01 X69.8390 Y37.2488
G01 X69.8320 Y37.2466
G01 X69.8243 Y37.2429
G01 X69.8183 Y37.2387
G01 X69.8130 Y37.2336
G01 X69.8078 Y37.2267
G01 X69.8043 Y37.2203
G01 X69.8015 Y37.2121
G01 X69.8004 Y37.2061
G01 X69.8000 Y37.2000
G01 X69.8000 Y35.0988
G01 X69.8012 Y35.0890
G01 X69.8043 Y35.0797
G01 X69.8084 Y35.0722
G01 X69.8146 Y35.0646
G01 X69.8222 Y35.0584
G01 X69.8309 Y35.0538
G01 X69.8402 Y35.0510
G01 X69.8500 Y35.0500
G00 Z1.0000
G00 X69.8450 Y35.0505
G01 F400.00
G01 Z-0.0400
G01 F2500.00
G01 X69.8500 Y35.0500
G01 X69.8550 Y35.0500
G01 X69.8500 Y35.0500
G00 Z1.0000
G00 X68.2499 Y36.4025
G01 F400.00
G01 Z-0.0400
G01 F2500.00
G01 X68.2449 Y36.5029
G01 X68.2298 Y36.6048
G01 X68.2048 Y36.7048
G01 X68.1701 Y36.8018
G01 X68.1260 Y36.8950
G01 X68.0730 Y36.9833
G01 X68.0117 Y37.0661
G01 X67.9425 Y37.1425
G01 X67.8661 Y37.2117
G01 X67.7833 Y37.2730
G01 X67.6950 Y37.3260
G01 X67.6018 Y37.3701
G01 X67.5048 Y37.4048
G01 X67.4048 Y37.4298
G01 X67.3029 Y37.4449
G01 X67.2000 Y37.4500
G01 X67.0971 Y37.4449
G01 X66.9952 Y37.4298
G01 X66.8952 Y37.4048
G01 X66.7982 Y37.3701
G01 X66.7050 Y37.3260
G01 X66.6167 Y37.2730
G01 X66.5339 Y37.2117
G01 X66.4575 Y37.1425
G01 X66.3883 Y37.0661
G01 X66.3270 Y36.9833
G01 X66.2740 Y36.8950
G01 X66.2299 Y36.8018
G01 X66.1952 Y36.7048
G01 X66.1702 Y36.6048
G01 X66.1551 Y36.5029
G01 X66.1500 Y36.4000
G01 X66.1551 Y36.2971
G01 X66.1702 Y36.1952
G01 X66.1952 Y36.0952
G01 X66.2299 Y35.9982
G01 X66.2740 Y35.9050
G01 X66.3270 Y35.8167
G01 X66.3883 Y35.7339
G01 X66.4575 Y35.6575
G01 X66.5339 Y35.5883
G01 X66.6167 Y35.5270
G01 X66.7050 Y35.4740
G01 X66.7982 Y35.4299
G01 X66.8952 Y35.3952
G01 X66.9952 Y35.3702
G01 X67.0971 Y35.3551
G01 X67.2000 Y35.3500
G01 X67.3029 Y35.3551
G01 X67.4048 Y35.3702
G01 X67.5048 Y35.3952
G01 X67.6018 Y35.4299
G01 X67.6950 Y35.4740
G01 X67.7833 Y35.5270
G01 X67.8661 Y35.5883
G01 X67.9425 Y35.6575
G01 X68.0117 Y35.7339
G01 X68.0730 Y35.8167
G01 X68.1260 Y35.9050
G01 X68.1701 Y35.9982
G01 X68.2048 Y36.0952
G01 X68.2298 Y36.1952
G01 X68.2449 Y36.2971
G01 X68.2499 Y36.4025
G00 Z1.0000
G00 X68.2497 Y36.3975
G01 F400.00
G01 Z-0.0400
G01 F2500.00
G01 X68.2499 Y36.4025
G01 X68.2497 Y36.4074
G01 X68.2499 Y36.4025
G00 Z1.0000
G00 X66.0500 Y36.5133
G01 F400.00
G01 Z-0.0400
G01 F2500.00
G01 X66.0500 Y36.2867
G01 X66.0942 Y36.0646
G01 X66.1809 Y35.8553
G01 X66.3068 Y35.6669
G01 X66.4669 Y35.5068
G01 X66.6553 Y35.3809
G01 X66.8646 Y35.2942
G01 X67.0867 Y35.2500
G01 X67.3133 Y35.2500
G01 X67.5354 Y35.2942
G01 X67.7447 Y35.3809
G01 X67.9331 Y35.5068
G01 X68.0932 Y35.6669
G01 X68.2191 Y35.8553
G01 X68.3058 Y36.0646
G01 X68.3500 Y36.2867
G01 X68.3500 Y36.5133
G01 X68.3058 Y36.7354
G01 X68.2191 Y36.9447
G01 X68.0932 Y37.1331
G01 X67.9331 Y37.2932
G01 X67.7447 Y37.4191
G01 X67.5354 Y37.5058
G01 X67.3133 Y37.5500
G01 X67.0867 Y37.5500
G01 X66.8646 Y37.5058
G01 X66.6553 Y37.4191
G01 X66.4669 Y37.2932
G01 X66.3068 Y37.1331
G01 X66.1809 Y36.9447
G01 X66.0942 Y36.7354
G01 X66.0500 Y36.5133
G00 Z1.0000
G00 X66.0510 Y36.5182
G01 F400.00
G01 Z-0.0400
G01 F2500.00
G01 X66.0500 Y36.5133
G01 X66.0500 Y36.5083
G01 X66.0500 Y36.5133
G00 Z1.0000
G00 X67.0500 Y39.5000
G01 F400.00
G01 Z-0.0400
G01 F2500.00
G01 X66.7289 Y39.5000
G01 X66.6498 Y39.4208
G01 X66.6474 Y39.0546
G01 X66.6565 Y38.9618
G01 X66.6823 Y38.8770
G01 X66.7240 Y38.7988
G01 X66.7803 Y38.7303
G01 X66.8488 Y38.6740
G01 X66.9270 Y38.6323
G01 X67.0118 Y38.6065
G01 X67.1047 Y38.5974
G01 X67.7209 Y38.5999
G01 X67.8000 Y38.6789
G01 X67.8000 Y39.0000
G01 X67.4750 Y39.0000
G01 X67.4321 Y39.0022
G01 X67.3897 Y39.0087
G01 X67.3516 Y39.0183
G01 X67.3146 Y39.0315
G01 X67.2747 Y39.0502
G01 X67.2389 Y39.0716
G01 X67.2054 Y39.0965
G01 X67.1763 Y39.1228
G01 X67.1465 Y39.1554
G01 X67.1203 Y39.1910
G01 X67.1002 Y39.2247
G01 X67.0828 Y39.2612
G01 X67.0676 Y39.3040
G01 X67.0582 Y39.3421
G01 X67.0523 Y39.3809
G01 X67.0500 Y39.4238
G01 X67.0500 Y39.5000
G00 Z1.0000
G00 X67.0500 Y39.4950
G01 F400.00
G01 Z-0.0400
G01 F2500.00
G01 X67.0500 Y39.5000
G01 X67.0450 Y39.5000
G01 X67.0500 Y39.5000
G00 Z1.0000
G00 X67.0500 Y40.1000
G01 F400.00
G01 Z-0.0400
G01 F2500.00
G01 X67.0500 Y40.1762
G01 X67.0523 Y40.2191
G01 X67.0582 Y40.2579
G01 X67.0676 Y40.2960
G01 X67.0828 Y40.3388
G01 X67.1002 Y40.3753
G01 X67.1203 Y40.4090
G01 X67.1465 Y40.4446
G01 X67.1763 Y40.4772
G01 X67.2054 Y40.5035
G01 X67.2389 Y40.5284
G01 X67.2747 Y40.5498
G01 X67.3146 Y40.5685
G01 X67.3516 Y40.5817
G01 X67.3897 Y40.5913
G01 X67.4321 Y40.5978
G01 X67.4750 Y40.6000
G01 X67.8000 Y40.6000
G01 X67.8000 Y40.9211
G01 X67.7209 Y41.0001
G01 X67.1047 Y41.0026
G01 X67.0118 Y40.9935
G01 X66.9270 Y40.9677
G01 X66.8488 Y40.9260
G01 X66.7803 Y40.8697
G01 X66.7240 Y40.8012
G01 X66.6823 Y40.7230
G01 X66.6565 Y40.6382
G01 X66.6474 Y40.5454
G01 X66.6498 Y40.1792
G01 X66.7289 Y40.1000
G01 X67.0500 Y40.1000
G00 Z1.0000
G00 X67.0450 Y40.1000
G01 F400.00
G01 Z-0.0400
G01 F2500.00
G01 X67.0500 Y40.1000
G01 X67.0500 Y40.1050
G01 X67.0500 Y40.1000
G00 Z1.0000
G00 X69.1500 Y40.1000
G01 F400.00
G01 Z-0.0400
G01 F2500.00
G01 X69.4711 Y40.1000
G01 X69.5502 Y40.1792
G01 X69.5526 Y40.5454
G01 X69.5435 Y40.6382
G01 X69.5177 Y40.7230
G01 X69.4760 Y40.8012
G01 X69.4197 Y40.8697
G01 X69.3512 Y40.9260
G01 X69.2730 Y40.9677
G01 X69.1882 Y40.9935
G01 X69.0953 Y41.0026
G01 X68.4791 Y41.0001
G01 X68.4000 Y40.9211
G01 X68.4000 Y40.6000
G01 X68.7250 Y40.6000
G01 X68.7679 Y40.5978
G01 X68.8103 Y40.5913
G01 X68.8484 Y40.5817
G01 X68.8854 Y40.5685
G01 X68.9253 Y40.5498
G01 X68.9611 Y40.5284
G01 X68.9946 Y40.5035
G01 X69.0237 Y40.4772
G01 X69.0535 Y40.4446
G01 X69.0797 Y40.4090
G01 X69.0998 Y40.3753
G01 X69.1172 Y40.3388
G01 X69.1324 Y40.2960
G01 X69.1418 Y40.2579
G01 X69.1477 Y40.2191
G01 X69.1500 Y40.1762
G01 X69.1500 Y40.1000
G00 Z1.0000
G00 X69.1500 Y40.1050
G01 F400.00
G01 Z-0.0400
G01 F2500.00
G01 X69.1500 Y40.1000
G01 X69.1550 Y40.1000
G01 X69.1500 Y40.1000
G00 Z1.0000
G00 X69.1500 Y39.5000
G01 F400.00
G01 Z-0.0400
G01 F2500.00
G01 X69.1500 Y39.4238
G01 X69.1477 Y39.3809
G01 X69.1418 Y39.3421
G01 X69.1324 Y39.3040
G01 X69.1172 Y39.2612
G01 X69.0998 Y39.2247
G01 X69.0797 Y39.1910
G01 X69.0535 Y39.1554
G01 X69.0237 Y39.1228
G01 X68.9946 Y39.0965
G01 X68.9611 Y39.0716
G01 X68.9253 Y39.0502
G01 X68.8854 Y39.0315
G01 X68.8484 Y39.0183
G01 X68.8103 Y39.0087
G01 X68.7679 Y39.0022
G01 X68.7250 Y39.0000
G01 X68.4000 Y39.0000
G01 X68.4000 Y38.6789
G01 X68.4791 Y38.5999
G01 X69.0953 Y38.5974
G01 X69.1882 Y38.6065
G01 X69.2730 Y38.6323
G01 X69.3512 Y38.6740
G01 X69.4197 Y38.7303
G01 X69.4760 Y38.7988
G01 X69.5177 Y38.8770
G01 X69.5435 Y38.9618
G01 X69.5526 Y39.0546
G01 X69.5502 Y39.4208
G01 X69.4711 Y39.5000
G01 X69.1500 Y39.5000
G00 Z1.0000
G00 X69.1550 Y39.5000
G01 F400.00
G01 Z-0.0400
G01 F2500.00
G01 X69.1500 Y39.5000
G01 X69.1500 Y39.4950
G01 X69.1500 Y39.5000
G00 Z1.0000
G00 X67.4500 Y42.4000
G01 F400.00
G01 Z-0.0400
G01 F2500.00
G01 X67.4500 Y42.3238
G01 X67.4477 Y42.2809
G01 X67.4418 Y42.2421
G01 X67.4324 Y42.2040
G01 X67.4172 Y42.1612
G01 X67.3998 Y42.1247
G01 X67.3797 Y42.0910
G01 X67.3535 Y42.0554
G01 X67.3237 Y42.0228
G01 X67.2946 Y41.9965
G01 X67.2611 Y41.9716
G01 X67.2253 Y41.9502
G01 X67.1854 Y41.9315
G01 X67.1484 Y41.9183
G01 X67.1103 Y41.9087
G01 X67.0679 Y41.9022
G01 X67.0250 Y41.9000
G01 X66.7000 Y41.9000
G01 X66.7000 Y41.5789
G01 X66.7791 Y41.4999
G01 X67.3953 Y41.4974
G01 X67.4882 Y41.5065
G01 X67.5730 Y41.5323
G01 X67.6512 Y41.5740
G01 X67.7197 Y41.6303
G01 X67.7760 Y41.6988
G01 X67.8177 Y41.7770
G01 X67.8435 Y41.8618
G01 X67.8526 Y41.9546
G01 X67.8502 Y42.3208
G01 X67.7711 Y42.4000
G01 X67.4500 Y42.4000
G00 Z1.0000
G00 X67.4550 Y42.4000
G01 F400.00
G01 Z-0.0400
G01 F2500.00
G01 X67.4500 Y42.4000
G01 X67.4500 Y42.3950
G01 X67.4500 Y42.4000
G00 Z1.0000
G00 X67.4500 Y43.0000
G01 F400.00
G01 Z-0.0400
G01 F2500.00
G01 X67.7711 Y43.0000
G01 X67.8502 Y43.0792
G01 X67.8526 Y43.4454
G01 X67.8435 Y43.5382
G01 X67.8177 Y43.6230
G01 X67.7760 Y43.7012
G01 X67.7197 Y43.7697
G01 X67.6512 Y43.8260
G01 X67.5730 Y43.8677
G01 X67.4882 Y43.8935
G01 X67.3953 Y43.9026
G01 X66.7791 Y43.9001
G01 X66.7000 Y43.8211
G01 X66.7000 Y43.5000
G01 X67.0250 Y43.5000
G01 X67.0679 Y43.4978
G01 X67.1103 Y43.4913
G01 X67.1484 Y43.4817
G01 X67.1854 Y43.4685
G01 X67.2253 Y43.4498
G01 X67.2611 Y43.4284
G01 X67.2946 Y43.4035
G01 X67.3237 Y43.3772
G01 X67.3535 Y43.3446
G01 X67.3797 Y43.3090
G01 X67.3998 Y43.2753
G01 X67.4172 Y43.2388
G01 X67.4324 Y43.1960
G01 X67.4418 Y43.1579
G01 X67.4477 Y43.1191
G01 X67.4500 Y43.0762
G01 X67.4500 Y43.0000
G00 Z1.0000
G00 X67.4500 Y43.0050
G01 F400.00
G01 Z-0.0400
G01 F2500.00
G01 X67.4500 Y43.0000
G01 X67.4550 Y43.0000
G01 X67.4500 Y43.0000
G00 Z1.0000
G00 X65.3500 Y43.0000
G01 F400.00
G01 Z-0.0400
G01 F2500.00
G01 X65.3500 Y43.0762
G01 X65.3523 Y43.1191
G01 X65.3582 Y43.1579
G01 X65.3676 Y43.1960
G01 X65.3828 Y43.2388
G01 X65.4002 Y43.2753
G01 X65.4203 Y43.3090
G01 X65.4465 Y43.3446
G01 X65.4763 Y43.3772
G01 X65.5054 Y43.4035
G01 X65.5389 Y43.4284
G01 X65.5747 Y43.4498
G01 X65.6146 Y43.4685
G01 X65.6516 Y43.4817
G01 X65.6897 Y43.4913
G01 X65.7321 Y43.4978
G01 X65.7750 Y43.5000
G01 X66.1000 Y43.5000
G01 X66.1000 Y43.8211
G01 X66.0209 Y43.9001
G01 X65.4047 Y43.9026
G01 X65.3118 Y43.8935
G01 X65.2270 Y43.8677
G01 X65.1488 Y43.8260
G01 X65.0803 Y43.7697
G01 X65.0240 Y43.7012
G01 X64.9823 Y43.6230
G01 X64.9565 Y43.5382
G01 X64.9474 Y43.4454
G01 X64.9498 Y43.0792
G01 X65.0289 Y43.0000
G01 X65.3500 Y43.0000
G00 Z1.0000
G00 X65.3450 Y43.0000
G01 F400.00
G01 Z-0.0400
G01 F2500.00
G01 X65.3500 Y43.0000
G01 X65.3500 Y43.0050
G01 X65.3500 Y43.0000
G00 Z1.0000
G00 X65.3500 Y42.4000
G01 F400.00
G01 Z-0.0400
G01 F2500.00
G01 X65.0289 Y42.4000
G01 X64.9498 Y42.3208
G01 X64.9474 Y41.9546
G01 X64.9565 Y41.8618
G01 X64.9823 Y41.7770
G01 X65.0240 Y41.6988
G01 X65.0803 Y41.6303
G01 X65.1488 Y41.5740
G01 X65.2270 Y41.5323
G01 X65.3118 Y41.5065
G01 X65.4047 Y41.4974
G01 X66.0209 Y41.4999
G01 X66.1000 Y41.5789
G01 X66.1000 Y41.9000
G01 X65.7750 Y41.9000
G01 X65.7321 Y41.9022
G01 X65.6897 Y41.9087
G01 X65.6516 Y41.9183
G01 X65.6146 Y41.9315
G01 X65.5747 Y41.9502
G01 X65.5389 Y41.9716
G01 X65.5054 Y41.9965
G01 X65.4763 Y42.0228
G01 X65.4465 Y42.0554
G01 X65.4203 Y42.0910
G01 X65.4002 Y42.1247
G01 X65.3828 Y42.1612
G01 X65.3676 Y42.2040
G01 X65.3582 Y42.2421
G01 X65.3523 Y42.2809
G01 X65.3500 Y42.3238
G01 X65.3500 Y42.4000
G00 Z1.0000
G00 X65.3500 Y42.3950
G01 F400.00
G01 Z-0.0400
G01 F2500.00
G01 X65.3500 Y42.4000
G01 X65.3450 Y42.4000
G01 X65.3500 Y42.4000
G00 Z1.0000
G00 X63.2000 Y41.0074
G01 F400.00
G01 Z-0.0400
G01 F2500.00
G01 X63.2455 Y40.9910
G01 X63.3232 Y40.9543
G01 X63.3990 Y40.9090
G01 X63.4710 Y40.8557
G01 X63.5364 Y40.7964
G01 X63.5957 Y40.7310
G01 X63.6490 Y40.6590
G01 X63.6943 Y40.5832
G01 X63.7310 Y40.5055
G01 X63.7474 Y40.4600
G01 X64.0803 Y40.4600
G01 X64.1289 Y40.5747
G01 X64.0498 Y40.7656
G01 X63.9094 Y40.9785
G01 X63.7303 Y41.1596
G01 X63.5193 Y41.3024
G01 X63.3141 Y41.3889
G01 X63.2000 Y41.3414
G01 X63.2000 Y41.0074
G00 Z1.0000
G00 X63.2000 Y41.0124
G01 F400.00
G01 Z-0.0400
G01 F2500.00
G01 X63.2000 Y41.0074
G01 X63.2047 Y41.0057
G01 X63.2000 Y41.0074
G00 Z1.0000
G00 X63.7474 Y39.8600
G01 F400.00
G01 Z-0.0400
G01 F2500.00
G01 X63.7310 Y39.8145
G01 X63.6943 Y39.7368
G01 X63.6490 Y39.6610
G01 X63.5957 Y39.5890
G01 X63.5364 Y39.5236
G01 X63.4710 Y39.4643
G01 X63.3990 Y39.4110
G01 X63.3232 Y39.3657
G01 X63.2455 Y39.3290
G01 X63.2000 Y39.3126
G01 X63.2000 Y38.9786
G01 X63.3141 Y38.9311
G01 X63.5193 Y39.0176
G01 X63.7303 Y39.1604
G01 X63.9094 Y39.3415
G01 X64.0498 Y39.5544
G01 X64.1289 Y39.7453
G01 X64.0803 Y39.8600
G01 X63.7474 Y39.8600
G00 Z1.0000
G00 X63.7524 Y39.8600
G01 F400.00
G01 Z-0.0400
G01 F2500.00
G01 X63.7474 Y39.8600
G01 X63.7457 Y39.8553
G01 X63.7474 Y39.8600
G00 Z1.0000
G00 X62.0500 Y41.8000
G01 F400.00
G01 Z-0.0400
G01 F2500.00
G01 X63.7500 Y41.8000
G01 X63.7598 Y41.8010
G01 X63.7691 Y41.8038
G01 X63.7736 Y41.8059
G01 X63.7788 Y41.8091
G01 X63.7862 Y41.8155
G01 X63.7922 Y41.8233
G01 X63.7966 Y41.8320
G01 X63.7990 Y41.8402
G01 X63.8000 Y41.8500
G01 X63.8000 Y43.5500
G01 X63.7990 Y43.5598
G01 X63.7962 Y43.5691
G01 X63.7941 Y43.5736
G01 X63.7909 Y43.5788
G01 X63.7845 Y43.5862
G01 X63.7767 Y43.5922
G01 X63.7680 Y43.5966
G01 X63.7598 Y43.5990
G01 X63.7500 Y43.6000
G01 X62.0500 Y43.6000
G01 X62.0402 Y43.5990
G01 X62.0309 Y43.5962
G01 X62.0254 Y43.5935
G01 X62.0212 Y43.5909
G01 X62.0138 Y43.5845
G01 X62.0078 Y43.5767
G01 X62.0038 Y43.5691
G01 X62.0010 Y43.5598
G01 X62.0000 Y43.5500
G01 X62.0000 Y41.8488
G01 X62.0010 Y41.8402
G01 X62.0038 Y41.8309
G01 X62.0084 Y41.8222
G01 X62.0146 Y41.8146
G01 X62.0222 Y41.8084
G01 X62.0309 Y41.8038
G01 X62.0402 Y41.8010
G01 X62.0500 Y41.8000
G00 Z1.0000
G00 X62.0450 Y41.8005
G01 F400.00
G01 Z-0.0400
G01 F2500.00
G01 X62.0500 Y41.8000
G01 X62.0550 Y41.8000
G01 X62.0500 Y41.8000
G00 Z1.0000
G00 X60.9499 Y44.1500
G01 F400.00
G01 Z-0.0400
G01 F2500.00
G01 X60.9499 Y37.8000
G01 X60.9515 Y37.7657
G01 X60.9562 Y37.7341
G01 X60.9657 Y37.6960
G01 X60.9765 Y37.6660
G01 X60.9901 Y37.6371
G01 X61.0089 Y37.6055
G01 X61.0309 Y37.5760
G01 X61.0524 Y37.5524
G01 X61.7533 Y36.8515
G01 X61.7295 Y36.8007
G01 X61.6949 Y36.7036
G01 X61.6702 Y36.6048
G01 X61.6550 Y36.5017
G01 X61.6500 Y36.4000
G01 X61.6551 Y36.2971
G01 X61.6702 Y36.1952
G01 X61.6960 Y36.0929
G01 X61.7299 Y35.9982
G01 X61.7740 Y35.9050
G01 X61.8270 Y35.8167
G01 X61.8891 Y35.7329
G01 X61.9575 Y35.6575
G01 X62.0348 Y35.5876
G01 X62.1177 Y35.5263
G01 X62.2040 Y35.4746
G01 X62.2499 Y35.4527
G01 X62.2498 Y30.8473
G01 X62.2040 Y30.8254
G01 X62.1177 Y30.7737
G01 X62.0329 Y30.7109
G01 X61.9575 Y30.6425
G01 X61.8899 Y30.5680
G01 X61.8263 Y30.4823
G01 X61.7740 Y30.3950
G01 X61.7309 Y30.3041
G01 X61.6952 Y30.2048
G01 X61.6698 Y30.1024
G01 X61.6551 Y30.0029
G01 X61.6500 Y29.9012
G01 X61.6551 Y29.7971
G01 X61.6702 Y29.6952
G01 X61.6952 Y29.5952
G01 X61.7309 Y29.4959
G01 X61.7752 Y29.4029
G01 X61.8270 Y29.3167
G01 X61.8868 Y29.2358
G01 X61.9575 Y29.1575
G01 X62.0348 Y29.0876
G01 X62.1187 Y29.0256
G01 X62.2050 Y28.9740
G01 X62.2926 Y28.9325
G01 X62.3089 Y28.9055
G01 X62.3278 Y28.8798
G01 X62.3507 Y28.8542
G01 X62.3779 Y28.8293
G01 X62.4065 Y28.8082
G01 X62.4349 Y28.7912
G01 X62.4683 Y28.7756
G01 X62.4984 Y28.7649
G01 X62.5293 Y28.7571
G01 X62.5645 Y28.7517
G01 X62.6000 Y28.7499
G01 X62.6343 Y28.7515
G01 X62.6683 Y28.7566
G01 X62.7028 Y28.7653
G01 X62.7340 Y28.7765
G01 X62.7629 Y28.7901
G01 X62.7935 Y28.8082
G01 X62.8231 Y28.8301
G01 X62.8467 Y28.8515
G01 X62.8573 Y28.8631
G01 X62.9060 Y28.8704
G01 X63.0048 Y28.8952
G01 X63.1007 Y28.9295
G01 X63.1515 Y28.9533
G01 X64.0524 Y28.0524
G01 X64.0769 Y28.0301
G01 X64.1055 Y28.0089
G01 X64.1328 Y27.9924
G01 X64.1683 Y27.9756
G01 X64.1984 Y27.9649
G01 X64.2317 Y27.9566
G01 X64.2657 Y27.9515
G01 X64.2975 Y27.9499
G01 X80.7512 Y27.9499
G01 X80.7843 Y27.9515
G01 X80.8159 Y27.9562
G01 X80.8516 Y27.9649
G01 X80.8840 Y27.9765
G01 X80.9129 Y27.9901
G01 X80.9465 Y28.0103
G01 X80.9721 Y28.0293
G01 X80.9976 Y28.0524
G01 X81.2476 Y28.3024
G01 X81.2714 Y28.3288
G01 X81.2911 Y28.3555
G01 X81.3076 Y28.3828
G01 X81.3235 Y28.4160
G01 X81.3357 Y28.4507
G01 X81.3434 Y28.4817
G01 X81.3485 Y28.5157
G01 X81.3501 Y28.5500
G01 X81.3502 Y29.1000
G01 X81.6250 Y29.1000
G01 X81.6667 Y29.1020
G01 X81.7079 Y29.1082
G01 X81.7484 Y29.1183
G01 X81.7876 Y29.1324
G01 X81.8243 Y29.1496
G01 X81.8611 Y29.1716
G01 X81.8965 Y29.1981
G01 X81.9272 Y29.2263
G01 X81.9535 Y29.2554
G01 X81.9770 Y29.2869
G01 X81.9998 Y29.3247
G01 X82.0176 Y29.3624
G01 X82.0317 Y29.4016
G01 X82.0421 Y29.4433
G01 X82.0480 Y29.4833
G01 X82.0500 Y29.5250
G01 X82.0500 Y30.2750
G01 X82.0477 Y30.3191
G01 X82.0418 Y30.3579
G01 X82.0320 Y30.3972
G01 X82.0167 Y30.4399
G01 X81.9998 Y30.4753
G01 X81.9797 Y30.5090
G01 X81.9535 Y30.5446
G01 X81.9237 Y30.5772
G01 X81.8946 Y30.6035
G01 X81.8631 Y30.6270
G01 X81.8253 Y30.6498
G01 X81.7876 Y30.6676
G01 X81.7507 Y30.6809
G01 X81.7067 Y30.6921
G01 X81.6667 Y30.6980
G01 X81.6250 Y30.7000
G01 X80.3750 Y30.7000
G01 X80.3321 Y30.6978
G01 X80.2897 Y30.6913
G01 X80.2516 Y30.6817
G01 X80.2146 Y30.6685
G01 X80.1747 Y30.6498
G01 X80.1389 Y30.6284
G01 X80.1054 Y30.6035
G01 X80.0728 Y30.5737
G01 X80.0465 Y30.5446
G01 X80.0230 Y30.5131
G01 X80.0002 Y30.4753
G01 X79.9824 Y30.4376
G01 X79.9676 Y30.3960
G01 X79.9582 Y30.3579
G01 X79.9523 Y30.3191
G01 X79.9500 Y30.2762
G01 X79.9500 Y29.5238
G01 X79.9520 Y29.4833
G01 X79.9577 Y29.4445
G01 X79.9687 Y29.4005
G01 X79.9824 Y29.3624
G01 X80.0014 Y29.3225
G01 X80.0230 Y29.2869
G01 X80.0465 Y29.2554
G01 X80.0728 Y29.2263
G01 X80.1054 Y29.1965
G01 X80.1389 Y29.1716
G01 X80.1747 Y29.1502
G01 X80.2112 Y29.1328
G01 X80.2540 Y29.1176
G01 X80.2921 Y29.1082
G01 X80.3346 Y29.1019
G01 X80.3750 Y29.1000
G01 X80.6499 Y29.1000
G01 X80.6498 Y28.6950
G01 X80.6050 Y28.6501
G01 X64.4450 Y28.6502
G01 X63.6467 Y29.4485
G01 X63.6705 Y29.4993
G01 X63.7044 Y29.5940
G01 X63.7300 Y29.6964
G01 X63.7449 Y29.7971
G01 X63.7499 Y29.8975
G01 X63.7450 Y30.0017
G01 X63.7298 Y30.1048
G01 X63.7040 Y30.2071
G01 X63.6701 Y30.3018
G01 X63.6271 Y30.3928
G01 X63.5730 Y30.4833
G01 X63.5117 Y30.5661
G01 X63.4425 Y30.6425
G01 X63.3661 Y30.7117
G01 X63.2844 Y30.7723
G01 X63.1950 Y30.8260
G01 X63.1029 Y30.8696
G01 X63.0060 Y30.9044
G01 X62.9501 Y30.9185
G01 X62.9502 Y35.3815
G01 X63.0060 Y35.3956
G01 X63.1007 Y35.4295
G01 X63.1939 Y35.4734
G01 X63.2833 Y35.5270
G01 X63.3652 Y35.5876
G01 X63.4425 Y35.6575
G01 X63.5117 Y35.7339
G01 X63.5730 Y35.8167
G01 X63.6254 Y35.9040
G01 X63.6701 Y35.9982
G01 X63.7048 Y36.0952
G01 X63.7298 Y36.1952
G01 X63.7449 Y36.2971
G01 X63.7500 Y36.4000
G01 X63.7449 Y36.5029
G01 X63.7298 Y36.6048
G01 X63.7048 Y36.7048
G01 X63.6701 Y36.8018
G01 X63.6260 Y36.8950
G01 X63.5730 Y36.9833
G01 X63.5132 Y37.0642
G01 X63.4407 Y37.1442
G01 X63.3661 Y37.2117
G01 X63.2813 Y37.2744
G01 X63.1928 Y37.3271
G01 X63.1018 Y37.3701
G01 X63.0071 Y37.4040
G01 X62.9048 Y37.4298
G01 X62.8017 Y37.4450
G01 X62.7000 Y37.4500
G01 X62.5995 Y37.4451
G01 X62.4964 Y37.4300
G01 X62.3940 Y37.4044
G01 X62.2993 Y37.3705
G01 X62.2485 Y37.3467
G01 X61.6501 Y37.9450
G01 X61.6502 Y44.0050
G01 X62.9000 Y45.2548
G01 X63.7024 Y44.4524
G01 X63.7260 Y44.4309
G01 X63.7575 Y44.4075
G01 X63.7849 Y44.3912
G01 X63.8160 Y44.3765
G01 X63.8507 Y44.3643
G01 X63.8817 Y44.3566
G01 X63.9157 Y44.3515
G01 X63.9500 Y44.3499
G01 X72.5550 Y44.3498
G01 X74.4445 Y42.4604
G01 X74.4341 Y42.4310
G01 X74.4151 Y42.3549
G01 X74.4039 Y42.2784
G01 X74.4000 Y42.1988
G01 X74.4039 Y42.1216
G01 X74.4154 Y42.0439
G01 X74.4344 Y41.9678
G01 X74.4604 Y41.8950
G01 X74.4945 Y41.8229
G01 X74.5335 Y41.7576
G01 X74.5832 Y41.6906
G01 X74.6343 Y41.6343
G01 X74.6925 Y41.5816
G01 X74.7555 Y41.5348
G01 X74.8218 Y41.4951
G01 X74.8961 Y41.4600
G01 X74.9678 Y41.4344
G01 X75.0439 Y41.4154
G01 X75.1240 Y41.4037
G01 X75.2000 Y41.4000
G01 X75.2760 Y41.4037
G01 X75.3585 Y41.4159
G01 X75.4322 Y41.4344
G01 X75.5039 Y41.4600
G01 X75.5771 Y41.4945
G01 X75.6465 Y41.5362
G01 X75.7075 Y41.5816
G01 X75.7639 Y41.6326
G01 X75.8184 Y41.6925
G01 X75.8652 Y41.7555
G01 X75.9043 Y41.8207
G01 X75.9391 Y41.8939
G01 X75.9662 Y41.9701
G01 X75.9846 Y42.0439
G01 X75.9961 Y42.1216
G01 X76.0000 Y42.2000
G01 X75.9963 Y42.2760
G01 X75.9844 Y42.3573
G01 X75.9656 Y42.4322
G01 X75.9381 Y42.5084
G01 X75.9043 Y42.5793
G01 X75.8652 Y42.6445
G01 X75.8199 Y42.7056
G01 X75.7657 Y42.7657
G01 X75.7075 Y42.8184
G01 X75.6445 Y42.8652
G01 X75.5782 Y42.9049
G01 X75.5061 Y42.9391
G01 X75.4322 Y42.9656
G01 X75.3561 Y42.9846
G01 X75.2772 Y42.9963
G01 X75.2000 Y43.0000
G01 X75.1204 Y42.9960
G01 X75.0427 Y42.9844
G01 X74.9690 Y42.9659
G01 X74.9396 Y42.9555
G01 X72.9467 Y44.9485
G01 X72.9221 Y44.9707
G01 X72.8965 Y44.9897
G01 X72.8651 Y45.0088
G01 X72.8317 Y45.0244
G01 X72.8016 Y45.0351
G01 X72.7695 Y45.0432
G01 X72.7343 Y45.0485
G01 X72.7000 Y45.0501
G01 X64.0950 Y45.0502
G01 X63.2501 Y45.8950
G01 X63.2502 Y46.3000
G01 X63.7537 Y46.3001
G01 X63.7610 Y46.3012
G01 X63.7691 Y46.3038
G01 X63.7767 Y46.3078
G01 X63.7827 Y46.3121
G01 X63.7887 Y46.3183
G01 X63.7929 Y46.3243
G01 X63.7962 Y46.3309
G01 X63.7988 Y46.3390
G01 X63.7996 Y46.3439
G01 X63.8000 Y46.3500
G01 X63.8000 Y48.0512
G01 X63.7988 Y48.0610
G01 X63.7962 Y48.0691
G01 X63.7922 Y48.0767
G01 X63.7870 Y48.0836
G01 X63.7798 Y48.0902
G01 X63.7725 Y48.0947
G01 X63.7645 Y48.0978
G01 X63.7561 Y48.0996
G01 X63.7500 Y48.1000
G01 X62.0500 Y48.1000
G01 X62.0451 Y48.0998
G01 X62.0390 Y48.0988
G01 X62.0332 Y48.0971
G01 X62.0275 Y48.0947
G01 X62.0222 Y48.0916
G01 X62.0173 Y48.0879
G01 X62.0130 Y48.0836
G01 X62.0091 Y48.0788
G01 X62.0053 Y48.0725
G01 X62.0022 Y48.0645
G01 X62.0005 Y48.0573
G01 X62.0000 Y48.0500
G01 X62.0000 Y46.3500
G01 X62.0004 Y46.3439
G01 X62.0015 Y46.3379
G01 X62.0038 Y46.3309
G01 X62.0078 Y46.3233
G01 X62.0121 Y46.3173
G01 X62.0173 Y46.3121
G01 X62.0243 Y46.3071
G01 X62.0309 Y46.3038
G01 X62.0379 Y46.3015
G01 X62.0463 Y46.3001
G01 X62.5499 Y46.3000
G01 X62.5498 Y45.8950
G01 X61.0507 Y44.3958
G01 X61.0293 Y44.3721
G01 X61.0089 Y44.3445
G01 X60.9912 Y44.3151
G01 X60.9765 Y44.2840
G01 X60.9649 Y44.2516
G01 X60.9566 Y44.2183
G01 X60.9515 Y44.1843
G01 X60.9499 Y44.1500
G00 Z1.0000
G00 X60.9501 Y44.1550
G01 F400.00
G01 Z-0.0400
G01 F2500.00
G01 X60.9499 Y44.1500
G01 X60.9499 Y44.1450
G01 X60.9499 Y44.1500
G00 Z1.0000
G00 X60.8495 Y44.1673
G01 F400.00
G01 Z-0.0400
G01 F2500.00
G01 X60.8478 Y44.1500
G01 X60.8496 Y44.1316
G01 X60.8500 Y44.1230
G01 X60.8500 Y37.8270
G01 X60.8496 Y37.8184
G01 X60.8478 Y37.8000
G01 X60.8565 Y37.7118
G01 X60.8823 Y37.6270
G01 X60.9240 Y37.5488
G01 X60.9803 Y37.4803
G01 X60.9946 Y37.4685
G01 X61.0009 Y37.4627
G01 X61.5862 Y36.8774
G01 X61.5943 Y36.8682
G01 X61.5986 Y36.8623
G01 X61.6037 Y36.8539
G01 X61.6079 Y36.8450
G01 X61.6108 Y36.8369
G01 X61.6140 Y36.8238
G01 X61.6150 Y36.8165
G01 X61.6155 Y36.8067
G01 X61.6150 Y36.7969
G01 X61.6140 Y36.7896
G01 X61.6115 Y36.7789
G01 X61.6088 Y36.7707
G01 X61.5942 Y36.7354
G01 X61.5500 Y36.5133
G01 X61.5500 Y36.2867
G01 X61.5942 Y36.0646
G01 X61.6809 Y35.8553
G01 X61.8068 Y35.6669
G01 X61.9669 Y35.5068
G01 X62.1056 Y35.4141
G01 X62.1135 Y35.4083
G01 X62.1199 Y35.4025
G01 X62.1273 Y35.3944
G01 X62.1325 Y35.3875
G01 X62.1376 Y35.3792
G01 X62.1414 Y35.3715
G01 X62.1464 Y35.3576
G01 X62.1483 Y35.3493
G01 X62.1496 Y35.3395
G01 X62.1500 Y35.3310
G01 X62.1500 Y30.9690
G01 X62.1494 Y30.9580
G01 X62.1481 Y30.9495
G01 X62.1457 Y30.9400
G01 X62.1424 Y30.9308
G01 X62.1393 Y30.9241
G01 X62.1318 Y30.9115
G01 X62.1265 Y30.9047
G01 X62.1199 Y30.8975
G01 X62.1135 Y30.8917
G01 X62.1056 Y30.8859
G01 X61.9669 Y30.7932
G01 X61.8068 Y30.6331
G01 X61.6809 Y30.4447
G01 X61.5942 Y30.2354
G01 X61.5500 Y30.0133
G01 X61.5500 Y29.7867
G01 X61.5942 Y29.5646
G01 X61.6809 Y29.3553
G01 X61.8068 Y29.1669
G01 X61.9669 Y29.0068
G01 X62.1553 Y28.8809
G01 X62.1986 Y28.8629
G01 X62.2063 Y28.8591
G01 X62.2157 Y28.8532
G01 X62.2216 Y28.8488
G01 X62.2271 Y28.8439
G01 X62.2338 Y28.8368
G01 X62.2803 Y28.7803
G01 X62.3488 Y28.7240
G01 X62.4270 Y28.6823
G01 X62.5118 Y28.6565
G01 X62.6000 Y28.6478
G01 X62.6882 Y28.6565
G01 X62.7730 Y28.6823
G01 X62.8512 Y28.7240
G01 X62.8857 Y28.7524
G01 X62.8936 Y28.7582
G01 X62.9042 Y28.7644
G01 X62.9109 Y28.7675
G01 X62.9190 Y28.7704
G01 X62.9297 Y28.7732
G01 X63.0354 Y28.7942
G01 X63.0753 Y28.8104
G01 X63.0860 Y28.8133
G01 X63.0945 Y28.8147
G01 X63.1079 Y28.8155
G01 X63.1165 Y28.8150
G01 X63.1250 Y28.8138
G01 X63.1381 Y28.8104
G01 X63.1450 Y28.8079
G01 X63.1528 Y28.8043
G01 X63.1643 Y28.7972
G01 X63.1702 Y28.7928
G01 X63.1774 Y28.7862
G01 X63.9627 Y28.0009
G01 X63.9685 Y27.9946
G01 X63.9803 Y27.9803
G01 X64.0488 Y27.9240
G01 X64.1270 Y27.8823
G01 X64.2118 Y27.8565
G01 X64.3000 Y27.8478
G01 X64.3184 Y27.8496
G01 X64.3270 Y27.8500
G01 X80.7230 Y27.8500
G01 X80.7316 Y27.8496
G01 X80.7500 Y27.8478
G01 X80.8382 Y27.8565
G01 X80.9230 Y27.8823
G01 X81.0012 Y27.9240
G01 X81.0697 Y27.9803
G01 X81.0815 Y27.9946
G01 X81.0873 Y28.0009
G01 X81.2991 Y28.2127
G01 X81.3054 Y28.2185
G01 X81.3197 Y28.2303
G01 X81.3760 Y28.2988
G01 X81.4177 Y28.3770
G01 X81.4435 Y28.4618
G01 X81.4522 Y28.5500
G01 X81.4504 Y28.5684
G01 X81.4500 Y28.5770
G01 X81.4500 Y28.9012
G01 X81.4505 Y28.9086
G01 X81.4515 Y28.9159
G01 X81.4543 Y28.9278
G01 X81.4586 Y28.9393
G01 X81.4618 Y28.9459
G01 X81.4668 Y28.9544
G01 X81.4727 Y28.9622
G01 X81.4784 Y28.9686
G01 X81.4885 Y28.9776
G01 X81.4944 Y28.9820
G01 X81.5028 Y28.9870
G01 X81.5117 Y28.9912
G01 X81.5210 Y28.9945
G01 X81.5329 Y28.9973
G01 X81.5402 Y28.9983
G01 X81.5475 Y28.9988
G01 X81.6201 Y28.9988
G01 X81.7276 Y29.0094
G01 X81.8262 Y29.0393
G01 X81.9171 Y29.0879
G01 X81.9967 Y29.1533
G01 X82.0621 Y29.2329
G01 X82.1107 Y29.3238
G01 X82.1406 Y29.4224
G01 X82.1512 Y29.5299
G01 X82.1512 Y30.2701
G01 X82.1406 Y30.3776
G01 X82.1107 Y30.4762
G01 X82.0621 Y30.5671
G01 X81.9967 Y30.6467
G01 X81.9171 Y30.7121
G01 X81.8262 Y30.7607
G01 X81.7276 Y30.7906
G01 X81.6201 Y30.8012
G01 X80.3799 Y30.8012
G01 X80.2724 Y30.7906
G01 X80.1738 Y30.7607
G01 X80.0829 Y30.7121
G01 X80.0033 Y30.6467
G01 X79.9379 Y30.5671
G01 X79.8893 Y30.4762
G01 X79.8594 Y30.3776
G01 X79.8488 Y30.2701
G01 X79.8488 Y29.5299
G01 X79.8594 Y29.4224
G01 X79.8893 Y29.3238
G01 X79.9379 Y29.2329
G01 X80.0033 Y29.1533
G01 X80.0829 Y29.0879
G01 X80.1738 Y29.0393
G01 X80.2724 Y29.0094
G01 X80.3799 Y28.9988
G01 X80.4512 Y28.9988
G01 X80.4598 Y28.9983
G01 X80.4683 Y28.9971
G01 X80.4779 Y28.9949
G01 X80.4860 Y28.9921
G01 X80.4982 Y28.9864
G01 X80.5056 Y28.9820
G01 X80.5135 Y28.9761
G01 X80.5207 Y28.9695
G01 X80.5257 Y28.9641
G01 X80.5338 Y28.9533
G01 X80.5382 Y28.9459
G01 X80.5419 Y28.9382
G01 X80.5461 Y28.9266
G01 X80.5481 Y28.9183
G01 X80.5492 Y28.9110
G01 X80.5500 Y28.8988
G01 X80.5500 Y28.8475
G01 X80.5495 Y28.8402
G01 X80.5485 Y28.8329
G01 X80.5457 Y28.8210
G01 X80.5424 Y28.8117
G01 X80.5393 Y28.8050
G01 X80.5332 Y28.7944
G01 X80.5257 Y28.7847
G01 X80.5207 Y28.7793
G01 X80.5135 Y28.7727
G01 X80.5056 Y28.7668
G01 X80.4993 Y28.7630
G01 X80.4883 Y28.7576
G01 X80.4767 Y28.7536
G01 X80.4695 Y28.7519
G01 X80.4622 Y28.7508
G01 X80.4500 Y28.7500
G01 X79.4621 Y28.7500
G01 X79.4535 Y28.7505
G01 X79.4450 Y28.7517
G01 X79.4319 Y28.7551
G01 X79.4250 Y28.7576
G01 X79.4161 Y28.7618
G01 X79.4077 Y28.7668
G01 X79.4008 Y28.7719
G01 X79.3926 Y28.7793
G01 X79.3845 Y28.7885
G01 X79.3801 Y28.7944
G01 X79.3763 Y28.8007
G01 X79.3709 Y28.8117
G01 X79.3672 Y28.8221
G01 X79.3648 Y28.8329
G01 X79.3637 Y28.8402
G01 X79.3633 Y28.8475
G01 X79.3636 Y28.8586
G01 X79.3657 Y28.8719
G01 X79.3679 Y28.8802
G01 X79.3714 Y28.8894
G01 X79.3751 Y28.8972
G01 X79.4177 Y28.9770
G01 X79.4435 Y29.0618
G01 X79.4526 Y29.1546
G01 X79.4502 Y29.5208
G01 X79.3711 Y29.6000
G01 X79.0500 Y29.6000
G01 X79.0500 Y29.5238
G01 X79.0481 Y29.4858
G01 X79.0416 Y29.4409
G01 X79.0317 Y29.4016
G01 X79.0176 Y29.3624
G01 X78.9998 Y29.3247
G01 X78.9790 Y29.2899
G01 X78.9535 Y29.2554
G01 X78.9255 Y29.2245
G01 X78.8946 Y29.1965
G01 X78.8631 Y29.1730
G01 X78.8253 Y29.1502
G01 X78.7899 Y29.1333
G01 X78.7460 Y29.1176
G01 X78.7079 Y29.1082
G01 X78.6691 Y29.1023
G01 X78.6262 Y29.1000
G01 X77.3750 Y29.1000
G01 X77.3333 Y29.1020
G01 X77.2921 Y29.1082
G01 X77.2516 Y29.1183
G01 X77.2101 Y29.1333
G01 X77.1747 Y29.1502
G01 X77.1410 Y29.1703
G01 X77.1073 Y29.1950
G01 X77.0745 Y29.2245
G01 X77.0473 Y29.2544
G01 X77.0216 Y29.2889
G01 X77.0002 Y29.3247
G01 X76.9824 Y29.3624
G01 X76.9680 Y29.4028
G01 X76.9582 Y29.4421
G01 X76.9520 Y29.4833
G01 X76.9500 Y29.5238
G01 X76.9500 Y29.6000
G01 X76.6289 Y29.6000
G01 X76.5498 Y29.5208
G01 X76.5474 Y29.1546
G01 X76.5565 Y29.0618
G01 X76.5823 Y28.9770
G01 X76.6249 Y28.8972
G01 X76.6300 Y28.8860
G01 X76.6324 Y28.8790
G01 X76.6343 Y28.8719
G01 X76.6360 Y28.8622
G01 X76.6367 Y28.8512
G01 X76.6363 Y28.8402
G01 X76.6348 Y28.8305
G01 X76.6324 Y28.8210
G01 X76.6291 Y28.8117
G01 X76.6260 Y28.8050
G01 X76.6192 Y28.7934
G01 X76.6140 Y28.7865
G01 X76.6074 Y28.7793
G01 X76.6002 Y28.7727
G01 X76.5923 Y28.7668
G01 X76.5839 Y28.7618
G01 X76.5772 Y28.7586
G01 X76.5646 Y28.7539
G01 X76.5562 Y28.7519
G01 X76.5465 Y28.7505
G01 X76.5367 Y28.7500
G01 X67.8773 Y28.7500
G01 X67.8663 Y28.7508
G01 X67.8590 Y28.7519
G01 X67.8506 Y28.7539
G01 X67.8402 Y28.7576
G01 X67.8292 Y28.7630
G01 X67.8229 Y28.7668
G01 X67.8170 Y28.7712
G01 X67.8078 Y28.7793
G01 X67.7997 Y28.7885
G01 X67.7953 Y28.7944
G01 X67.7915 Y28.8007
G01 X67.7861 Y28.8117
G01 X67.7824 Y28.8221
G01 X67.7804 Y28.8305
G01 X67.7793 Y28.8378
G01 X67.7785 Y28.8488
G01 X67.7790 Y28.8598
G01 X67.7809 Y28.8719
G01 X67.7828 Y28.8790
G01 X67.7852 Y28.8860
G01 X67.7903 Y28.8972
G01 X67.7953 Y28.9056
G01 X67.8012 Y28.9135
G01 X67.8078 Y28.9207
G01 X67.8160 Y28.9281
G01 X67.8229 Y28.9332
G01 X67.9331 Y29.0068
G01 X68.0932 Y29.1669
G01 X68.2191 Y29.3553
G01 X68.3058 Y29.5646
G01 X68.3500 Y29.7867
G01 X68.3500 Y30.0133
G01 X68.3058 Y30.2354
G01 X68.2191 Y30.4447
G01 X68.0932 Y30.6331
G01 X67.9331 Y30.7932
G01 X67.7447 Y30.9191
G01 X67.5354 Y31.0058
G01 X67.3133 Y31.0500
G01 X67.0867 Y31.0500
G01 X66.8646 Y31.0058
G01 X66.6553 Y30.9191
G01 X66.4669 Y30.7932
G01 X66.3068 Y30.6331
G01 X66.1809 Y30.4447
G01 X66.0942 Y30.2354
G01 X66.0500 Y30.0133
G01 X66.0500 Y29.7867
G01 X66.0942 Y29.5646
G01 X66.1809 Y29.3553
G01 X66.3068 Y29.1669
G01 X66.4669 Y29.0068
G01 X66.5791 Y28.9318
G01 X66.5859 Y28.9265
G01 X66.5931 Y28.9199
G01 X66.5988 Y28.9135
G01 X66.6053 Y28.9045
G01 X66.6097 Y28.8972
G01 X66.6139 Y28.8883
G01 X66.6172 Y28.8790
G01 X66.6193 Y28.8707
G01 X66.6209 Y28.8610
G01 X66.6215 Y28.8525
G01 X66.6207 Y28.8378
G01 X66.6196 Y28.8305
G01 X66.6172 Y28.8210
G01 X66.6139 Y28.8117
G01 X66.6097 Y28.8028
G01 X66.6047 Y28.7944
G01 X66.5988 Y28.7865
G01 X66.5922 Y28.7793
G01 X66.5859 Y28.7735
G01 X66.5781 Y28.7675
G01 X66.5708 Y28.7630
G01 X66.5575 Y28.7567
G01 X66.5505 Y28.7543
G01 X66.5410 Y28.7519
G01 X66.5313 Y28.7505
G01 X66.5215 Y28.7500
G01 X64.5278 Y28.7500
G01 X64.5180 Y28.7505
G01 X64.5095 Y28.7517
G01 X64.4965 Y28.7551
G01 X64.4895 Y28.7576
G01 X64.4807 Y28.7618
G01 X64.4722 Y28.7668
G01 X64.4653 Y28.7719
G01 X64.4571 Y28.7793
G01 X63.8138 Y29.4226
G01 X63.8072 Y29.4298
G01 X63.8014 Y29.4377
G01 X63.7963 Y29.4461
G01 X63.7926 Y29.4539
G01 X63.7882 Y29.4666
G01 X63.7864 Y29.4738
G01 X63.7850 Y29.4835
G01 X63.7846 Y29.4957
G01 X63.7850 Y29.5031
G01 X63.7862 Y29.5116
G01 X63.7885 Y29.5211
G01 X63.7912 Y29.5293
G01 X63.8058 Y29.5646
G01 X63.8500 Y29.7867
G01 X63.8500 Y30.0133
G01 X63.8058 Y30.2354
G01 X63.7191 Y30.4447
G01 X63.5932 Y30.6331
G01 X63.4331 Y30.7932
G01 X63.2447 Y30.9191
G01 X63.1106 Y30.9747
G01 X63.1028 Y30.9784
G01 X63.0934 Y30.9841
G01 X63.0856 Y30.9901
G01 X63.0776 Y30.9976
G01 X63.0727 Y31.0031
G01 X63.0682 Y31.0090
G01 X63.0630 Y31.0173
G01 X63.0581 Y31.0272
G01 X63.0543 Y31.0376
G01 X63.0519 Y31.0471
G01 X63.0504 Y31.0580
G01 X63.0500 Y31.0666
G01 X63.0500 Y35.2334
G01 X63.0506 Y35.2444
G01 X63.0522 Y35.2541
G01 X63.0551 Y35.2648
G01 X63.0576 Y35.2717
G01 X63.0607 Y35.2784
G01 X63.0655 Y35.2869
G01 X63.0719 Y35.2959
G01 X63.0784 Y35.3033
G01 X63.0865 Y35.3107
G01 X63.0944 Y35.3166
G01 X63.1028 Y35.3216
G01 X63.1117 Y35.3258
G01 X63.2447 Y35.3809
G01 X63.4331 Y35.5068
G01 X63.5932 Y35.6669
G01 X63.7191 Y35.8553
G01 X63.8058 Y36.0646
G01 X63.8500 Y36.2867
G01 X63.8500 Y36.5133
G01 X63.8058 Y36.7354
G01 X63.7191 Y36.9447
G01 X63.5932 Y37.1331
G01 X63.4331 Y37.2932
G01 X63.2447 Y37.4191
G01 X63.0354 Y37.5058
G01 X62.8133 Y37.5500
G01 X62.5867 Y37.5500
G01 X62.3646 Y37.5058
G01 X62.3293 Y37.4912
G01 X62.3211 Y37.4885
G01 X62.3116 Y37.4862
G01 X62.3031 Y37.4850
G01 X62.2957 Y37.4846
G01 X62.2835 Y37.4850
G01 X62.2714 Y37.4870
G01 X62.2643 Y37.4888
G01 X62.2550 Y37.4921
G01 X62.2461 Y37.4963
G01 X62.2377 Y37.5014
G01 X62.2298 Y37.5072
G01 X62.2226 Y37.5138
G01 X61.7784 Y37.9580
G01 X61.7727 Y37.9644
G01 X61.7668 Y37.9722
G01 X61.7618 Y37.9807
G01 X61.7576 Y37.9895
G01 X61.7543 Y37.9988
G01 X61.7519 Y38.0083
G01 X61.7505 Y38.0180
G01 X61.7500 Y38.0254
G01 X61.7500 Y39.2416
G01 X61.7505 Y39.2502
G01 X61.7519 Y39.2599
G01 X61.7543 Y39.2695
G01 X61.7572 Y39.2776
G01 X61.7613 Y39.2865
G01 X61.7656 Y39.2940
G01 X61.7744 Y39.3058
G01 X61.7794 Y39.3112
G01 X61.7867 Y39.3178
G01 X61.7946 Y39.3237
G01 X61.8009 Y39.3275
G01 X61.8131 Y39.3333
G01 X61.8213 Y39.3362
G01 X61.8308 Y39.3385
G01 X61.8406 Y39.3399
G01 X61.8492 Y39.3404
G01 X61.8627 Y39.3395
G01 X61.8699 Y39.3384
G01 X61.8795 Y39.3359
G01 X61.8887 Y39.3326
G01 X61.8976 Y39.3283
G01 X61.9080 Y39.3218
G01 X61.9139 Y39.3173
G01 X61.9203 Y39.3115
G01 X62.0697 Y39.1604
G01 X62.2807 Y39.0176
G01 X62.4859 Y38.9311
G01 X62.6000 Y38.9786
G01 X62.6000 Y39.3126
G01 X62.5545 Y39.3290
G01 X62.4747 Y39.3669
G01 X62.4000 Y39.4117
G01 X62.3300 Y39.4635
G01 X62.2619 Y39.5254
G01 X62.2043 Y39.5890
G01 X62.1524 Y39.6590
G01 X62.1052 Y39.7379
G01 X62.0685 Y39.8156
G01 X62.0388 Y39.8987
G01 X62.0173 Y39.9844
G01 X62.0046 Y40.0693
G01 X62.0000 Y40.1600
G01 X62.0046 Y40.2507
G01 X62.0173 Y40.3356
G01 X62.0388 Y40.4213
G01 X62.0685 Y40.5044
G01 X62.1052 Y40.5821
G01 X62.1524 Y40.6610
G01 X62.2043 Y40.7310
G01 X62.2619 Y40.7946
G01 X62.3300 Y40.8565
G01 X62.4000 Y40.9083
G01 X62.4747 Y40.9531
G01 X62.5545 Y40.9910
G01 X62.6000 Y41.0074
G01 X62.6000 Y41.3414
G01 X62.4859 Y41.3889
G01 X62.2807 Y41.3024
G01 X62.0697 Y41.1596
G01 X61.9211 Y41.0093
G01 X61.9139 Y41.0027
G01 X61.9060 Y40.9968
G01 X61.8954 Y40.9906
G01 X61.8887 Y40.9874
G01 X61.8818 Y40.9848
G01 X61.8699 Y40.9816
G01 X61.8590 Y40.9800
G01 X61.8479 Y40.9797
G01 X61.8406 Y40.9801
G01 X61.8320 Y40.9813
G01 X61.8213 Y40.9838
G01 X61.8097 Y40.9881
G01 X61.8031 Y40.9913
G01 X61.7967 Y40.9950
G01 X61.7867 Y41.0022
G01 X61.7777 Y41.0106
G01 X61.7728 Y41.0161
G01 X61.7676 Y41.0229
G01 X61.7618 Y41.0324
G01 X61.7567 Y41.0436
G01 X61.7543 Y41.0505
G01 X61.7522 Y41.0589
G01 X61.7504 Y41.0710
G01 X61.7500 Y41.0796
G01 X61.7500 Y41.6996
G01 X61.7505 Y41.7094
G01 X61.7519 Y41.7191
G01 X61.7543 Y41.7287
G01 X61.7571 Y41.7368
G01 X61.7630 Y41.7489
G01 X61.7668 Y41.7552
G01 X61.7727 Y41.7631
G01 X61.7793 Y41.7704
G01 X61.7847 Y41.7753
G01 X61.7944 Y41.7828
G01 X61.8028 Y41.7878
G01 X61.8095 Y41.7910
G01 X61.8210 Y41.7953
G01 X61.8329 Y41.7981
G01 X61.8402 Y41.7992
G01 X61.8500 Y41.7996
G01 X61.8622 Y41.7989
G01 X61.8695 Y41.7977
G01 X61.8790 Y41.7953
G01 X61.8905 Y41.7910
G01 X61.8972 Y41.7878
G01 X61.9045 Y41.7835
G01 X61.9135 Y41.7769
G01 X61.9216 Y41.7695
G01 X61.9273 Y41.7631
G01 X61.9434 Y41.7434
G01 X61.9663 Y41.7247
G01 X61.9923 Y41.7108
G01 X62.0206 Y41.7022
G01 X62.0549 Y41.6988
G01 X63.7451 Y41.6988
G01 X63.7794 Y41.7022
G01 X63.8077 Y41.7108
G01 X63.8337 Y41.7247
G01 X63.8566 Y41.7434
G01 X63.8753 Y41.7663
G01 X63.8892 Y41.7923
G01 X63.8978 Y41.8206
G01 X63.9012 Y41.8549
G01 X63.9012 Y43.5451
G01 X63.8978 Y43.5794
G01 X63.8892 Y43.6077
G01 X63.8753 Y43.6337
G01 X63.8566 Y43.6566
G01 X63.8337 Y43.6753
G01 X63.8077 Y43.6892
G01 X63.7794 Y43.6978
G01 X63.7451 Y43.7012
G01 X62.0549 Y43.7012
G01 X62.0206 Y43.6978
G01 X61.9923 Y43.6892
G01 X61.9663 Y43.6753
G01 X61.9434 Y43.6566
G01 X61.9257 Y43.6351
G01 X61.9207 Y43.6296
G01 X61.9144 Y43.6238
G01 X61.9035 Y43.6159
G01 X61.8972 Y43.6122
G01 X61.8894 Y43.6084
G01 X61.8767 Y43.6040
G01 X61.8695 Y43.6023
G01 X61.8598 Y43.6008
G01 X61.8500 Y43.6004
G01 X61.8426 Y43.6007
G01 X61.8305 Y43.6023
G01 X61.8210 Y43.6047
G01 X61.8140 Y43.6071
G01 X61.8028 Y43.6122
G01 X61.7944 Y43.6172
G01 X61.7885 Y43.6215
G01 X61.7784 Y43.6305
G01 X61.7727 Y43.6369
G01 X61.7682 Y43.6428
G01 X61.7612 Y43.6543
G01 X61.7576 Y43.6621
G01 X61.7547 Y43.6702
G01 X61.7515 Y43.6833
G01 X61.7505 Y43.6906
G01 X61.7500 Y43.7004
G01 X61.7500 Y43.9222
G01 X61.7504 Y43.9308
G01 X61.7524 Y43.9441
G01 X61.7543 Y43.9512
G01 X61.7576 Y43.9605
G01 X61.7618 Y43.9693
G01 X61.7655 Y43.9757
G01 X61.7735 Y43.9866
G01 X61.7793 Y43.9929
G01 X62.8302 Y45.0438
G01 X62.8365 Y45.0495
G01 X62.8444 Y45.0554
G01 X62.8528 Y45.0604
G01 X62.8617 Y45.0646
G01 X62.8710 Y45.0679
G01 X62.8805 Y45.0703
G01 X62.8902 Y45.0717
G01 X62.8988 Y45.0722
G01 X62.9098 Y45.0717
G01 X62.9195 Y45.0703
G01 X62.9290 Y45.0679
G01 X62.9383 Y45.0646
G01 X62.9472 Y45.0604
G01 X62.9556 Y45.0554
G01 X62.9635 Y45.0495
G01 X62.9699 Y45.0438
G01 X63.6127 Y44.4009
G01 X63.6185 Y44.3946
G01 X63.6303 Y44.3803
G01 X63.6988 Y44.3240
G01 X63.7770 Y44.2823
G01 X63.8618 Y44.2565
G01 X63.9500 Y44.2478
G01 X63.9684 Y44.2496
G01 X63.9770 Y44.2500
G01 X72.4722 Y44.2500
G01 X72.4820 Y44.2495
G01 X72.4917 Y44.2481
G01 X72.5012 Y44.2457
G01 X72.5105 Y44.2424
G01 X72.5171 Y44.2393
G01 X72.5288 Y44.2325
G01 X72.5356 Y44.2273
G01 X72.5429 Y44.2207
G01 X74.2912 Y42.4724
G01 X74.2978 Y42.4651
G01 X74.3037 Y42.4572
G01 X74.3087 Y42.4488
G01 X74.3129 Y42.4399
G01 X74.3155 Y42.4330
G01 X74.3188 Y42.4200
G01 X74.3201 Y42.4115
G01 X74.3205 Y42.4017
G01 X74.3201 Y42.3919
G01 X74.3188 Y42.3834
G01 X74.3000 Y42.2886
G01 X74.3000 Y42.1114
G01 X74.3346 Y41.9375
G01 X74.4025 Y41.7737
G01 X74.5009 Y41.6263
G01 X74.6263 Y41.5009
G01 X74.7737 Y41.4025
G01 X74.9375 Y41.3346
G01 X75.1114 Y41.3000
G01 X75.2886 Y41.3000
G01 X75.4625 Y41.3346
G01 X75.6263 Y41.4025
G01 X75.7737 Y41.5009
G01 X75.8991 Y41.6263
G01 X75.9975 Y41.7737
G01 X76.0654 Y41.9375
G01 X76.1000 Y42.1114
G01 X76.1000 Y42.2886
G01 X76.0654 Y42.4625
G01 X75.9975 Y42.6263
G01 X75.8991 Y42.7737
G01 X75.7737 Y42.8991
G01 X75.6263 Y42.9975
G01 X75.4625 Y43.0654
G01 X75.2886 Y43.1000
G01 X75.1114 Y43.1000
G01 X75.0166 Y43.0812
G01 X75.0081 Y43.0799
G01 X74.9983 Y43.0795
G01 X74.9885 Y43.0799
G01 X74.9800 Y43.0812
G01 X74.9670 Y43.0845
G01 X74.9601 Y43.0871
G01 X74.9512 Y43.0913
G01 X74.9428 Y43.0963
G01 X74.9349 Y43.1022
G01 X74.9276 Y43.1088
G01 X73.0373 Y44.9991
G01 X73.0315 Y45.0054
G01 X73.0197 Y45.0197
G01 X72.9512 Y45.0760
G01 X72.8730 Y45.1177
G01 X72.7882 Y45.1435
G01 X72.7000 Y45.1522
G01 X72.6816 Y45.1504
G01 X72.6730 Y45.1500
G01 X64.1778 Y45.1500
G01 X64.1680 Y45.1505
G01 X64.1571 Y45.1522
G01 X64.1476 Y45.1547
G01 X64.1373 Y45.1586
G01 X64.1307 Y45.1618
G01 X64.1222 Y45.1668
G01 X64.1144 Y45.1727
G01 X64.1071 Y45.1793
G01 X63.3784 Y45.9080
G01 X63.3727 Y45.9144
G01 X63.3675 Y45.9212
G01 X63.3607 Y45.9329
G01 X63.3576 Y45.9395
G01 X63.3543 Y45.9488
G01 X63.3519 Y45.9583
G01 X63.3506 Y45.9668
G01 X63.3500 Y45.9778
G01 X63.3500 Y46.0988
G01 X63.3505 Y46.1086
G01 X63.3519 Y46.1183
G01 X63.3543 Y46.1278
G01 X63.3576 Y46.1371
G01 X63.3618 Y46.1459
G01 X63.3668 Y46.1544
G01 X63.3727 Y46.1622
G01 X63.3793 Y46.1695
G01 X63.3865 Y46.1761
G01 X63.3955 Y46.1826
G01 X63.4028 Y46.1870
G01 X63.4095 Y46.1902
G01 X63.4198 Y46.1941
G01 X63.4305 Y46.1969
G01 X63.4426 Y46.1985
G01 X63.4500 Y46.1988
G01 X63.7451 Y46.1988
G01 X63.7794 Y46.2022
G01 X63.8077 Y46.2108
G01 X63.8337 Y46.2247
G01 X63.8566 Y46.2434
G01 X63.8753 Y46.2663
G01 X63.8892 Y46.2923
G01 X63.8978 Y46.3206
G01 X63.9012 Y46.3549
G01 X63.9012 Y48.0451
G01 X63.8978 Y48.0794
G01 X63.8892 Y48.1077
G01 X63.8753 Y48.1337
G01 X63.8566 Y48.1566
G01 X63.8337 Y48.1753
G01 X63.8077 Y48.1892
G01 X63.7794 Y48.1978
G01 X63.7451 Y48.2012
G01 X62.0549 Y48.2012
G01 X62.0206 Y48.1978
G01 X61.9923 Y48.1892
G01 X61.9663 Y48.1753
G01 X61.9434 Y48.1566
G01 X61.9247 Y48.1337
G01 X61.9108 Y48.1077
G01 X61.9022 Y48.0794
G01 X61.8988 Y48.0451
G01 X61.8988 Y46.3549
G01 X61.9022 Y46.3206
G01 X61.9108 Y46.2923
G01 X61.9247 Y46.2663
G01 X61.9434 Y46.2434
G01 X61.9663 Y46.2247
G01 X61.9923 Y46.2108
G01 X62.0206 Y46.2022
G01 X62.0549 Y46.1988
G01 X62.3500 Y46.1988
G01 X62.3574 Y46.1985
G01 X62.3695 Y46.1969
G01 X62.3802 Y46.1941
G01 X62.3883 Y46.1912
G01 X62.3950 Y46.1881
G01 X62.4056 Y46.1820
G01 X62.4135 Y46.1761
G01 X62.4207 Y46.1695
G01 X62.4273 Y46.1622
G01 X62.4332 Y46.1544
G01 X62.4382 Y46.1459
G01 X62.4424 Y46.1371
G01 X62.4457 Y46.1278
G01 X62.4483 Y46.1171
G01 X62.4495 Y46.1086
G01 X62.4500 Y46.0988
G01 X62.4500 Y45.9766
G01 X62.4492 Y45.9656
G01 X62.4481 Y45.9583
G01 X62.4461 Y45.9500
G01 X62.4424 Y45.9395
G01 X62.4370 Y45.9285
G01 X62.4332 Y45.9222
G01 X62.4288 Y45.9163
G01 X62.4207 Y45.9071
G01 X61.0009 Y44.4873
G01 X60.9946 Y44.4815
G01 X60.9803 Y44.4697
G01 X60.9240 Y44.4012
G01 X60.8823 Y44.3230
G01 X60.8565 Y44.2382
G01 X60.8495 Y44.1673
G00 Z1.0000
G00 X60.8500 Y44.1723
G01 F400.00
G01 Z-0.0400
G01 F2500.00
G01 X60.8495 Y44.1673
G01 X60.8491 Y44.1623
G01 X60.8495 Y44.1673
G00 Z1.0000
G00 X62.9025 Y48.8401
G01 F400.00
G01 Z-0.0400
G01 F2500.00
G01 X62.9882 Y48.8443
G01 X63.0756 Y48.8573
G01 X63.1613 Y48.8788
G01 X63.2444 Y48.9085
G01 X63.3243 Y48.9463
G01 X63.4000 Y48.9917
G01 X63.4710 Y49.0443
G01 X63.5364 Y49.1036
G01 X63.5957 Y49.1690
G01 X63.6483 Y49.2400
G01 X63.6937 Y49.3157
G01 X63.7315 Y49.3956
G01 X63.7612 Y49.4787
G01 X63.7827 Y49.5644
G01 X63.7957 Y49.6518
G01 X63.8000 Y49.7400
G01 X63.7957 Y49.8282
G01 X63.7827 Y49.9156
G01 X63.7612 Y50.0013
G01 X63.7315 Y50.0844
G01 X63.6937 Y50.1643
G01 X63.6483 Y50.2400
G01 X63.5957 Y50.3110
G01 X63.5364 Y50.3764
G01 X63.4710 Y50.4357
G01 X63.4000 Y50.4883
G01 X63.3243 Y50.5337
G01 X63.2444 Y50.5715
G01 X63.1613 Y50.6012
G01 X63.0756 Y50.6227
G01 X62.9882 Y50.6357
G01 X62.9000 Y50.6400
G01 X62.8118 Y50.6357
G01 X62.7244 Y50.6227
G01 X62.6387 Y50.6012
G01 X62.5556 Y50.5715
G01 X62.4757 Y50.5337
G01 X62.4000 Y50.4883
G01 X62.3290 Y50.4357
G01 X62.2636 Y50.3764
G01 X62.2043 Y50.3110
G01 X62.1517 Y50.2400
G01 X62.1063 Y50.1643
G01 X62.0685 Y50.0844
G01 X62.0388 Y50.0013
G01 X62.0173 Y49.9156
G01 X62.0043 Y49.8282
G01 X62.0000 Y49.7400
G01 X62.0043 Y49.6518
G01 X62.0173 Y49.5644
G01 X62.0388 Y49.4787
G01 X62.0685 Y49.3956
G01 X62.1063 Y49.3157
G01 X62.1517 Y49.2400
G01 X62.2043 Y49.1690
G01 X62.2636 Y49.1036
G01 X62.3290 Y49.0443
G01 X62.4000 Y48.9917
G01 X62.4757 Y48.9463
G01 X62.5556 Y48.9085
G01 X62.6387 Y48.8788
G01 X62.7244 Y48.8573
G01 X62.8118 Y48.8443
G01 X62.9025 Y48.8401
G00 Z1.0000
G00 X62.8975 Y48.8403
G01 F400.00
G01 Z-0.0400
G01 F2500.00
G01 X62.9025 Y48.8401
G01 X62.9074 Y48.8403
G01 X62.9025 Y48.8401
G00 Z1.0000
G00 X63.4999 Y50.5418
G01 F400.00
G01 Z-0.0400
G01 F2500.00
G01 X63.3737 Y50.6262
G01 X63.1917 Y50.7015
G01 X62.9985 Y50.7400
G01 X62.8015 Y50.7400
G01 X62.6083 Y50.7015
G01 X62.4263 Y50.6262
G01 X62.2626 Y50.5167
G01 X62.1233 Y50.3774
G01 X62.0138 Y50.2137
G01 X61.9385 Y50.0317
G01 X61.9000 Y49.8385
G01 X61.9000 Y49.6415
G01 X61.9385 Y49.4483
G01 X62.0138 Y49.2663
G01 X62.1233 Y49.1026
G01 X62.2626 Y48.9633
G01 X62.4263 Y48.8538
G01 X62.6083 Y48.7785
G01 X62.8015 Y48.7400
G01 X62.9985 Y48.7400
G01 X63.1917 Y48.7785
G01 X63.3737 Y48.8538
G01 X63.5374 Y48.9633
G01 X63.6767 Y49.1026
G01 X63.7862 Y49.2663
G01 X63.8615 Y49.4483
G01 X63.9000 Y49.6415
G01 X63.9000 Y49.8385
G01 X63.8615 Y50.0317
G01 X63.7862 Y50.2137
G01 X63.6767 Y50.3774
G01 X63.5374 Y50.5167
G01 X63.4999 Y50.5418
G00 Z1.0000
G00 X63.5040 Y50.5391
G01 F400.00
G01 Z-0.0400
G01 F2500.00
G01 X63.4999 Y50.5418
G01 X63.4957 Y50.5446
G01 X63.4999 Y50.5418
G00 Z1.0000
G00 X62.9025 Y51.3801
G01 F400.00
G01 Z-0.0400
G01 F2500.00
G01 X62.9882 Y51.3843
G01 X63.0756 Y51.3973
G01 X63.1613 Y51.4188
G01 X63.2444 Y51.4485
G01 X63.3243 Y51.4863
G01 X63.4000 Y51.5317
G01 X63.4710 Y51.5843
G01 X63.5364 Y51.6436
G01 X63.5957 Y51.7090
G01 X63.6483 Y51.7800
G01 X63.6937 Y51.8557
G01 X63.7315 Y51.9356
G01 X63.7612 Y52.0187
G01 X63.7827 Y52.1044
G01 X63.7957 Y52.1918
G01 X63.8000 Y52.2800
G01 X63.7957 Y52.3682
G01 X63.7827 Y52.4556
G01 X63.7612 Y52.5413
G01 X63.7315 Y52.6244
G01 X63.6937 Y52.7043
G01 X63.6483 Y52.7800
G01 X63.5957 Y52.8510
G01 X63.5364 Y52.9164
G01 X63.4710 Y52.9757
G01 X63.4000 Y53.0283
G01 X63.3243 Y53.0737
G01 X63.2444 Y53.1115
G01 X63.1613 Y53.1412
G01 X63.0756 Y53.1627
G01 X62.9882 Y53.1757
G01 X62.9000 Y53.1800
G01 X62.8118 Y53.1757
G01 X62.7244 Y53.1627
G01 X62.6387 Y53.1412
G01 X62.5556 Y53.1115
G01 X62.4757 Y53.0737
G01 X62.4000 Y53.0283
G01 X62.3290 Y52.9757
G01 X62.2636 Y52.9164
G01 X62.2043 Y52.8510
G01 X62.1517 Y52.7800
G01 X62.1063 Y52.7043
G01 X62.0685 Y52.6244
G01 X62.0388 Y52.5413
G01 X62.0173 Y52.4556
G01 X62.0043 Y52.3682
G01 X62.0000 Y52.2800
G01 X62.0043 Y52.1918
G01 X62.0173 Y52.1044
G01 X62.0388 Y52.0187
G01 X62.0685 Y51.9356
G01 X62.1063 Y51.8557
G01 X62.1517 Y51.7800
G01 X62.2043 Y51.7090
G01 X62.2636 Y51.6436
G01 X62.3290 Y51.5843
G01 X62.4000 Y51.5317
G01 X62.4757 Y51.4863
G01 X62.5556 Y51.4485
G01 X62.6387 Y51.4188
G01 X62.7244 Y51.3973
G01 X62.8118 Y51.3843
G01 X62.9025 Y51.3801
G00 Z1.0000
G00 X62.8975 Y51.3803
G01 F400.00
G01 Z-0.0400
G01 F2500.00
G01 X62.9025 Y51.3801
G01 X62.9074 Y51.3803
G01 X62.9025 Y51.3801
G00 Z1.0000
G00 X61.9000 Y52.3785
G01 F400.00
G01 Z-0.0400
G01 F2500.00
G01 X61.9000 Y52.1815
G01 X61.9385 Y51.9883
G01 X62.0138 Y51.8063
G01 X62.1233 Y51.6426
G01 X62.2626 Y51.5033
G01 X62.4263 Y51.3938
G01 X62.6083 Y51.3185
G01 X62.8015 Y51.2800
G01 X62.9985 Y51.2800
G01 X63.1917 Y51.3185
G01 X63.3737 Y51.3938
G01 X63.5374 Y51.5033
G01 X63.6767 Y51.6426
G01 X63.7862 Y51.8063
G01 X63.8615 Y51.9883
G01 X63.9000 Y52.1815
G01 X63.9000 Y52.3785
G01 X63.8615 Y52.5717
G01 X63.7862 Y52.7537
G01 X63.6767 Y52.9174
G01 X63.5374 Y53.0567
G01 X63.3737 Y53.1662
G01 X63.1917 Y53.2415
G01 X62.9985 Y53.2800
G01 X62.8015 Y53.2800
G01 X62.6083 Y53.2415
G01 X62.4263 Y53.1662
G01 X62.2626 Y53.0567
G01 X62.1233 Y52.9174
G01 X62.0138 Y52.7537
G01 X61.9385 Y52.5717
G01 X61.9000 Y52.3785
G00 Z1.0000
G00 X61.9010 Y52.3834
G01 F400.00
G01 Z-0.0400
G01 F2500.00
G01 X61.9000 Y52.3785
G01 X61.9000 Y52.3735
G01 X61.9000 Y52.3785
G00 Z1.0000
G00 X62.0526 Y54.5200
G01 F400.00
G01 Z-0.0400
G01 F2500.00
G01 X61.7197 Y54.5200
G01 X61.6711 Y54.4053
G01 X61.7502 Y54.2144
G01 X61.8906 Y54.0015
G01 X62.0697 Y53.8204
G01 X62.2807 Y53.6776
G01 X62.4859 Y53.5911
G01 X62.6000 Y53.6386
G01 X62.6000 Y53.9726
G01 X62.5545 Y53.9890
G01 X62.4768 Y54.0257
G01 X62.4010 Y54.0710
G01 X62.3290 Y54.1243
G01 X62.2636 Y54.1836
G01 X62.2043 Y54.2490
G01 X62.1510 Y54.3210
G01 X62.1057 Y54.3968
G01 X62.0690 Y54.4745
G01 X62.0526 Y54.5200
G00 Z1.0000
G00 X62.0543 Y54.5153
G01 F400.00
G01 Z-0.0400
G01 F2500.00
G01 X62.0526 Y54.5200
G01 X62.0476 Y54.5200
G01 X62.0526 Y54.5200
G00 Z1.0000
G00 X62.6000 Y55.6674
G01 F400.00
G01 Z-0.0400
G01 F2500.00
G01 X62.6000 Y56.0014
G01 X62.4859 Y56.0489
G01 X62.2807 Y55.9624
G01 X62.0697 Y55.8196
G01 X61.8906 Y55.6385
G01 X61.7502 Y55.4256
G01 X61.6711 Y55.2347
G01 X61.7197 Y55.1200
G01 X62.0526 Y55.1200
G01 X62.0690 Y55.1655
G01 X62.1057 Y55.2432
G01 X62.1510 Y55.3190
G01 X62.2043 Y55.3910
G01 X62.2636 Y55.4564
G01 X62.3290 Y55.5157
G01 X62.4010 Y55.5690
G01 X62.4768 Y55.6143
G01 X62.5545 Y55.6510
G01 X62.6000 Y55.6674
G00 Z1.0000
G00 X62.5953 Y55.6657
G01 F400.00
G01 Z-0.0400
G01 F2500.00
G01 X62.6000 Y55.6674
G01 X62.6000 Y55.6724
G01 X62.6000 Y55.6674
G00 Z1.0000
G00 X63.2000 Y55.6674
G01 F400.00
G01 Z-0.0400
G01 F2500.00
G01 X63.2455 Y55.6510
G01 X63.3232 Y55.6143
G01 X63.3990 Y55.5690
G01 X63.4710 Y55.5157
G01 X63.5364 Y55.4564
G01 X63.5957 Y55.3910
G01 X63.6490 Y55.3190
G01 X63.6943 Y55.2432
G01 X63.7310 Y55.1655
G01 X63.7474 Y55.1200
G01 X64.0803 Y55.1200
G01 X64.1289 Y55.2347
G01 X64.0498 Y55.4256
G01 X63.9094 Y55.6385
G01 X63.7303 Y55.8196
G01 X63.5193 Y55.9624
G01 X63.3141 Y56.0489
G01 X63.2000 Y56.0014
G01 X63.2000 Y55.6674
G00 Z1.0000
G00 X63.2000 Y55.6724
G01 F400.00
G01 Z-0.0400
G01 F2500.00
G01 X63.2000 Y55.6674
G01 X63.2047 Y55.6657
G01 X63.2000 Y55.6674
G00 Z1.0000
G00 X63.7474 Y54.5200
G01 F400.00
G01 Z-0.0400
G01 F2500.00
G01 X63.7310 Y54.4745
G01 X63.6943 Y54.3968
G01 X63.6490 Y54.3210
G01 X63.5957 Y54.2490
G01 X63.5364 Y54.1836
G01 X63.4710 Y54.1243
G01 X63.3990 Y54.0710
G01 X63.3232 Y54.0257
G01 X63.2455 Y53.9890
G01 X63.2000 Y53.9726
G01 X63.2000 Y53.6386
G01 X63.3141 Y53.5911
G01 X63.5193 Y53.6776
G01 X63.7303 Y53.8204
G01 X63.9094 Y54.0015
G01 X64.0498 Y54.2144
G01 X64.1289 Y54.4053
G01 X64.0803 Y54.5200
G01 X63.7474 Y54.5200
G00 Z1.0000
G00 X63.7524 Y54.5200
G01 F400.00
G01 Z-0.0400
G01 F2500.00
G01 X63.7474 Y54.5200
G01 X63.7457 Y54.5153
G01 X63.7474 Y54.5200
G00 Z1.0000
G00 X66.1500 Y55.4250
G01 F400.00
G01 Z-0.0400
G01 F2500.00
G01 X65.8289 Y55.4250
G01 X65.7496 Y55.3456
G01 X65.7474 Y55.1544
G01 X65.7565 Y55.0618
G01 X65.7823 Y54.9770
G01 X65.8240 Y54.8988
G01 X65.8803 Y54.8303
G01 X65.9488 Y54.7740
G01 X66.0270 Y54.7323
G01 X66.1118 Y54.7065
G01 X66.2045 Y54.6974
G01 X66.5208 Y54.6997
G01 X66.6000 Y54.7789
G01 X66.6000 Y55.1000
G01 X66.4488 Y55.1000
G01 X66.4206 Y55.1014
G01 X66.3927 Y55.1055
G01 X66.3629 Y55.1129
G01 X66.3352 Y55.1228
G01 X66.3086 Y55.1354
G01 X66.2823 Y55.1513
G01 X66.2578 Y55.1697
G01 X66.2379 Y55.1879
G01 X66.2197 Y55.2078
G01 X66.2006 Y55.2333
G01 X66.1843 Y55.2608
G01 X66.1728 Y55.2852
G01 X66.1637 Y55.3106
G01 X66.1558 Y55.3415
G01 X66.1513 Y55.3718
G01 X66.1500 Y55.3988
G01 X66.1500 Y55.4250
G00 Z1.0000
G00 X66.1500 Y55.4200
G01 F400.00
G01 Z-0.0400
G01 F2500.00
G01 X66.1500 Y55.4250
G01 X66.1450 Y55.4250
G01 X66.1500 Y55.4250
G00 Z1.0000
G00 X66.6000 Y56.3500
G01 F400.00
G01 Z-0.0400
G01 F2500.00
G01 X66.6000 Y56.6711
G01 X66.5208 Y56.7503
G01 X66.2045 Y56.7526
G01 X66.1118 Y56.7435
G01 X66.0270 Y56.7177
G01 X65.9488 Y56.6760
G01 X65.8803 Y56.6197
G01 X65.8240 Y56.5512
G01 X65.7823 Y56.4730
G01 X65.7565 Y56.3882
G01 X65.7474 Y56.2956
G01 X65.7496 Y56.1044
G01 X65.8289 Y56.0250
G01 X66.1500 Y56.0250
G01 X66.1500 Y56.0512
G01 X66.1513 Y56.0782
G01 X66.1558 Y56.1085
G01 X66.1637 Y56.1394
G01 X66.1728 Y56.1648
G01 X66.1843 Y56.1892
G01 X66.2006 Y56.2167
G01 X66.2197 Y56.2422
G01 X66.2379 Y56.2621
G01 X66.2578 Y56.2803
G01 X66.2823 Y56.2987
G01 X66.3086 Y56.3146
G01 X66.3352 Y56.3272
G01 X66.3629 Y56.3371
G01 X66.3927 Y56.3445
G01 X66.4206 Y56.3486
G01 X66.4488 Y56.3500
G01 X66.6000 Y56.3500
G00 Z1.0000
G00 X66.5950 Y56.3500
G01 F400.00
G01 Z-0.0400
G01 F2500.00
G01 X66.6000 Y56.3500
G01 X66.6000 Y56.3550
G01 X66.6000 Y56.3500
G00 Z1.0000
G00 X67.2000 Y56.3500
G01 F400.00
G01 Z-0.0400
G01 F2500.00
G01 X67.3512 Y56.3500
G01 X67.3794 Y56.3486
G01 X67.4073 Y56.3445
G01 X67.4371 Y56.3371
G01 X67.4648 Y56.3272
G01 X67.4914 Y56.3146
G01 X67.5177 Y56.2987
G01 X67.5422 Y56.2803
G01 X67.5621 Y56.2621
G01 X67.5803 Y56.2422
G01 X67.5994 Y56.2167
G01 X67.6157 Y56.1892
G01 X67.6272 Y56.1648
G01 X67.6363 Y56.1394
G01 X67.6442 Y56.1085
G01 X67.6487 Y56.0782
G01 X67.6500 Y56.0512
G01 X67.6500 Y56.0250
G01 X67.9711 Y56.0250
G01 X68.0504 Y56.1044
G01 X68.0526 Y56.2956
G01 X68.0435 Y56.3882
G01 X68.0177 Y56.4730
G01 X67.9760 Y56.5512
G01 X67.9197 Y56.6197
G01 X67.8512 Y56.6760
G01 X67.7730 Y56.7177
G01 X67.6882 Y56.7435
G01 X67.5955 Y56.7526
G01 X67.2792 Y56.7503
G01 X67.2000 Y56.6711
G01 X67.2000 Y56.3500
G00 Z1.0000
G00 X67.2000 Y56.3550
G01 F400.00
G01 Z-0.0400
G01 F2500.00
G01 X67.2000 Y56.3500
G01 X67.2050 Y56.3500
G01 X67.2000 Y56.3500
G00 Z1.0000
G00 X67.6500 Y55.4250
G01 F400.00
G01 Z-0.0400
G01 F2500.00
G01 X67.6500 Y55.3988
G01 X67.6487 Y55.3718
G01 X67.6442 Y55.3415
G01 X67.6363 Y55.3106
G01 X67.6272 Y55.2852
G01 X67.6157 Y55.2608
G01 X67.5994 Y55.2333
G01 X67.5803 Y55.2078
G01 X67.5621 Y55.1879
G01 X67.5422 Y55.1697
G01 X67.5177 Y55.1513
G01 X67.4914 Y55.1354
G01 X67.4648 Y55.1228
G01 X67.4371 Y55.1129
G01 X67.4073 Y55.1055
G01 X67.3794 Y55.1014
G01 X67.3512 Y55.1000
G01 X67.2000 Y55.1000
G01 X67.2000 Y54.7789
G01 X67.2792 Y54.6997
G01 X67.5955 Y54.6974
G01 X67.6882 Y54.7065
G01 X67.7730 Y54.7323
G01 X67.8512 Y54.7740
G01 X67.9197 Y54.8303
G01 X67.9760 Y54.8988
G01 X68.0177 Y54.9770
G01 X68.0435 Y55.0618
G01 X68.0526 Y55.1544
G01 X68.0504 Y55.3456
G01 X67.9711 Y55.4250
G01 X67.6500 Y55.4250
G00 Z1.0000
G00 X67.6550 Y55.4250
G01 F400.00
G01 Z-0.0400
G01 F2500.00
G01 X67.6500 Y55.4250
G01 X67.6500 Y55.4200
G01 X67.6500 Y55.4250
G00 Z1.0000
G00 X69.1500 Y55.4250
G01 F400.00
G01 Z-0.0400
G01 F2500.00
G01 X68.8289 Y55.4250
G01 X68.7496 Y55.3456
G01 X68.7474 Y55.1544
G01 X68.7565 Y55.0618
G01 X68.7823 Y54.9770
G01 X68.8240 Y54.8988
G01 X68.8803 Y54.8303
G01 X68.9488 Y54.7740
G01 X69.0270 Y54.7323
G01 X69.1118 Y54.7065
G01 X69.2045 Y54.6974
G01 X69.5208 Y54.6997
G01 X69.6000 Y54.7789
G01 X69.6000 Y55.1000
G01 X69.4488 Y55.1000
G01 X69.4206 Y55.1014
G01 X69.3927 Y55.1055
G01 X69.3629 Y55.1129
G01 X69.3352 Y55.1228
G01 X69.3086 Y55.1354
G01 X69.2823 Y55.1513
G01 X69.2578 Y55.1697
G01 X69.2379 Y55.1879
G01 X69.2197 Y55.2078
G01 X69.2006 Y55.2333
G01 X69.1843 Y55.2608
G01 X69.1728 Y55.2852
G01 X69.1637 Y55.3106
G01 X69.1558 Y55.3415
G01 X69.1513 Y55.3718
G01 X69.1500 Y55.3988
G01 X69.1500 Y55.4250
G00 Z1.0000
G00 X69.1500 Y55.4200
G01 F400.00
G01 Z-0.0400
G01 F2500.00
G01 X69.1500 Y55.4250
G01 X69.1450 Y55.4250
G01 X69.1500 Y55.4250
G00 Z1.0000
G00 X69.6000 Y56.3500
G01 F400.00
G01 Z-0.0400
G01 F2500.00
G01 X69.6000 Y56.6711
G01 X69.5208 Y56.7503
G01 X69.2045 Y56.7526
G01 X69.1118 Y56.7435
G01 X69.0270 Y56.7177
G01 X68.9488 Y56.6760
G01 X68.8803 Y56.6197
G01 X68.8240 Y56.5512
G01 X68.7823 Y56.4730
G01 X68.7565 Y56.3882
G01 X68.7474 Y56.2956
G01 X68.7496 Y56.1044
G01 X68.8289 Y56.0250
G01 X69.1500 Y56.0250
G01 X69.1500 Y56.0512
G01 X69.1513 Y56.0782
G01 X69.1558 Y56.1085
G01 X69.1637 Y56.1394
G01 X69.1728 Y56.1648
G01 X69.1843 Y56.1892
G01 X69.2006 Y56.2167
G01 X69.2197 Y56.2422
G01 X69.2379 Y56.2621
G01 X69.2578 Y56.2803
G01 X69.2823 Y56.2987
G01 X69.3086 Y56.3146
G01 X69.3352 Y56.3272
G01 X69.3629 Y56.3371
G01 X69.3927 Y56.3445
G01 X69.4206 Y56.3486
G01 X69.4488 Y56.3500
G01 X69.6000 Y56.3500
G00 Z1.0000
G00 X69.5950 Y56.3500
G01 F400.00
G01 Z-0.0400
G01 F2500.00
G01 X69.6000 Y56.3500
G01 X69.6000 Y56.3550
G01 X69.6000 Y56.3500
G00 Z1.0000
G00 X70.2000 Y56.3500
G01 F400.00
G01 Z-0.0400
G01 F2500.00
G01 X70.3512 Y56.3500
G01 X70.3794 Y56.3486
G01 X70.4073 Y56.3445
G01 X70.4371 Y56.3371
G01 X70.4648 Y56.3272
G01 X70.4914 Y56.3146
G01 X70.5177 Y56.2987
G01 X70.5422 Y56.2803
G01 X70.5621 Y56.2621
G01 X70.5803 Y56.2422
G01 X70.5994 Y56.2167
G01 X70.6157 Y56.1892
G01 X70.6272 Y56.1648
G01 X70.6363 Y56.1394
G01 X70.6442 Y56.1085
G01 X70.6487 Y56.0782
G01 X70.6500 Y56.0512
G01 X70.6500 Y56.0250
G01 X70.9711 Y56.0250
G01 X71.0504 Y56.1044
G01 X71.0526 Y56.2956
G01 X71.0435 Y56.3882
G01 X71.0177 Y56.4730
G01 X70.9760 Y56.5512
G01 X70.9197 Y56.6197
G01 X70.8512 Y56.6760
G01 X70.7730 Y56.7177
G01 X70.6882 Y56.7435
G01 X70.5955 Y56.7526
G01 X70.2792 Y56.7503
G01 X70.2000 Y56.6711
G01 X70.2000 Y56.3500
G00 Z1.0000
G00 X70.2000 Y56.3550
G01 F400.00
G01 Z-0.0400
G01 F2500.00
G01 X70.2000 Y56.3500
G01 X70.2050 Y56.3500
G01 X70.2000 Y56.3500
G00 Z1.0000
G00 X70.6500 Y55.4250
G01 F400.00
G01 Z-0.0400
G01 F2500.00
G01 X70.6500 Y55.3988
G01 X70.6487 Y55.3718
G01 X70.6442 Y55.3415
G01 X70.6363 Y55.3106
G01 X70.6272 Y55.2852
G01 X70.6157 Y55.2608
G01 X70.5994 Y55.2333
G01 X70.5803 Y55.2078
G01 X70.5621 Y55.1879
G01 X70.5422 Y55.1697
G01 X70.5177 Y55.1513
G01 X70.4914 Y55.1354
G01 X70.4648 Y55.1228
G01 X70.4371 Y55.1129
G01 X70.4073 Y55.1055
G01 X70.3794 Y55.1014
G01 X70.3512 Y55.1000
G01 X70.2000 Y55.1000
G01 X70.2000 Y54.7789
G01 X70.2792 Y54.6997
G01 X70.5955 Y54.6974
G01 X70.6882 Y54.7065
G01 X70.7730 Y54.7323
G01 X70.8512 Y54.7740
G01 X70.9197 Y54.8303
G01 X70.9760 Y54.8988
G01 X71.0177 Y54.9770
G01 X71.0435 Y55.0618
G01 X71.0526 Y55.1544
G01 X71.0504 Y55.3456
G01 X70.9711 Y55.4250
G01 X70.6500 Y55.4250
G00 Z1.0000
G00 X70.6550 Y55.4250
G01 F400.00
G01 Z-0.0400
G01 F2500.00
G01 X70.6500 Y55.4250
G01 X70.6500 Y55.4200
G01 X70.6500 Y55.4250
G00 Z1.0000
G00 X72.1500 Y55.4000
G01 F400.00
G01 Z-0.0400
G01 F2500.00
G01 X71.8289 Y55.4000
G01 X71.7496 Y55.3206
G01 X71.7474 Y55.1294
G01 X71.7565 Y55.0368
G01 X71.7823 Y54.9520
G01 X71.8240 Y54.8738
G01 X71.8803 Y54.8053
G01 X71.9488 Y54.7490
G01 X72.0270 Y54.7073
G01 X72.1118 Y54.6815
G01 X72.2045 Y54.6724
G01 X72.5208 Y54.6747
G01 X72.6000 Y54.7539
G01 X72.6000 Y55.0750
G01 X72.4488 Y55.0750
G01 X72.4206 Y55.0764
G01 X72.3927 Y55.0805
G01 X72.3629 Y55.0879
G01 X72.3352 Y55.0978
G01 X72.3086 Y55.1104
G01 X72.2823 Y55.1263
G01 X72.2578 Y55.1447
G01 X72.2379 Y55.1629
G01 X72.2197 Y55.1828
G01 X72.2006 Y55.2083
G01 X72.1843 Y55.2358
G01 X72.1728 Y55.2602
G01 X72.1637 Y55.2856
G01 X72.1558 Y55.3165
G01 X72.1513 Y55.3468
G01 X72.1500 Y55.3738
G01 X72.1500 Y55.4000
G00 Z1.0000
G00 X72.1500 Y55.3950
G01 F400.00
G01 Z-0.0400
G01 F2500.00
G01 X72.1500 Y55.4000
G01 X72.1450 Y55.4000
G01 X72.1500 Y55.4000
G00 Z1.0000
G00 X72.6000 Y56.3250
G01 F400.00
G01 Z-0.0400
G01 F2500.00
G01 X72.6000 Y56.6461
G01 X72.5208 Y56.7253
G01 X72.2045 Y56.7276
G01 X72.1118 Y56.7185
G01 X72.0270 Y56.6927
G01 X71.9488 Y56.6510
G01 X71.8803 Y56.5947
G01 X71.8240 Y56.5262
G01 X71.7823 Y56.4480
G01 X71.7565 Y56.3632
G01 X71.7474 Y56.2706
G01 X71.7496 Y56.0794
G01 X71.8289 Y56.0000
G01 X72.1500 Y56.0000
G01 X72.1500 Y56.0262
G01 X72.1513 Y56.0532
G01 X72.1558 Y56.0835
G01 X72.1637 Y56.1144
G01 X72.1728 Y56.1398
G01 X72.1843 Y56.1642
G01 X72.2006 Y56.1917
G01 X72.2197 Y56.2172
G01 X72.2379 Y56.2371
G01 X72.2578 Y56.2553
G01 X72.2823 Y56.2737
G01 X72.3086 Y56.2896
G01 X72.3352 Y56.3022
G01 X72.3629 Y56.3121
G01 X72.3927 Y56.3195
G01 X72.4206 Y56.3236
G01 X72.4488 Y56.3250
G01 X72.6000 Y56.3250
G00 Z1.0000
G00 X72.5950 Y56.3250
G01 F400.00
G01 Z-0.0400
G01 F2500.00
G01 X72.6000 Y56.3250
G01 X72.6000 Y56.3300
G01 X72.6000 Y56.3250
G00 Z1.0000
G00 X73.2000 Y56.3250
G01 F400.00
G01 Z-0.0400
G01 F2500.00
G01 X73.3512 Y56.3250
G01 X73.3794 Y56.3236
G01 X73.4073 Y56.3195
G01 X73.4371 Y56.3121
G01 X73.4648 Y56.3022
G01 X73.4914 Y56.2896
G01 X73.5177 Y56.2737
G01 X73.5422 Y56.2553
G01 X73.5621 Y56.2371
G01 X73.5803 Y56.2172
G01 X73.5994 Y56.1917
G01 X73.6157 Y56.1642
G01 X73.6272 Y56.1398
G01 X73.6363 Y56.1144
G01 X73.6442 Y56.0835
G01 X73.6487 Y56.0532
G01 X73.6500 Y56.0262
G01 X73.6500 Y56.0000
G01 X73.9711 Y56.0000
G01 X74.0504 Y56.0794
G01 X74.0526 Y56.2706
G01 X74.0435 Y56.3632
G01 X74.0177 Y56.4480
G01 X73.9760 Y56.5262
G01 X73.9197 Y56.5947
G01 X73.8512 Y56.6510
G01 X73.7730 Y56.6927
G01 X73.6882 Y56.7185
G01 X73.5955 Y56.7276
G01 X73.2792 Y56.7253
G01 X73.2000 Y56.6461
G01 X73.2000 Y56.3250
G00 Z1.0000
G00 X73.2000 Y56.3300
G01 F400.00
G01 Z-0.0400
G01 F2500.00
G01 X73.2000 Y56.3250
G01 X73.2050 Y56.3250
G01 X73.2000 Y56.3250
G00 Z1.0000
G00 X73.6500 Y55.4000
G01 F400.00
G01 Z-0.0400
G01 F2500.00
G01 X73.6500 Y55.3738
G01 X73.6487 Y55.3468
G01 X73.6442 Y55.3165
G01 X73.6363 Y55.2856
G01 X73.6272 Y55.2602
G01 X73.6157 Y55.2358
G01 X73.5994 Y55.2083
G01 X73.5803 Y55.1828
G01 X73.5621 Y55.1629
G01 X73.5422 Y55.1447
G01 X73.5177 Y55.1263
G01 X73.4914 Y55.1104
G01 X73.4648 Y55.0978
G01 X73.4371 Y55.0879
G01 X73.4073 Y55.0805
G01 X73.3794 Y55.0764
G01 X73.3512 Y55.0750
G01 X73.2000 Y55.0750
G01 X73.2000 Y54.7539
G01 X73.2792 Y54.6747
G01 X73.5955 Y54.6724
G01 X73.6882 Y54.6815
G01 X73.7730 Y54.7073
G01 X73.8512 Y54.7490
G01 X73.9197 Y54.8053
G01 X73.9760 Y54.8738
G01 X74.0177 Y54.9520
G01 X74.0435 Y55.0368
G01 X74.0526 Y55.1294
G01 X74.0504 Y55.3206
G01 X73.9711 Y55.4000
G01 X73.6500 Y55.4000
G00 Z1.0000
G00 X73.6550 Y55.4000
G01 F400.00
G01 Z-0.0400
G01 F2500.00
G01 X73.6500 Y55.4000
G01 X73.6500 Y55.3950
G01 X73.6500 Y55.4000
G00 Z1.0000
G00 X75.1500 Y55.4250
G01 F400.00
G01 Z-0.0400
G01 F2500.00
G01 X74.8289 Y55.4250
G01 X74.7496 Y55.3456
G01 X74.7474 Y55.1544
G01 X74.7565 Y55.0618
G01 X74.7823 Y54.9770
G01 X74.8240 Y54.8988
G01 X74.8803 Y54.8303
G01 X74.9488 Y54.7740
G01 X75.0270 Y54.7323
G01 X75.1118 Y54.7065
G01 X75.2045 Y54.6974
G01 X75.5208 Y54.6997
G01 X75.6000 Y54.7789
G01 X75.6000 Y55.1000
G01 X75.4488 Y55.1000
G01 X75.4206 Y55.1014
G01 X75.3927 Y55.1055
G01 X75.3629 Y55.1129
G01 X75.3352 Y55.1228
G01 X75.3086 Y55.1354
G01 X75.2823 Y55.1513
G01 X75.2578 Y55.1697
G01 X75.2379 Y55.1879
G01 X75.2197 Y55.2078
G01 X75.2006 Y55.2333
G01 X75.1843 Y55.2608
G01 X75.1728 Y55.2852
G01 X75.1637 Y55.3106
G01 X75.1558 Y55.3415
G01 X75.1513 Y55.3718
G01 X75.1500 Y55.3988
G01 X75.1500 Y55.4250
G00 Z1.0000
G00 X75.1500 Y55.4200
G01 F400.00
G01 Z-0.0400
G01 F2500.00
G01 X75.1500 Y55.4250
G01 X75.1450 Y55.4250
G01 X75.1500 Y55.4250
G00 Z1.0000
G00 X75.6000 Y56.3500
G01 F400.00
G01 Z-0.0400
G01 F2500.00
G01 X75.6000 Y56.6711
G01 X75.5208 Y56.7503
G01 X75.2045 Y56.7526
G01 X75.1118 Y56.7435
G01 X75.0270 Y56.7177
G01 X74.9488 Y56.6760
G01 X74.8803 Y56.6197
G01 X74.8240 Y56.5512
G01 X74.7823 Y56.4730
G01 X74.7565 Y56.3882
G01 X74.7474 Y56.2956
G01 X74.7496 Y56.1044
G01 X74.8289 Y56.0250
G01 X75.1500 Y56.0250
G01 X75.1500 Y56.0512
G01 X75.1513 Y56.0782
G01 X75.1558 Y56.1085
G01 X75.1637 Y56.1394
G01 X75.1728 Y56.1648
G01 X75.1843 Y56.1892
G01 X75.2006 Y56.2167
G01 X75.2197 Y56.2422
G01 X75.2379 Y56.2621
G01 X75.2578 Y56.2803
G01 X75.2823 Y56.2987
G01 X75.3086 Y56.3146
G01 X75.3352 Y56.3272
G01 X75.3629 Y56.3371
G01 X75.3927 Y56.3445
G01 X75.4206 Y56.3486
G01 X75.4488 Y56.3500
G01 X75.6000 Y56.3500
G00 Z1.0000
G00 X75.5950 Y56.3500
G01 F400.00
G01 Z-0.0400
G01 F2500.00
G01 X75.6000 Y56.3500
G01 X75.6000 Y56.3550
G01 X75.6000 Y56.3500
G00 Z1.0000
G00 X76.2000 Y56.3500
G01 F400.00
G01 Z-0.0400
G01 F2500.00
G01 X76.3512 Y56.3500
G01 X76.3794 Y56.3486
G01 X76.4073 Y56.3445
G01 X76.4371 Y56.3371
G01 X76.4648 Y56.3272
G01 X76.4914 Y56.3146
G01 X76.5177 Y56.2987
G01 X76.5422 Y56.2803
G01 X76.5621 Y56.2621
G01 X76.5803 Y56.2422
G01 X76.5994 Y56.2167
G01 X76.6157 Y56.1892
G01 X76.6272 Y56.1648
G01 X76.6363 Y56.1394
G01 X76.6442 Y56.1085
G01 X76.6487 Y56.0782
G01 X76.6500 Y56.0512
G01 X76.6500 Y56.0250
G01 X76.9711 Y56.0250
G01 X77.0504 Y56.1044
G01 X77.0526 Y56.2956
G01 X77.0435 Y56.3882
G01 X77.0177 Y56.4730
G01 X76.9760 Y56.5512
G01 X76.9197 Y56.6197
G01 X76.8512 Y56.6760
G01 X76.7730 Y56.7177
G01 X76.6882 Y56.7435
G01 X76.5955 Y56.7526
G01 X76.2792 Y56.7503
G01 X76.2000 Y56.6711
G01 X76.2000 Y56.3500
G00 Z1.0000
G00 X76.2000 Y56.3550
G01 F400.00
G01 Z-0.0400
G01 F2500.00
G01 X76.2000 Y56.3500
G01 X76.2050 Y56.3500
G01 X76.2000 Y56.3500
G00 Z1.0000
G00 X76.6500 Y55.4250
G01 F400.00
G01 Z-0.0400
G01 F2500.00
G01 X76.6500 Y55.3988
G01 X76.6487 Y55.3718
G01 X76.6442 Y55.3415
G01 X76.6363 Y55.3106
G01 X76.6272 Y55.2852
G01 X76.6157 Y55.2608
G01 X76.5994 Y55.2333
G01 X76.5803 Y55.2078
G01 X76.5621 Y55.1879
G01 X76.5422 Y55.1697
G01 X76.5177 Y55.1513
G01 X76.4914 Y55.1354
G01 X76.4648 Y55.1228
G01 X76.4371 Y55.1129
G01 X76.4073 Y55.1055
G01 X76.3794 Y55.1014
G01 X76.3512 Y55.1000
G01 X76.2000 Y55.1000
G01 X76.2000 Y54.7789
G01 X76.2792 Y54.6997
G01 X76.5955 Y54.6974
G01 X76.6882 Y54.7065
G01 X76.7730 Y54.7323
G01 X76.8512 Y54.7740
G01 X76.9197 Y54.8303
G01 X76.9760 Y54.8988
G01 X77.0177 Y54.9770
G01 X77.0435 Y55.0618
G01 X77.0526 Y55.1544
G01 X77.0504 Y55.3456
G01 X76.9711 Y55.4250
G01 X76.6500 Y55.4250
G00 Z1.0000
G00 X76.6550 Y55.4250
G01 F400.00
G01 Z-0.0400
G01 F2500.00
G01 X76.6500 Y55.4250
G01 X76.6500 Y55.4200
G01 X76.6500 Y55.4250
G00 Z1.0000
G00 X78.1500 Y55.4250
G01 F400.00
G01 Z-0.0400
G01 F2500.00
G01 X77.8289 Y55.4250
G01 X77.7496 Y55.3456
G01 X77.7474 Y55.1544
G01 X77.7565 Y55.0618
G01 X77.7823 Y54.9770
G01 X77.8240 Y54.8988
G01 X77.8803 Y54.8303
G01 X77.9488 Y54.7740
G01 X78.0270 Y54.7323
G01 X78.1118 Y54.7065
G01 X78.2045 Y54.6974
G01 X78.5208 Y54.6997
G01 X78.6000 Y54.7789
G01 X78.6000 Y55.1000
G01 X78.4488 Y55.1000
G01 X78.4206 Y55.1014
G01 X78.3927 Y55.1055
G01 X78.3629 Y55.1129
G01 X78.3352 Y55.1228
G01 X78.3086 Y55.1354
G01 X78.2823 Y55.1513
G01 X78.2578 Y55.1697
G01 X78.2379 Y55.1879
G01 X78.2197 Y55.2078
G01 X78.2006 Y55.2333
G01 X78.1843 Y55.2608
G01 X78.1728 Y55.2852
G01 X78.1637 Y55.3106
G01 X78.1558 Y55.3415
G01 X78.1513 Y55.3718
G01 X78.1500 Y55.3988
G01 X78.1500 Y55.4250
G00 Z1.0000
G00 X78.1500 Y55.4200
G01 F400.00
G01 Z-0.0400
G01 F2500.00
G01 X78.1500 Y55.4250
G01 X78.1450 Y55.4250
G01 X78.1500 Y55.4250
G00 Z1.0000
G00 X78.6000 Y56.3500
G01 F400.00
G01 Z-0.0400
G01 F2500.00
G01 X78.6000 Y56.6711
G01 X78.5208 Y56.7503
G01 X78.2045 Y56.7526
G01 X78.1118 Y56.7435
G01 X78.0270 Y56.7177
G01 X77.9488 Y56.6760
G01 X77.8803 Y56.6197
G01 X77.8240 Y56.5512
G01 X77.7823 Y56.4730
G01 X77.7565 Y56.3882
G01 X77.7474 Y56.2956
G01 X77.7496 Y56.1044
G01 X77.8289 Y56.0250
G01 X78.1500 Y56.0250
G01 X78.1500 Y56.0512
G01 X78.1513 Y56.0782
G01 X78.1558 Y56.1085
G01 X78.1637 Y56.1394
G01 X78.1728 Y56.1648
G01 X78.1843 Y56.1892
G01 X78.2006 Y56.2167
G01 X78.2197 Y56.2422
G01 X78.2379 Y56.2621
G01 X78.2578 Y56.2803
G01 X78.2823 Y56.2987
G01 X78.3086 Y56.3146
G01 X78.3352 Y56.3272
G01 X78.3629 Y56.3371
G01 X78.3927 Y56.3445
G01 X78.4206 Y56.3486
G01 X78.4488 Y56.3500
G01 X78.6000 Y56.3500
G00 Z1.0000
G00 X78.5950 Y56.3500
G01 F400.00
G01 Z-0.0400
G01 F2500.00
G01 X78.6000 Y56.3500
G01 X78.6000 Y56.3550
G01 X78.6000 Y56.3500
G00 Z1.0000
G00 X79.2000 Y56.3500
G01 F400.00
G01 Z-0.0400
G01 F2500.00
G01 X79.3512 Y56.3500
G01 X79.3794 Y56.3486
G01 X79.4073 Y56.3445
G01 X79.4371 Y56.3371
G01 X79.4648 Y56.3272
G01 X79.4914 Y56.3146
G01 X79.5177 Y56.2987
G01 X79.5422 Y56.2803
G01 X79.5621 Y56.2621
G01 X79.5803 Y56.2422
G01 X79.5994 Y56.2167
G01 X79.6157 Y56.1892
G01 X79.6272 Y56.1648
G01 X79.6363 Y56.1394
G01 X79.6442 Y56.1085
G01 X79.6487 Y56.0782
G01 X79.6500 Y56.0512
G01 X79.6500 Y56.0250
G01 X79.9711 Y56.0250
G01 X80.0504 Y56.1044
G01 X80.0526 Y56.2956
G01 X80.0435 Y56.3882
G01 X80.0177 Y56.4730
G01 X79.9760 Y56.5512
G01 X79.9197 Y56.6197
G01 X79.8512 Y56.6760
G01 X79.7730 Y56.7177
G01 X79.6882 Y56.7435
G01 X79.5955 Y56.7526
G01 X79.2792 Y56.7503
G01 X79.2000 Y56.6711
G01 X79.2000 Y56.3500
G00 Z1.0000
G00 X79.2000 Y56.3550
G01 F400.00
G01 Z-0.0400
G01 F2500.00
G01 X79.2000 Y56.3500
G01 X79.2050 Y56.3500
G01 X79.2000 Y56.3500
G00 Z1.0000
G00 X79.6500 Y55.4250
G01 F400.00
G01 Z-0.0400
G01 F2500.00
G01 X79.6500 Y55.3988
G01 X79.6487 Y55.3718
G01 X79.6442 Y55.3415
G01 X79.6363 Y55.3106
G01 X79.6272 Y55.2852
G01 X79.6157 Y55.2608
G01 X79.5994 Y55.2333
G01 X79.5803 Y55.2078
G01 X79.5621 Y55.1879
G01 X79.5422 Y55.1697
G01 X79.5177 Y55.1513
G01 X79.4914 Y55.1354
G01 X79.4648 Y55.1228
G01 X79.4371 Y55.1129
G01 X79.4073 Y55.1055
G01 X79.3794 Y55.1014
G01 X79.3512 Y55.1000
G01 X79.2000 Y55.1000
G01 X79.2000 Y54.7789
G01 X79.2792 Y54.6997
G01 X79.5955 Y54.6974
G01 X79.6882 Y54.7065
G01 X79.7730 Y54.7323
G01 X79.8512 Y54.7740
G01 X79.9197 Y54.8303
G01 X79.9760 Y54.8988
G01 X80.0177 Y54.9770
G01 X80.0435 Y55.0618
G01 X80.0526 Y55.1544
G01 X80.0504 Y55.3456
G01 X79.9711 Y55.4250
G01 X79.6500 Y55.4250
G00 Z1.0000
G00 X79.6550 Y55.4250
G01 F400.00
G01 Z-0.0400
G01 F2500.00
G01 X79.6500 Y55.4250
G01 X79.6500 Y55.4200
G01 X79.6500 Y55.4250
G00 Z1.0000
G00 X81.1500 Y55.4250
G01 F400.00
G01 Z-0.0400
G01 F2500.00
G01 X80.8289 Y55.4250
G01 X80.7496 Y55.3456
G01 X80.7474 Y55.1544
G01 X80.7565 Y55.0618
G01 X80.7823 Y54.9770
G01 X80.8240 Y54.8988
G01 X80.8803 Y54.8303
G01 X80.9488 Y54.7740
G01 X81.0270 Y54.7323
G01 X81.1118 Y54.7065
G01 X81.2045 Y54.6974
G01 X81.5208 Y54.6997
G01 X81.6000 Y54.7789
G01 X81.6000 Y55.1000
G01 X81.4488 Y55.1000
G01 X81.4206 Y55.1014
G01 X81.3927 Y55.1055
G01 X81.3629 Y55.1129
G01 X81.3352 Y55.1228
G01 X81.3086 Y55.1354
G01 X81.2823 Y55.1513
G01 X81.2578 Y55.1697
G01 X81.2379 Y55.1879
G01 X81.2197 Y55.2078
G01 X81.2006 Y55.2333
G01 X81.1843 Y55.2608
G01 X81.1728 Y55.2852
G01 X81.1637 Y55.3106
G01 X81.1558 Y55.3415
G01 X81.1513 Y55.3718
G01 X81.1500 Y55.3988
G01 X81.1500 Y55.4250
G00 Z1.0000
G00 X81.1500 Y55.4200
G01 F400.00
G01 Z-0.0400
G01 F2500.00
G01 X81.1500 Y55.4250
G01 X81.1450 Y55.4250
G01 X81.1500 Y55.4250
G00 Z1.0000
G00 X81.6000 Y56.3500
G01 F400.00
G01 Z-0.0400
G01 F2500.00
G01 X81.6000 Y56.6711
G01 X81.5208 Y56.7503
G01 X81.2045 Y56.7526
G01 X81.1118 Y56.7435
G01 X81.0270 Y56.7177
G01 X80.9488 Y56.6760
G01 X80.8803 Y56.6197
G01 X80.8240 Y56.5512
G01 X80.7823 Y56.4730
G01 X80.7565 Y56.3882
G01 X80.7474 Y56.2956
G01 X80.7496 Y56.1044
G01 X80.8289 Y56.0250
G01 X81.1500 Y56.0250
G01 X81.1500 Y56.0512
G01 X81.1513 Y56.0782
G01 X81.1558 Y56.1085
G01 X81.1637 Y56.1394
G01 X81.1728 Y56.1648
G01 X81.1843 Y56.1892
G01 X81.2006 Y56.2167
G01 X81.2197 Y56.2422
G01 X81.2379 Y56.2621
G01 X81.2578 Y56.2803
G01 X81.2823 Y56.2987
G01 X81.3086 Y56.3146
G01 X81.3352 Y56.3272
G01 X81.3629 Y56.3371
G01 X81.3927 Y56.3445
G01 X81.4206 Y56.3486
G01 X81.4488 Y56.3500
G01 X81.6000 Y56.3500
G00 Z1.0000
G00 X81.5950 Y56.3500
G01 F400.00
G01 Z-0.0400
G01 F2500.00
G01 X81.6000 Y56.3500
G01 X81.6000 Y56.3550
G01 X81.6000 Y56.3500
G00 Z1.0000
G00 X82.2000 Y56.3500
G01 F400.00
G01 Z-0.0400
G01 F2500.00
G01 X82.3512 Y56.3500
G01 X82.3794 Y56.3486
G01 X82.4073 Y56.3445
G01 X82.4371 Y56.3371
G01 X82.4648 Y56.3272
G01 X82.4914 Y56.3146
G01 X82.5177 Y56.2987
G01 X82.5422 Y56.2803
G01 X82.5621 Y56.2621
G01 X82.5803 Y56.2422
G01 X82.5994 Y56.2167
G01 X82.6157 Y56.1892
G01 X82.6272 Y56.1648
G01 X82.6363 Y56.1394
G01 X82.6442 Y56.1085
G01 X82.6487 Y56.0782
G01 X82.6500 Y56.0512
G01 X82.6500 Y56.0250
G01 X82.9711 Y56.0250
G01 X83.0504 Y56.1044
G01 X83.0526 Y56.2956
G01 X83.0435 Y56.3882
G01 X83.0177 Y56.4730
G01 X82.9760 Y56.5512
G01 X82.9197 Y56.6197
G01 X82.8512 Y56.6760
G01 X82.7730 Y56.7177
G01 X82.6882 Y56.7435
G01 X82.5955 Y56.7526
G01 X82.2792 Y56.7503
G01 X82.2000 Y56.6711
G01 X82.2000 Y56.3500
G00 Z1.0000
G00 X82.2000 Y56.3550
G01 F400.00
G01 Z-0.0400
G01 F2500.00
G01 X82.2000 Y56.3500
G01 X82.2050 Y56.3500
G01 X82.2000 Y56.3500
G00 Z1.0000
G00 X82.6500 Y55.4250
G01 F400.00
G01 Z-0.0400
G01 F2500.00
G01 X82.6500 Y55.3988
G01 X82.6487 Y55.3718
G01 X82.6442 Y55.3415
G01 X82.6363 Y55.3106
G01 X82.6272 Y55.2852
G01 X82.6157 Y55.2608
G01 X82.5994 Y55.2333
G01 X82.5803 Y55.2078
G01 X82.5621 Y55.1879
G01 X82.5422 Y55.1697
G01 X82.5177 Y55.1513
G01 X82.4914 Y55.1354
G01 X82.4648 Y55.1228
G01 X82.4371 Y55.1129
G01 X82.4073 Y55.1055
G01 X82.3794 Y55.1014
G01 X82.3512 Y55.1000
G01 X82.2000 Y55.1000
G01 X82.2000 Y54.7789
G01 X82.2792 Y54.6997
G01 X82.5955 Y54.6974
G01 X82.6882 Y54.7065
G01 X82.7730 Y54.7323
G01 X82.8512 Y54.7740
G01 X82.9197 Y54.8303
G01 X82.9760 Y54.8988
G01 X83.0177 Y54.9770
G01 X83.0435 Y55.0618
G01 X83.0526 Y55.1544
G01 X83.0504 Y55.3456
G01 X82.9711 Y55.4250
G01 X82.6500 Y55.4250
G00 Z1.0000
G00 X82.6550 Y55.4250
G01 F400.00
G01 Z-0.0400
G01 F2500.00
G01 X82.6500 Y55.4250
G01 X82.6500 Y55.4200
G01 X82.6500 Y55.4250
G00 Z1.0000
G00 X84.1500 Y55.4250
G01 F400.00
G01 Z-0.0400
G01 F2500.00
G01 X83.8289 Y55.4250
G01 X83.7496 Y55.3456
G01 X83.7474 Y55.1544
G01 X83.7565 Y55.0618
G01 X83.7823 Y54.9770
G01 X83.8240 Y54.8988
G01 X83.8803 Y54.8303
G01 X83.9488 Y54.7740
G01 X84.0270 Y54.7323
G01 X84.1118 Y54.7065
G01 X84.2045 Y54.6974
G01 X84.5208 Y54.6997
G01 X84.6000 Y54.7789
G01 X84.6000 Y55.1000
G01 X84.4488 Y55.1000
G01 X84.4206 Y55.1014
G01 X84.3927 Y55.1055
G01 X84.3629 Y55.1129
G01 X84.3352 Y55.1228
G01 X84.3086 Y55.1354
G01 X84.2823 Y55.1513
G01 X84.2578 Y55.1697
G01 X84.2379 Y55.1879
G01 X84.2197 Y55.2078
G01 X84.2006 Y55.2333
G01 X84.1843 Y55.2608
G01 X84.1728 Y55.2852
G01 X84.1637 Y55.3106
G01 X84.1558 Y55.3415
G01 X84.1513 Y55.3718
G01 X84.1500 Y55.3988
G01 X84.1500 Y55.4250
G00 Z1.0000
G00 X84.1500 Y55.4200
G01 F400.00
G01 Z-0.0400
G01 F2500.00
G01 X84.1500 Y55.4250
G01 X84.1450 Y55.4250
G01 X84.1500 Y55.4250
G00 Z1.0000
G00 X84.6000 Y56.3500
G01 F400.00
G01 Z-0.0400
G01 F2500.00
G01 X84.6000 Y56.6711
G01 X84.5208 Y56.7503
G01 X84.2045 Y56.7526
G01 X84.1118 Y56.7435
G01 X84.0270 Y56.7177
G01 X83.9488 Y56.6760
G01 X83.8803 Y56.6197
G01 X83.8240 Y56.5512
G01 X83.7823 Y56.4730
G01 X83.7565 Y56.3882
G01 X83.7474 Y56.2956
G01 X83.7496 Y56.1044
G01 X83.8289 Y56.0250
G01 X84.1500 Y56.0250
G01 X84.1500 Y56.0512
G01 X84.1513 Y56.0782
G01 X84.1558 Y56.1085
G01 X84.1637 Y56.1394
G01 X84.1728 Y56.1648
G01 X84.1843 Y56.1892
G01 X84.2006 Y56.2167
G01 X84.2197 Y56.2422
G01 X84.2379 Y56.2621
G01 X84.2578 Y56.2803
G01 X84.2823 Y56.2987
G01 X84.3086 Y56.3146
G01 X84.3352 Y56.3272
G01 X84.3629 Y56.3371
G01 X84.3927 Y56.3445
G01 X84.4206 Y56.3486
G01 X84.4488 Y56.3500
G01 X84.6000 Y56.3500
G00 Z1.0000
G00 X84.5950 Y56.3500
G01 F400.00
G01 Z-0.0400
G01 F2500.00
G01 X84.6000 Y56.3500
G01 X84.6000 Y56.3550
G01 X84.6000 Y56.3500
G00 Z1.0000
G00 X85.2000 Y56.3500
G01 F400.00
G01 Z-0.0400
G01 F2500.00
G01 X85.3512 Y56.3500
G01 X85.3794 Y56.3486
G01 X85.4073 Y56.3445
G01 X85.4371 Y56.3371
G01 X85.4648 Y56.3272
G01 X85.4914 Y56.3146
G01 X85.5177 Y56.2987
G01 X85.5422 Y56.2803
G01 X85.5621 Y56.2621
G01 X85.5803 Y56.2422
G01 X85.5994 Y56.2167
G01 X85.6157 Y56.1892
G01 X85.6272 Y56.1648
G01 X85.6363 Y56.1394
G01 X85.6442 Y56.1085
G01 X85.6487 Y56.0782
G01 X85.6500 Y56.0512
G01 X85.6500 Y56.0250
G01 X85.9711 Y56.0250
G01 X86.0504 Y56.1044
G01 X86.0526 Y56.2956
G01 X86.0435 Y56.3882
G01 X86.0177 Y56.4730
G01 X85.9760 Y56.5512
G01 X85.9197 Y56.6197
G01 X85.8512 Y56.6760
G01 X85.7730 Y56.7177
G01 X85.6882 Y56.7435
G01 X85.5955 Y56.7526
G01 X85.2792 Y56.7503
G01 X85.2000 Y56.6711
G01 X85.2000 Y56.3500
G00 Z1.0000
G00 X85.2000 Y56.3550
G01 F400.00
G01 Z-0.0400
G01 F2500.00
G01 X85.2000 Y56.3500
G01 X85.2050 Y56.3500
G01 X85.2000 Y56.3500
G00 Z1.0000
G00 X85.6500 Y55.4250
G01 F400.00
G01 Z-0.0400
G01 F2500.00
G01 X85.6500 Y55.3988
G01 X85.6487 Y55.3718
G01 X85.6442 Y55.3415
G01 X85.6363 Y55.3106
G01 X85.6272 Y55.2852
G01 X85.6157 Y55.2608
G01 X85.5994 Y55.2333
G01 X85.5803 Y55.2078
G01 X85.5621 Y55.1879
G01 X85.5422 Y55.1697
G01 X85.5177 Y55.1513
G01 X85.4914 Y55.1354
G01 X85.4648 Y55.1228
G01 X85.4371 Y55.1129
G01 X85.4073 Y55.1055
G01 X85.3794 Y55.1014
G01 X85.3512 Y55.1000
G01 X85.2000 Y55.1000
G01 X85.2000 Y54.7789
G01 X85.2792 Y54.6997
G01 X85.5955 Y54.6974
G01 X85.6882 Y54.7065
G01 X85.7730 Y54.7323
G01 X85.8512 Y54.7740
G01 X85.9197 Y54.8303
G01 X85.9760 Y54.8988
G01 X86.0177 Y54.9770
G01 X86.0435 Y55.0618
G01 X86.0526 Y55.1544
G01 X86.0504 Y55.3456
G01 X85.9711 Y55.4250
G01 X85.6500 Y55.4250
G00 Z1.0000
G00 X85.6550 Y55.4250
G01 F400.00
G01 Z-0.0400
G01 F2500.00
G01 X85.6500 Y55.4250
G01 X85.6500 Y55.4200
G01 X85.6500 Y55.4250
G00 Z1.0000
G00 X87.1500 Y55.4250
G01 F400.00
G01 Z-0.0400
G01 F2500.00
G01 X86.8289 Y55.4250
G01 X86.7496 Y55.3456
G01 X86.7474 Y55.1544
G01 X86.7565 Y55.0618
G01 X86.7823 Y54.9770
G01 X86.8240 Y54.8988
G01 X86.8803 Y54.8303
G01 X86.9488 Y54.7740
G01 X87.0270 Y54.7323
G01 X87.1118 Y54.7065
G01 X87.2045 Y54.6974
G01 X87.5208 Y54.6997
G01 X87.6000 Y54.7789
G01 X87.6000 Y55.1000
G01 X87.4488 Y55.1000
G01 X87.4206 Y55.1014
G01 X87.3927 Y55.1055
G01 X87.3629 Y55.1129
G01 X87.3352 Y55.1228
G01 X87.3086 Y55.1354
G01 X87.2823 Y55.1513
G01 X87.2578 Y55.1697
G01 X87.2379 Y55.1879
G01 X87.2197 Y55.2078
G01 X87.2006 Y55.2333
G01 X87.1843 Y55.2608
G01 X87.1728 Y55.2852
G01 X87.1637 Y55.3106
G01 X87.1558 Y55.3415
G01 X87.1513 Y55.3718
G01 X87.1500 Y55.3988
G01 X87.1500 Y55.4250
G00 Z1.0000
G00 X87.1500 Y55.4200
G01 F400.00
G01 Z-0.0400
G01 F2500.00
G01 X87.1500 Y55.4250
G01 X87.1450 Y55.4250
G01 X87.1500 Y55.4250
G00 Z1.0000
G00 X87.6000 Y56.3500
G01 F400.00
G01 Z-0.0400
G01 F2500.00
G01 X87.6000 Y56.6711
G01 X87.5208 Y56.7503
G01 X87.2045 Y56.7526
G01 X87.1118 Y56.7435
G01 X87.0270 Y56.7177
G01 X86.9488 Y56.6760
G01 X86.8803 Y56.6197
G01 X86.8240 Y56.5512
G01 X86.7823 Y56.4730
G01 X86.7565 Y56.3882
G01 X86.7474 Y56.2956
G01 X86.7496 Y56.1044
G01 X86.8289 Y56.0250
G01 X87.1500 Y56.0250
G01 X87.1500 Y56.0512
G01 X87.1513 Y56.0782
G01 X87.1558 Y56.1085
G01 X87.1637 Y56.1394
G01 X87.1728 Y56.1648
G01 X87.1843 Y56.1892
G01 X87.2006 Y56.2167
G01 X87.2197 Y56.2422
G01 X87.2379 Y56.2621
G01 X87.2578 Y56.2803
G01 X87.2823 Y56.2987
G01 X87.3086 Y56.3146
G01 X87.3352 Y56.3272
G01 X87.3629 Y56.3371
G01 X87.3927 Y56.3445
G01 X87.4206 Y56.3486
G01 X87.4488 Y56.3500
G01 X87.6000 Y56.3500
G00 Z1.0000
G00 X87.5950 Y56.3500
G01 F400.00
G01 Z-0.0400
G01 F2500.00
G01 X87.6000 Y56.3500
G01 X87.6000 Y56.3550
G01 X87.6000 Y56.3500
G00 Z1.0000
G00 X88.6500 Y56.0250
G01 F400.00
G01 Z-0.0400
G01 F2500.00
G01 X88.9711 Y56.0250
G01 X89.0504 Y56.1044
G01 X89.0526 Y56.2956
G01 X89.0435 Y56.3882
G01 X89.0177 Y56.4730
G01 X88.9760 Y56.5512
G01 X88.9197 Y56.6197
G01 X88.8512 Y56.6760
G01 X88.7730 Y56.7177
G01 X88.6882 Y56.7435
G01 X88.5955 Y56.7526
G01 X88.2792 Y56.7503
G01 X88.2000 Y56.6711
G01 X88.2000 Y56.3500
G01 X88.3512 Y56.3500
G01 X88.3794 Y56.3486
G01 X88.4073 Y56.3445
G01 X88.4371 Y56.3371
G01 X88.4648 Y56.3272
G01 X88.4914 Y56.3146
G01 X88.5177 Y56.2987
G01 X88.5422 Y56.2803
G01 X88.5621 Y56.2621
G01 X88.5803 Y56.2422
G01 X88.5994 Y56.2167
G01 X88.6157 Y56.1892
G01 X88.6272 Y56.1648
G01 X88.6363 Y56.1394
G01 X88.6442 Y56.1085
G01 X88.6487 Y56.0782
G01 X88.6500 Y56.0512
G01 X88.6500 Y56.0250
G00 Z1.0000
G00 X88.6500 Y56.0300
G01 F400.00
G01 Z-0.0400
G01 F2500.00
G01 X88.6500 Y56.0250
G01 X88.6550 Y56.0250
G01 X88.6500 Y56.0250
G00 Z1.0000
G00 X88.6500 Y55.4250
G01 F400.00
G01 Z-0.0400
G01 F2500.00
G01 X88.6500 Y55.3988
G01 X88.6487 Y55.3718
G01 X88.6442 Y55.3415
G01 X88.6363 Y55.3106
G01 X88.6272 Y55.2852
G01 X88.6157 Y55.2608
G01 X88.5994 Y55.2333
G01 X88.5803 Y55.2078
G01 X88.5621 Y55.1879
G01 X88.5422 Y55.1697
G01 X88.5177 Y55.1513
G01 X88.4914 Y55.1354
G01 X88.4648 Y55.1228
G01 X88.4371 Y55.1129
G01 X88.4073 Y55.1055
G01 X88.3794 Y55.1014
G01 X88.3512 Y55.1000
G01 X88.2000 Y55.1000
G01 X88.2000 Y54.7789
G01 X88.2792 Y54.6997
G01 X88.5955 Y54.6974
G01 X88.6882 Y54.7065
G01 X88.7730 Y54.7323
G01 X88.8512 Y54.7740
G01 X88.9197 Y54.8303
G01 X88.9760 Y54.8988
G01 X89.0177 Y54.9770
G01 X89.0435 Y55.0618
G01 X89.0526 Y55.1544
G01 X89.0504 Y55.3456
G01 X88.9711 Y55.4250
G01 X88.6500 Y55.4250
G00 Z1.0000
G00 X88.6550 Y55.4250
G01 F400.00
G01 Z-0.0400
G01 F2500.00
G01 X88.6500 Y55.4250
G01 X88.6500 Y55.4200
G01 X88.6500 Y55.4250
G00 Z1.0000
G00 X87.5498 Y51.0500
G01 F400.00
G01 Z-0.0400
G01 F2500.00
G01 X87.5238 Y51.0500
G01 X87.4821 Y51.0478
G01 X87.4421 Y51.0418
G01 X87.4005 Y51.0313
G01 X87.3624 Y51.0176
G01 X87.3247 Y50.9998
G01 X87.2889 Y50.9784
G01 X87.2563 Y50.9543
G01 X87.2245 Y50.9255
G01 X87.1981 Y50.8965
G01 X87.1703 Y50.8590
G01 X87.1502 Y50.8253
G01 X87.1324 Y50.7876
G01 X87.1183 Y50.7484
G01 X87.1084 Y50.7091
G01 X87.1020 Y50.6667
G01 X87.1000 Y50.6250
G01 X87.1000 Y49.3738
G01 X87.1020 Y49.3333
G01 X87.1082 Y49.2921
G01 X87.1183 Y49.2516
G01 X87.1328 Y49.2112
G01 X87.1514 Y49.1725
G01 X87.1716 Y49.1389
G01 X87.1950 Y49.1073
G01 X87.2245 Y49.0745
G01 X87.2554 Y49.0465
G01 X87.2910 Y49.0203
G01 X87.3247 Y49.0002
G01 X87.3601 Y48.9833
G01 X87.4016 Y48.9683
G01 X87.4433 Y48.9579
G01 X87.4833 Y48.9520
G01 X87.5250 Y48.9500
G01 X88.2762 Y48.9500
G01 X88.3167 Y48.9520
G01 X88.3579 Y48.9582
G01 X88.3984 Y48.9683
G01 X88.4388 Y48.9828
G01 X88.4775 Y49.0014
G01 X88.5111 Y49.0216
G01 X88.5427 Y49.0450
G01 X88.5755 Y49.0745
G01 X88.6035 Y49.1054
G01 X88.6297 Y49.1410
G01 X88.6498 Y49.1747
G01 X88.6667 Y49.2101
G01 X88.6817 Y49.2516
G01 X88.6923 Y49.2945
G01 X88.6980 Y49.3333
G01 X88.7000 Y49.3750
G01 X88.7000 Y50.6250
G01 X88.6980 Y50.6667
G01 X88.6918 Y50.7079
G01 X88.6817 Y50.7484
G01 X88.6676 Y50.7876
G01 X88.6498 Y50.8253
G01 X88.6284 Y50.8611
G01 X88.6035 Y50.8946
G01 X88.5746 Y50.9264
G01 X88.5446 Y50.9535
G01 X88.5111 Y50.9784
G01 X88.4753 Y50.9998
G01 X88.4365 Y51.0181
G01 X88.3984 Y51.0317
G01 X88.3567 Y51.0421
G01 X88.3154 Y51.0481
G01 X88.2762 Y51.0500
G01 X88.2501 Y51.0500
G01 X88.2502 Y53.0500
G01 X88.3512 Y53.0500
G01 X88.3794 Y53.0514
G01 X88.4085 Y53.0558
G01 X88.4371 Y53.0629
G01 X88.4648 Y53.0728
G01 X88.4914 Y53.0854
G01 X88.5167 Y53.1006
G01 X88.5403 Y53.1181
G01 X88.5638 Y53.1396
G01 X88.5819 Y53.1597
G01 X88.5980 Y53.1813
G01 X88.6134 Y53.2064
G01 X88.6272 Y53.2352
G01 X88.6371 Y53.2629
G01 X88.6442 Y53.2915
G01 X88.6487 Y53.3230
G01 X88.6500 Y53.3500
G01 X88.6500 Y54.0000
G01 X88.6486 Y54.0294
G01 X88.6440 Y54.0597
G01 X88.6371 Y54.0871
G01 X88.6280 Y54.1125
G01 X88.6146 Y54.1414
G01 X88.5980 Y54.1687
G01 X88.5819 Y54.1903
G01 X88.5638 Y54.2104
G01 X88.5403 Y54.2319
G01 X88.5146 Y54.2508
G01 X88.4914 Y54.2646
G01 X88.4670 Y54.2762
G01 X88.4359 Y54.2874
G01 X88.4085 Y54.2942
G01 X88.3818 Y54.2983
G01 X88.3500 Y54.3000
G01 X87.4500 Y54.3000
G01 X87.4206 Y54.2986
G01 X87.3939 Y54.2947
G01 X87.3629 Y54.2871
G01 X87.3330 Y54.2762
G01 X87.3086 Y54.2646
G01 X87.2854 Y54.2508
G01 X87.2578 Y54.2303
G01 X87.2379 Y54.2121
G01 X87.2197 Y54.1922
G01 X87.2006 Y54.1667
G01 X87.1854 Y54.1414
G01 X87.1738 Y54.1170
G01 X87.1626 Y54.0859
G01 X87.1558 Y54.0585
G01 X87.1517 Y54.0318
G01 X87.1500 Y54.0012
G01 X87.1500 Y53.3500
G01 X87.1514 Y53.3206
G01 X87.1558 Y53.2915
G01 X87.1629 Y53.2629
G01 X87.1724 Y53.2363
G01 X87.1854 Y53.2086
G01 X87.1992 Y53.1854
G01 X87.2197 Y53.1578
G01 X87.2379 Y53.1379
G01 X87.2597 Y53.1181
G01 X87.2833 Y53.1006
G01 X87.3097 Y53.0849
G01 X87.3352 Y53.0728
G01 X87.3629 Y53.0629
G01 X87.3915 Y53.0558
G01 X87.4182 Y53.0517
G01 X87.4488 Y53.0500
G01 X87.5499 Y53.0500
G01 X87.5498 Y51.0500
G00 Z1.0000
G00 X87.5498 Y51.0550
G01 F400.00
G01 Z-0.0400
G01 F2500.00
G01 X87.5498 Y51.0500
G01 X87.5448 Y51.0500
G01 X87.5498 Y51.0500
G00 Z1.0000
G00 X86.9988 Y50.6201
G01 F400.00
G01 Z-0.0400
G01 F2500.00
G01 X86.9988 Y49.3799
G01 X87.0094 Y49.2724
G01 X87.0393 Y49.1738
G01 X87.0879 Y49.0829
G01 X87.1533 Y49.0033
G01 X87.2329 Y48.9379
G01 X87.3238 Y48.8893
G01 X87.4224 Y48.8594
G01 X87.5299 Y48.8488
G01 X88.2701 Y48.8488
G01 X88.3776 Y48.8594
G01 X88.4762 Y48.8893
G01 X88.5671 Y48.9379
G01 X88.6467 Y49.0033
G01 X88.7121 Y49.0829
G01 X88.7607 Y49.1738
G01 X88.7906 Y49.2724
G01 X88.8012 Y49.3799
G01 X88.8012 Y50.6201
G01 X88.7906 Y50.7276
G01 X88.7607 Y50.8262
G01 X88.7121 Y50.9171
G01 X88.6467 Y50.9967
G01 X88.5671 Y51.0621
G01 X88.4762 Y51.1107
G01 X88.4210 Y51.1274
G01 X88.4129 Y51.1303
G01 X88.4007 Y51.1361
G01 X88.3944 Y51.1400
G01 X88.3875 Y51.1451
G01 X88.3802 Y51.1516
G01 X88.3743 Y51.1578
G01 X88.3655 Y51.1697
G01 X88.3618 Y51.1760
G01 X88.3576 Y51.1849
G01 X88.3543 Y51.1941
G01 X88.3519 Y51.2036
G01 X88.3505 Y51.2133
G01 X88.3500 Y51.2232
G01 X88.3500 Y52.8603
G01 X88.3508 Y52.8713
G01 X88.3519 Y52.8786
G01 X88.3536 Y52.8858
G01 X88.3571 Y52.8962
G01 X88.3618 Y52.9062
G01 X88.3675 Y52.9157
G01 X88.3743 Y52.9244
G01 X88.3810 Y52.9315
G01 X88.3865 Y52.9364
G01 X88.3924 Y52.9408
G01 X88.4039 Y52.9479
G01 X88.4117 Y52.9515
G01 X88.4186 Y52.9540
G01 X88.5033 Y52.9798
G01 X88.5726 Y53.0168
G01 X88.6333 Y53.0667
G01 X88.6832 Y53.1274
G01 X88.7202 Y53.1967
G01 X88.7430 Y53.2718
G01 X88.7512 Y53.3549
G01 X88.7512 Y53.9951
G01 X88.7430 Y54.0782
G01 X88.7202 Y54.1533
G01 X88.6832 Y54.2226
G01 X88.6333 Y54.2833
G01 X88.5726 Y54.3332
G01 X88.5033 Y54.3702
G01 X88.4282 Y54.3930
G01 X88.3451 Y54.4012
G01 X87.4549 Y54.4012
G01 X87.3718 Y54.3930
G01 X87.2967 Y54.3702
G01 X87.2274 Y54.3332
G01 X87.1667 Y54.2833
G01 X87.1168 Y54.2226
G01 X87.0798 Y54.1533
G01 X87.0570 Y54.0782
G01 X87.0488 Y53.9951
G01 X87.0488 Y53.3549
G01 X87.0570 Y53.2718
G01 X87.0798 Y53.1967
G01 X87.1168 Y53.1274
G01 X87.1667 Y53.0667
G01 X87.2274 Y53.0168
G01 X87.2967 Y52.9798
G01 X87.3814 Y52.9540
G01 X87.3883 Y52.9515
G01 X87.3961 Y52.9479
G01 X87.4066 Y52.9416
G01 X87.4135 Y52.9364
G01 X87.4216 Y52.9289
G01 X87.4281 Y52.9216
G01 X87.4345 Y52.9126
G01 X87.4393 Y52.9041
G01 X87.4424 Y52.8974
G01 X87.4449 Y52.8905
G01 X87.4478 Y52.8798
G01 X87.4494 Y52.8701
G01 X87.4500 Y52.8591
G01 X87.4500 Y51.2219
G01 X87.4495 Y51.2133
G01 X87.4478 Y51.2024
G01 X87.4453 Y51.1929
G01 X87.4414 Y51.1826
G01 X87.4382 Y51.1760
G01 X87.4345 Y51.1697
G01 X87.4288 Y51.1616
G01 X87.4216 Y51.1533
G01 X87.4144 Y51.1466
G01 X87.4035 Y51.1387
G01 X87.3961 Y51.1344
G01 X87.3871 Y51.1303
G01 X87.3790 Y51.1274
G01 X87.3238 Y51.1107
G01 X87.2329 Y51.0621
G01 X87.1533 Y50.9967
G01 X87.0879 Y50.9171
G01 X87.0393 Y50.8262
G01 X87.0094 Y50.7276
G01 X86.9988 Y50.6201
G00 Z1.0000
G00 X86.9993 Y50.6251
G01 F400.00
G01 Z-0.0400
G01 F2500.00
G01 X86.9988 Y50.6201
G01 X86.9988 Y50.6151
G01 X86.9988 Y50.6201
G00 Z1.0000
G00 X84.5498 Y51.0500
G01 F400.00
G01 Z-0.0400
G01 F2500.00
G01 X84.5238 Y51.0500
G01 X84.4821 Y51.0478
G01 X84.4421 Y51.0418
G01 X84.4005 Y51.0313
G01 X84.3624 Y51.0176
G01 X84.3247 Y50.9998
G01 X84.2889 Y50.9784
G01 X84.2563 Y50.9543
G01 X84.2245 Y50.9255
G01 X84.1981 Y50.8965
G01 X84.1703 Y50.8590
G01 X84.1502 Y50.8253
G01 X84.1324 Y50.7876
G01 X84.1183 Y50.7484
G01 X84.1084 Y50.7091
G01 X84.1020 Y50.6667
G01 X84.1000 Y50.6250
G01 X84.1000 Y49.3738
G01 X84.1020 Y49.3333
G01 X84.1082 Y49.2921
G01 X84.1183 Y49.2516
G01 X84.1328 Y49.2112
G01 X84.1514 Y49.1725
G01 X84.1716 Y49.1389
G01 X84.1950 Y49.1073
G01 X84.2245 Y49.0745
G01 X84.2554 Y49.0465
G01 X84.2910 Y49.0203
G01 X84.3247 Y49.0002
G01 X84.3601 Y48.9833
G01 X84.4016 Y48.9683
G01 X84.4433 Y48.9579
G01 X84.4833 Y48.9520
G01 X84.5250 Y48.9500
G01 X85.2762 Y48.9500
G01 X85.3167 Y48.9520
G01 X85.3579 Y48.9582
G01 X85.3984 Y48.9683
G01 X85.4388 Y48.9828
G01 X85.4775 Y49.0014
G01 X85.5111 Y49.0216
G01 X85.5427 Y49.0450
G01 X85.5755 Y49.0745
G01 X85.6035 Y49.1054
G01 X85.6297 Y49.1410
G01 X85.6498 Y49.1747
G01 X85.6667 Y49.2101
G01 X85.6817 Y49.2516
G01 X85.6923 Y49.2945
G01 X85.6980 Y49.3333
G01 X85.7000 Y49.3750
G01 X85.7000 Y50.6250
G01 X85.6980 Y50.6667
G01 X85.6918 Y50.7079
G01 X85.6817 Y50.7484
G01 X85.6676 Y50.7876
G01 X85.6498 Y50.8253
G01 X85.6284 Y50.8611
G01 X85.6035 Y50.8946
G01 X85.5746 Y50.9264
G01 X85.5446 Y50.9535
G01 X85.5111 Y50.9784
G01 X85.4753 Y50.9998
G01 X85.4365 Y51.0181
G01 X85.3984 Y51.0317
G01 X85.3567 Y51.0421
G01 X85.3154 Y51.0481
G01 X85.2762 Y51.0500
G01 X85.2501 Y51.0500
G01 X85.2502 Y53.0500
G01 X85.3512 Y53.0500
G01 X85.3794 Y53.0514
G01 X85.4085 Y53.0558
G01 X85.4371 Y53.0629
G01 X85.4648 Y53.0728
G01 X85.4914 Y53.0854
G01 X85.5167 Y53.1006
G01 X85.5403 Y53.1181
G01 X85.5638 Y53.1396
G01 X85.5819 Y53.1597
G01 X85.5980 Y53.1813
G01 X85.6134 Y53.2064
G01 X85.6272 Y53.2352
G01 X85.6371 Y53.2629
G01 X85.6442 Y53.2915
G01 X85.6487 Y53.3230
G01 X85.6500 Y53.3500
G01 X85.6500 Y54.0000
G01 X85.6486 Y54.0294
G01 X85.6440 Y54.0597
G01 X85.6371 Y54.0871
G01 X85.6280 Y54.1125
G01 X85.6146 Y54.1414
G01 X85.5980 Y54.1687
G01 X85.5819 Y54.1903
G01 X85.5638 Y54.2104
G01 X85.5403 Y54.2319
G01 X85.5146 Y54.2508
G01 X85.4914 Y54.2646
G01 X85.4670 Y54.2762
G01 X85.4359 Y54.2874
G01 X85.4085 Y54.2942
G01 X85.3818 Y54.2983
G01 X85.3500 Y54.3000
G01 X84.4500 Y54.3000
G01 X84.4206 Y54.2986
G01 X84.3939 Y54.2947
G01 X84.3629 Y54.2871
G01 X84.3330 Y54.2762
G01 X84.3086 Y54.2646
G01 X84.2854 Y54.2508
G01 X84.2578 Y54.2303
G01 X84.2379 Y54.2121
G01 X84.2197 Y54.1922
G01 X84.2006 Y54.1667
G01 X84.1854 Y54.1414
G01 X84.1738 Y54.1170
G01 X84.1626 Y54.0859
G01 X84.1558 Y54.0585
G01 X84.1517 Y54.0318
G01 X84.1500 Y54.0012
G01 X84.1500 Y53.3500
G01 X84.1514 Y53.3206
G01 X84.1558 Y53.2915
G01 X84.1629 Y53.2629
G01 X84.1724 Y53.2363
G01 X84.1854 Y53.2086
G01 X84.1992 Y53.1854
G01 X84.2197 Y53.1578
G01 X84.2379 Y53.1379
G01 X84.2597 Y53.1181
G01 X84.2833 Y53.1006
G01 X84.3097 Y53.0849
G01 X84.3352 Y53.0728
G01 X84.3629 Y53.0629
G01 X84.3915 Y53.0558
G01 X84.4182 Y53.0517
G01 X84.4488 Y53.0500
G01 X84.5499 Y53.0500
G01 X84.5498 Y51.0500
G00 Z1.0000
G00 X84.5498 Y51.0550
G01 F400.00
G01 Z-0.0400
G01 F2500.00
G01 X84.5498 Y51.0500
G01 X84.5448 Y51.0500
G01 X84.5498 Y51.0500
G00 Z1.0000
G00 X83.9988 Y50.6201
G01 F400.00
G01 Z-0.0400
G01 F2500.00
G01 X83.9988 Y49.3799
G01 X84.0094 Y49.2724
G01 X84.0393 Y49.1738
G01 X84.0879 Y49.0829
G01 X84.1533 Y49.0033
G01 X84.2329 Y48.9379
G01 X84.3238 Y48.8893
G01 X84.4224 Y48.8594
G01 X84.5299 Y48.8488
G01 X85.2701 Y48.8488
G01 X85.3776 Y48.8594
G01 X85.4762 Y48.8893
G01 X85.5671 Y48.9379
G01 X85.6467 Y49.0033
