(G-CODE GENERATED BY FLATCAM v8.992 - www.flatcam.org - Version Date: 2020/05/03)

(Name: MSP430G2553_array-F_05_Cu.gbr_iso_cnc)
(Type: G-code from Geometry)
(Units: MM)

(Created on Saturday, 30 May 2020 at 13:31)

(This preprocessor is the default preprocessor used by FlatCAM.)
(It is made to work with MACH3 compatible motion controllers.)

(TOOL DIAMETER: 0.1 mm)
(Feedrate_XY: 2500.0 mm/min)
(Feedrate_Z: 400.0 mm/min)
(Feedrate rapids 1500.0 mm/min)

(Z_Cut: -0.05 mm)
(Z_Move: 1.0 mm)
(Z Start: None mm)
(Z End: 15.0 mm)
(Steps per circle: 64)
(Preprocessor Geometry: default)

(X range:   60.4750 ...   90.4250  mm)
(Y range:   26.3250 ...   89.8750  mm)

(Spindle Speed: None RPM)
G21
G90
G94



G01 F2500.00
G00 Z1.0000

M03
G00 X66.7501 Y32.0106
G01 F400.00
G01 Z-0.0500
G01 F2500.00
G01 X66.7500 Y31.0725
G01 X66.7489 Y31.0505
G01 X66.7457 Y31.0286
G01 X66.7393 Y31.0024
G01 X66.7311 Y30.9793
G01 X66.7217 Y30.9593
G01 X66.7073 Y30.9350
G01 X66.6933 Y30.9163
G01 X66.6768 Y30.8982
G01 X64.4018 Y28.6232
G01 X64.3846 Y28.6075
G01 X64.3619 Y28.5907
G01 X64.3429 Y28.5794
G01 X64.3207 Y28.5689
G01 X64.2952 Y28.5600
G01 X64.2738 Y28.5547
G01 X64.2495 Y28.5511
G01 X64.2250 Y28.5499
G01 X63.8641 Y28.5499
G01 X63.8605 Y28.5364
G01 X63.8315 Y28.4556
G01 X63.7925 Y28.3736
G01 X63.7483 Y28.3000
G01 X63.6972 Y28.2310
G01 X63.6346 Y28.1619
G01 X63.5710 Y28.1043
G01 X63.5020 Y28.0531
G01 X63.4243 Y28.0063
G01 X63.3444 Y27.9685
G01 X63.2636 Y27.9395
G01 X63.1744 Y27.9171
G01 X63.0882 Y27.9043
G01 X63.0025 Y27.9001
G01 X62.9118 Y27.9043
G01 X62.8220 Y27.9178
G01 X62.7387 Y27.9388
G01 X62.6579 Y27.9676
G01 X62.5757 Y28.0063
G01 X62.4980 Y28.0531
G01 X62.4290 Y28.1043
G01 X62.3654 Y28.1619
G01 X62.3051 Y28.2281
G01 X62.2517 Y28.3000
G01 X62.2063 Y28.3757
G01 X62.1685 Y28.4556
G01 X62.1388 Y28.5387
G01 X62.1173 Y28.6244
G01 X62.1043 Y28.7118
G01 X62.1000 Y28.8000
G01 X62.1043 Y28.8882
G01 X62.1173 Y28.9756
G01 X62.1388 Y29.0613
G01 X62.1685 Y29.1444
G01 X62.2063 Y29.2243
G01 X62.2517 Y29.3000
G01 X62.3043 Y29.3710
G01 X62.3636 Y29.4364
G01 X62.4310 Y29.4972
G01 X62.5000 Y29.5483
G01 X62.5736 Y29.5925
G01 X62.6533 Y29.6305
G01 X62.7387 Y29.6612
G01 X62.8244 Y29.6827
G01 X62.9118 Y29.6957
G01 X63.0025 Y29.6999
G01 X63.0882 Y29.6957
G01 X63.1732 Y29.6831
G01 X63.2601 Y29.6616
G01 X63.3444 Y29.6315
G01 X63.4264 Y29.5925
G01 X63.5000 Y29.5483
G01 X63.5690 Y29.4972
G01 X63.6364 Y29.4364
G01 X63.6972 Y29.3690
G01 X63.7483 Y29.3000
G01 X63.7925 Y29.2264
G01 X63.8315 Y29.1444
G01 X63.8605 Y29.0636
G01 X63.8641 Y29.0501
G01 X64.1214 Y29.0501
G01 X66.2499 Y31.1786
G01 X66.2499 Y32.0106
G01 X66.2397 Y32.0156
G01 X66.1944 Y32.0427
G01 X66.1492 Y32.0765
G01 X66.1111 Y32.1111
G01 X66.0764 Y32.1492
G01 X66.0414 Y32.1965
G01 X66.0149 Y32.2407
G01 X65.9929 Y32.2873
G01 X65.9737 Y32.3404
G01 X65.9601 Y32.3951
G01 X65.9526 Y32.4461
G01 X65.9500 Y32.5000
G01 X65.9529 Y32.5564
G01 X65.9606 Y32.6073
G01 X65.9730 Y32.6573
G01 X65.9919 Y32.7105
G01 X66.0162 Y32.7614
G01 X66.0427 Y32.8056
G01 X66.0733 Y32.8470
G01 X66.1111 Y32.8889
G01 X66.1511 Y32.9252
G01 X66.1924 Y32.9559
G01 X66.2407 Y32.9851
G01 X66.2895 Y33.0081
G01 X66.3403 Y33.0263
G01 X66.3927 Y33.0394
G01 X66.4461 Y33.0474
G01 X66.5000 Y33.0500
G01 X66.5539 Y33.0474
G01 X66.6073 Y33.0394
G01 X66.6597 Y33.0263
G01 X66.7105 Y33.0081
G01 X66.7593 Y32.9851
G01 X66.8056 Y32.9573
G01 X66.8489 Y32.9252
G01 X66.8889 Y32.8889
G01 X66.9252 Y32.8489
G01 X66.9573 Y32.8056
G01 X66.9851 Y32.7593
G01 X67.0081 Y32.7105
G01 X67.0263 Y32.6597
G01 X67.0394 Y32.6073
G01 X67.0474 Y32.5539
G01 X67.0500 Y32.5000
G01 X67.0474 Y32.4461
G01 X67.0394 Y32.3927
G01 X67.0263 Y32.3404
G01 X67.0081 Y32.2895
G01 X66.9851 Y32.2407
G01 X66.9573 Y32.1945
G01 X66.9252 Y32.1511
G01 X66.8889 Y32.1111
G01 X66.8489 Y32.0749
G01 X66.8056 Y32.0427
G01 X66.7603 Y32.0156
G01 X66.7501 Y32.0106
G00 Z1.0000
G00 X66.5000 Y33.1827
G01 F400.00
G01 Z-0.0500
G01 F2500.00
G01 X66.5095 Y33.1735
G01 X66.5194 Y33.1662
G01 X66.5290 Y33.1607
G01 X66.5357 Y33.1576
G01 X66.5426 Y33.1551
G01 X66.5544 Y33.1519
G01 X66.6896 Y33.1250
G01 X66.8079 Y33.0760
G01 X66.9143 Y33.0049
G01 X67.0049 Y32.9144
G01 X67.0760 Y32.8079
G01 X67.1250 Y32.6896
G01 X67.1500 Y32.5640
G01 X67.1500 Y32.4360
G01 X67.1250 Y32.3104
G01 X67.0760 Y32.1921
G01 X67.0049 Y32.0857
G01 X66.9143 Y31.9951
G01 X66.8885 Y31.9775
G01 X66.8776 Y31.9676
G01 X66.8727 Y31.9621
G01 X66.8682 Y31.9563
G01 X66.8618 Y31.9458
G01 X66.8567 Y31.9347
G01 X66.8543 Y31.9277
G01 X66.8522 Y31.9194
G01 X66.8505 Y31.9085
G01 X66.8500 Y31.8987
G01 X66.8500 Y31.0971
G01 X66.8504 Y31.0885
G01 X66.8517 Y31.0750
G01 X66.8449 Y31.0064
G01 X66.8249 Y30.9404
G01 X66.7924 Y30.8796
G01 X66.7487 Y30.8263
G01 X66.7382 Y30.8177
G01 X66.7318 Y30.8119
G01 X64.4881 Y28.5682
G01 X64.4823 Y28.5618
G01 X64.4737 Y28.5513
G01 X64.4204 Y28.5076
G01 X64.3596 Y28.4751
G01 X64.2936 Y28.4551
G01 X64.2250 Y28.4483
G01 X64.2115 Y28.4496
G01 X64.2029 Y28.4500
G01 X64.0042 Y28.4500
G01 X63.9969 Y28.4497
G01 X63.9859 Y28.4483
G01 X63.9752 Y28.4457
G01 X63.9648 Y28.4419
G01 X63.9549 Y28.4370
G01 X63.9487 Y28.4332
G01 X63.9427 Y28.4288
G01 X63.9344 Y28.4216
G01 X63.9269 Y28.4135
G01 X63.9204 Y28.4045
G01 X63.9160 Y28.3972
G01 X63.9123 Y28.3894
G01 X63.8862 Y28.3263
G01 X63.7767 Y28.1626
G01 X63.6374 Y28.0233
G01 X63.4737 Y27.9138
G01 X63.2917 Y27.8385
G01 X63.0985 Y27.8000
G01 X62.9015 Y27.8000
G01 X62.7083 Y27.8385
G01 X62.5263 Y27.9138
G01 X62.3626 Y28.0233
G01 X62.2233 Y28.1626
G01 X62.1138 Y28.3263
G01 X62.0385 Y28.5083
G01 X62.0000 Y28.7015
G01 X62.0000 Y28.8985
G01 X62.0385 Y29.0917
G01 X62.1138 Y29.2737
G01 X62.2233 Y29.4374
G01 X62.3626 Y29.5767
G01 X62.5263 Y29.6862
G01 X62.7083 Y29.7615
G01 X62.9015 Y29.8000
G01 X63.0985 Y29.8000
G01 X63.2917 Y29.7615
G01 X63.4737 Y29.6862
G01 X63.6374 Y29.5767
G01 X63.7767 Y29.4374
G01 X63.8862 Y29.2737
G01 X63.9118 Y29.2117
G01 X63.9160 Y29.2028
G01 X63.9211 Y29.1944
G01 X63.9269 Y29.1865
G01 X63.9335 Y29.1793
G01 X63.9408 Y29.1727
G01 X63.9497 Y29.1662
G01 X63.9593 Y29.1607
G01 X63.9660 Y29.1576
G01 X63.9729 Y29.1551
G01 X63.9835 Y29.1522
G01 X63.9932 Y29.1506
G01 X64.0018 Y29.1500
G01 X64.0386 Y29.1500
G01 X64.0484 Y29.1505
G01 X64.0581 Y29.1519
G01 X64.0676 Y29.1543
G01 X64.0746 Y29.1567
G01 X64.0879 Y29.1630
G01 X64.0952 Y29.1675
G01 X64.1030 Y29.1735
G01 X64.1093 Y29.1793
G01 X66.1207 Y31.1907
G01 X66.1288 Y31.1999
G01 X66.1332 Y31.2058
G01 X66.1370 Y31.2121
G01 X66.1424 Y31.2231
G01 X66.1461 Y31.2335
G01 X66.1481 Y31.2419
G01 X66.1492 Y31.2492
G01 X66.1500 Y31.2602
G01 X66.1500 Y31.8987
G01 X66.1495 Y31.9085
G01 X66.1478 Y31.9194
G01 X66.1457 Y31.9277
G01 X66.1433 Y31.9347
G01 X66.1382 Y31.9458
G01 X66.1318 Y31.9563
G01 X66.1273 Y31.9621
G01 X66.1224 Y31.9676
G01 X66.1115 Y31.9775
G01 X66.0857 Y31.9951
G01 X65.9951 Y32.0857
G01 X65.9240 Y32.1921
G01 X65.8750 Y32.3104
G01 X65.8500 Y32.4360
G01 X65.8500 Y32.5640
G01 X65.8750 Y32.6896
G01 X65.9240 Y32.8079
G01 X65.9951 Y32.9144
G01 X66.0857 Y33.0049
G01 X66.1921 Y33.0760
G01 X66.3104 Y33.1250
G01 X66.4456 Y33.1519
G01 X66.4574 Y33.1551
G01 X66.4643 Y33.1576
G01 X66.4710 Y33.1607
G01 X66.4806 Y33.1662
G01 X66.4905 Y33.1735
G01 X66.5000 Y33.1827
G00 Z1.0000
G00 X67.1500 Y34.0640
G01 F400.00
G01 Z-0.0500
G01 F2500.00
G01 X67.1500 Y33.9360
G01 X67.1250 Y33.8104
G01 X67.0760 Y33.6921
G01 X67.0049 Y33.5857
G01 X66.9143 Y33.4951
G01 X66.8079 Y33.4240
G01 X66.6896 Y33.3750
G01 X66.5544 Y33.3481
G01 X66.5449 Y33.3457
G01 X66.5334 Y33.3414
G01 X66.5268 Y33.3382
G01 X66.5194 Y33.3338
G01 X66.5095 Y33.3265
G01 X66.5000 Y33.3173
G01 X66.4905 Y33.3265
G01 X66.4806 Y33.3338
G01 X66.4710 Y33.3393
G01 X66.4643 Y33.3424
G01 X66.4574 Y33.3450
G01 X66.4456 Y33.3481
G01 X66.3104 Y33.3750
G01 X66.1921 Y33.4240
G01 X66.0857 Y33.4951
G01 X65.9951 Y33.5857
G01 X65.9804 Y33.6076
G01 X65.9760 Y33.6134
G01 X65.9694 Y33.6207
G01 X65.9621 Y33.6273
G01 X65.9542 Y33.6332
G01 X65.9458 Y33.6382
G01 X65.9369 Y33.6424
G01 X65.9277 Y33.6457
G01 X65.9206 Y33.6476
G01 X65.9072 Y33.6496
G01 X65.8987 Y33.6500
G01 X65.8464 Y33.6500
G01 X65.8354 Y33.6494
G01 X65.8269 Y33.6481
G01 X65.8173 Y33.6457
G01 X65.8081 Y33.6424
G01 X65.8014 Y33.6393
G01 X65.7898 Y33.6325
G01 X65.7829 Y33.6273
G01 X65.7757 Y33.6207
G01 X63.9576 Y31.8026
G01 X63.9510 Y31.7954
G01 X63.9465 Y31.7895
G01 X63.9407 Y31.7801
G01 X63.9364 Y31.7713
G01 X63.9326 Y31.7609
G01 X63.9305 Y31.7526
G01 X63.9288 Y31.7417
G01 X63.9283 Y31.7331
G01 X63.9287 Y31.7233
G01 X63.9298 Y31.7148
G01 X63.9322 Y31.7040
G01 X63.9354 Y31.6948
G01 X63.9615 Y31.6317
G01 X64.0000 Y31.4385
G01 X64.0000 Y31.2415
G01 X63.9615 Y31.0483
G01 X63.8862 Y30.8663
G01 X63.7767 Y30.7026
G01 X63.6374 Y30.5633
G01 X63.4737 Y30.4538
G01 X63.2917 Y30.3785
G01 X63.0985 Y30.3400
G01 X62.9015 Y30.3400
G01 X62.7083 Y30.3785
G01 X62.5263 Y30.4538
G01 X62.3626 Y30.5633
G01 X62.2233 Y30.7026
G01 X62.1138 Y30.8663
G01 X62.0385 Y31.0483
G01 X62.0000 Y31.2415
G01 X62.0000 Y31.4385
G01 X62.0385 Y31.6317
G01 X62.1138 Y31.8137
G01 X62.2233 Y31.9774
G01 X62.3626 Y32.1167
G01 X62.5263 Y32.2262
G01 X62.7083 Y32.3015
G01 X62.9015 Y32.3400
G01 X63.0985 Y32.3400
G01 X63.2917 Y32.3015
G01 X63.3548 Y32.2754
G01 X63.3640 Y32.2722
G01 X63.3748 Y32.2698
G01 X63.3833 Y32.2687
G01 X63.3931 Y32.2683
G01 X63.4017 Y32.2688
G01 X63.4126 Y32.2705
G01 X63.4209 Y32.2726
G01 X63.4302 Y32.2759
G01 X63.4391 Y32.2801
G01 X63.4485 Y32.2858
G01 X63.4554 Y32.2910
G01 X63.4626 Y32.2976
G01 X65.3969 Y34.2318
G01 X65.4027 Y34.2382
G01 X65.4113 Y34.2487
G01 X65.4646 Y34.2924
G01 X65.5254 Y34.3249
G01 X65.5914 Y34.3449
G01 X65.6600 Y34.3517
G01 X65.6735 Y34.3503
G01 X65.6821 Y34.3500
G01 X65.8987 Y34.3500
G01 X65.9085 Y34.3504
G01 X65.9158 Y34.3515
G01 X65.9289 Y34.3546
G01 X65.9381 Y34.3581
G01 X65.9479 Y34.3630
G01 X65.9542 Y34.3668
G01 X65.9602 Y34.3712
G01 X65.9685 Y34.3784
G01 X65.9752 Y34.3856
G01 X65.9804 Y34.3924
G01 X65.9951 Y34.4143
G01 X66.0857 Y34.5049
G01 X66.1921 Y34.5760
G01 X66.3104 Y34.6250
G01 X66.4360 Y34.6500
G01 X66.5640 Y34.6500
G01 X66.6896 Y34.6250
G01 X66.8079 Y34.5760
G01 X66.9143 Y34.5049
G01 X67.0049 Y34.4143
G01 X67.0760 Y34.3079
G01 X67.1250 Y34.1896
G01 X67.1500 Y34.0640
G00 Z1.0000
G00 X66.0105 Y34.2501
G01 F400.00
G01 Z-0.0500
G01 F2500.00
G01 X66.0155 Y34.2603
G01 X66.0427 Y34.3056
G01 X66.0748 Y34.3489
G01 X66.1111 Y34.3889
G01 X66.1511 Y34.4251
G01 X66.1944 Y34.4573
G01 X66.2407 Y34.4850
G01 X66.2895 Y34.5081
G01 X66.3403 Y34.5263
G01 X66.3927 Y34.5394
G01 X66.4461 Y34.5473
G01 X66.5000 Y34.5500
G01 X66.5539 Y34.5473
G01 X66.6073 Y34.5394
G01 X66.6597 Y34.5263
G01 X66.7105 Y34.5081
G01 X66.7593 Y34.4850
G01 X66.8056 Y34.4573
G01 X66.8489 Y34.4251
G01 X66.8889 Y34.3889
G01 X66.9252 Y34.3489
G01 X66.9573 Y34.3056
G01 X66.9851 Y34.2593
G01 X67.0081 Y34.2105
G01 X67.0263 Y34.1596
G01 X67.0394 Y34.1073
G01 X67.0474 Y34.0539
G01 X67.0500 Y34.0000
G01 X67.0474 Y33.9461
G01 X67.0394 Y33.8927
G01 X67.0263 Y33.8403
G01 X67.0081 Y33.7895
G01 X66.9851 Y33.7407
G01 X66.9559 Y33.6924
G01 X66.9252 Y33.6511
G01 X66.8906 Y33.6129
G01 X66.8489 Y33.5748
G01 X66.8035 Y33.5414
G01 X66.7593 Y33.5149
G01 X66.7127 Y33.4929
G01 X66.6597 Y33.4737
G01 X66.6073 Y33.4606
G01 X66.5563 Y33.4529
G01 X66.5000 Y33.4500
G01 X66.4437 Y33.4529
G01 X66.3927 Y33.4606
G01 X66.3403 Y33.4737
G01 X66.2873 Y33.4929
G01 X66.2407 Y33.5149
G01 X66.1965 Y33.5414
G01 X66.1492 Y33.5764
G01 X66.1111 Y33.6111
G01 X66.0764 Y33.6492
G01 X66.0427 Y33.6944
G01 X66.0155 Y33.7396
G01 X66.0105 Y33.7499
G01 X65.7636 Y33.7499
G01 X63.7879 Y31.7742
G01 X63.7948 Y31.7621
G01 X63.8324 Y31.6821
G01 X63.8612 Y31.6013
G01 X63.8831 Y31.5132
G01 X63.8957 Y31.4282
G01 X63.9000 Y31.3400
G01 X63.8957 Y31.2518
G01 X63.8822 Y31.1620
G01 X63.8612 Y31.0787
G01 X63.8315 Y30.9956
G01 X63.7937 Y30.9157
G01 X63.7483 Y30.8400
G01 X63.6957 Y30.7690
G01 X63.6364 Y30.7036
G01 X63.5710 Y30.6443
G01 X63.5000 Y30.5917
G01 X63.4243 Y30.5463
G01 X63.3467 Y30.5095
G01 X63.2589 Y30.4781
G01 X63.1756 Y30.4573
G01 X63.0882 Y30.4443
G01 X63.0000 Y30.4400
G01 X62.9118 Y30.4443
G01 X62.8244 Y30.4573
G01 X62.7387 Y30.4788
G01 X62.6556 Y30.5085
G01 X62.5779 Y30.5452
G01 X62.4980 Y30.5931
G01 X62.4290 Y30.6443
G01 X62.3627 Y30.7045
G01 X62.3043 Y30.7690
G01 X62.2517 Y30.8400
G01 X62.2063 Y30.9157
G01 X62.1685 Y30.9956
G01 X62.1388 Y31.0787
G01 X62.1173 Y31.1644
G01 X62.1043 Y31.2518
G01 X62.1000 Y31.3400
G01 X62.1043 Y31.4282
G01 X62.1173 Y31.5156
G01 X62.1388 Y31.6013
G01 X62.1685 Y31.6844
G01 X62.2063 Y31.7643
G01 X62.2517 Y31.8400
G01 X62.3043 Y31.9110
G01 X62.3645 Y31.9773
G01 X62.4290 Y32.0357
G01 X62.4980 Y32.0869
G01 X62.5779 Y32.1348
G01 X62.6556 Y32.1715
G01 X62.7387 Y32.2012
G01 X62.8244 Y32.2227
G01 X62.9093 Y32.2354
G01 X63.0025 Y32.2399
G01 X63.0882 Y32.2357
G01 X63.1756 Y32.2227
G01 X63.2613 Y32.2012
G01 X63.3421 Y32.1724
G01 X63.4221 Y32.1348
G01 X63.4342 Y32.1279
G01 X65.4831 Y34.1768
G01 X65.5013 Y34.1933
G01 X65.5210 Y34.2079
G01 X65.5400 Y34.2193
G01 X65.5643 Y34.2311
G01 X65.5898 Y34.2400
G01 X65.6112 Y34.2453
G01 X65.6343 Y34.2488
G01 X65.6600 Y34.2501
G01 X66.0105 Y34.2501
G00 Z1.0000
G00 X66.0105 Y36.7501
G01 F400.00
G01 Z-0.0500
G01 F2500.00
G01 X66.0155 Y36.7603
G01 X66.0427 Y36.8056
G01 X66.0748 Y36.8489
G01 X66.1111 Y36.8889
G01 X66.1511 Y36.9252
G01 X66.1944 Y36.9573
G01 X66.2407 Y36.9851
G01 X66.2895 Y37.0081
G01 X66.3403 Y37.0263
G01 X66.3927 Y37.0394
G01 X66.4461 Y37.0474
G01 X66.5000 Y37.0500
G01 X66.5539 Y37.0474
G01 X66.6073 Y37.0394
G01 X66.6597 Y37.0263
G01 X66.7105 Y37.0081
G01 X66.7593 Y36.9851
G01 X66.8056 Y36.9573
G01 X66.8489 Y36.9252
G01 X66.8889 Y36.8889
G01 X66.9252 Y36.8489
G01 X66.9573 Y36.8056
G01 X66.9851 Y36.7593
G01 X67.0081 Y36.7105
G01 X67.0263 Y36.6597
G01 X67.0394 Y36.6073
G01 X67.0474 Y36.5539
G01 X67.0500 Y36.5000
G01 X67.0474 Y36.4461
G01 X67.0394 Y36.3927
G01 X67.0263 Y36.3403
G01 X67.0081 Y36.2895
G01 X66.9851 Y36.2407
G01 X66.9573 Y36.1944
G01 X66.9267 Y36.1530
G01 X66.8889 Y36.1111
G01 X66.8470 Y36.0733
G01 X66.8056 Y36.0427
G01 X66.7614 Y36.0162
G01 X66.7105 Y35.9919
G01 X66.6573 Y35.9730
G01 X66.6073 Y35.9606
G01 X66.5563 Y35.9529
G01 X66.5000 Y35.9500
G01 X66.4437 Y35.9529
G01 X66.3927 Y35.9606
G01 X66.3403 Y35.9737
G01 X66.2873 Y35.9929
G01 X66.2407 Y36.0149
G01 X66.1965 Y36.0414
G01 X66.1492 Y36.0764
G01 X66.1111 Y36.1111
G01 X66.0764 Y36.1492
G01 X66.0427 Y36.1944
G01 X66.0155 Y36.2397
G01 X66.0105 Y36.2499
G01 X65.7236 Y36.2499
G01 X63.7879 Y34.3142
G01 X63.7948 Y34.3021
G01 X63.8324 Y34.2221
G01 X63.8612 Y34.1413
G01 X63.8831 Y34.0532
G01 X63.8957 Y33.9682
G01 X63.9000 Y33.8800
G01 X63.8957 Y33.7918
G01 X63.8822 Y33.7020
G01 X63.8612 Y33.6187
G01 X63.8315 Y33.5356
G01 X63.7937 Y33.4557
G01 X63.7483 Y33.3800
G01 X63.6957 Y33.3090
G01 X63.6364 Y33.2436
G01 X63.5710 Y33.1843
G01 X63.4990 Y33.1310
G01 X63.4243 Y33.0863
G01 X63.3444 Y33.0485
G01 X63.2613 Y33.0188
G01 X63.1780 Y32.9978
G01 X63.0858 Y32.9842
G01 X63.0000 Y32.9800
G01 X62.9118 Y32.9843
G01 X62.8244 Y32.9973
G01 X62.7387 Y33.0188
G01 X62.6556 Y33.0485
G01 X62.5779 Y33.0852
G01 X62.4980 Y33.1331
G01 X62.4290 Y33.1843
G01 X62.3627 Y33.2445
G01 X62.3043 Y33.3090
G01 X62.2517 Y33.3800
G01 X62.2063 Y33.4557
G01 X62.1685 Y33.5356
G01 X62.1388 Y33.6187
G01 X62.1173 Y33.7044
G01 X62.1043 Y33.7918
G01 X62.1000 Y33.8800
G01 X62.1043 Y33.9682
G01 X62.1173 Y34.0556
G01 X62.1388 Y34.1413
G01 X62.1685 Y34.2244
G01 X62.2063 Y34.3043
G01 X62.2517 Y34.3800
G01 X62.3043 Y34.4510
G01 X62.3645 Y34.5173
G01 X62.4290 Y34.5757
G01 X62.4980 Y34.6269
G01 X62.5779 Y34.6748
G01 X62.6556 Y34.7115
G01 X62.7387 Y34.7412
G01 X62.8244 Y34.7627
G01 X62.9093 Y34.7754
G01 X63.0025 Y34.7799
G01 X63.0882 Y34.7757
G01 X63.1756 Y34.7627
G01 X63.2613 Y34.7412
G01 X63.3421 Y34.7124
G01 X63.4221 Y34.6748
G01 X63.4342 Y34.6679
G01 X65.4432 Y36.6768
G01 X65.4613 Y36.6933
G01 X65.4811 Y36.7080
G01 X65.5000 Y36.7194
G01 X65.5243 Y36.7311
G01 X65.5498 Y36.7400
G01 X65.5712 Y36.7453
G01 X65.5955 Y36.7489
G01 X65.6200 Y36.7501
G01 X66.0105 Y36.7501
G00 Z1.0000
G00 X67.1500 Y36.5640
G01 F400.00
G01 Z-0.0500
G01 F2500.00
G01 X67.1500 Y36.4360
G01 X67.1250 Y36.3104
G01 X67.0760 Y36.1921
G01 X67.0049 Y36.0857
G01 X66.9143 Y35.9951
G01 X66.8079 Y35.9240
G01 X66.6896 Y35.8750
G01 X66.5640 Y35.8500
G01 X66.4360 Y35.8500
G01 X66.3104 Y35.8750
G01 X66.1921 Y35.9240
G01 X66.0857 Y35.9951
G01 X65.9951 Y36.0857
G01 X65.9804 Y36.1076
G01 X65.9760 Y36.1135
G01 X65.9694 Y36.1207
G01 X65.9621 Y36.1273
G01 X65.9542 Y36.1332
G01 X65.9458 Y36.1382
G01 X65.9381 Y36.1419
G01 X65.9289 Y36.1453
G01 X65.9206 Y36.1476
G01 X65.9060 Y36.1497
G01 X65.8987 Y36.1500
G01 X65.8064 Y36.1500
G01 X65.7966 Y36.1495
G01 X65.7869 Y36.1481
G01 X65.7785 Y36.1461
G01 X65.7659 Y36.1414
G01 X65.7592 Y36.1382
G01 X65.7508 Y36.1332
G01 X65.7429 Y36.1273
G01 X65.7365 Y36.1216
G01 X63.9576 Y34.3426
G01 X63.9510 Y34.3354
G01 X63.9465 Y34.3295
G01 X63.9407 Y34.3201
G01 X63.9364 Y34.3113
G01 X63.9326 Y34.3009
G01 X63.9305 Y34.2926
G01 X63.9288 Y34.2817
G01 X63.9283 Y34.2731
G01 X63.9287 Y34.2633
G01 X63.9298 Y34.2548
G01 X63.9322 Y34.2440
G01 X63.9354 Y34.2348
G01 X63.9615 Y34.1717
G01 X64.0000 Y33.9785
G01 X64.0000 Y33.7815
G01 X63.9615 Y33.5883
G01 X63.8862 Y33.4063
G01 X63.7767 Y33.2426
G01 X63.6374 Y33.1033
G01 X63.4737 Y32.9938
G01 X63.2917 Y32.9185
G01 X63.0985 Y32.8800
G01 X62.9015 Y32.8800
G01 X62.7083 Y32.9185
G01 X62.5263 Y32.9938
G01 X62.3626 Y33.1033
G01 X62.2233 Y33.2426
G01 X62.1138 Y33.4063
G01 X62.0385 Y33.5883
G01 X62.0000 Y33.7815
G01 X62.0000 Y33.9785
G01 X62.0385 Y34.1717
G01 X62.1138 Y34.3537
G01 X62.2233 Y34.5174
G01 X62.3626 Y34.6567
G01 X62.5263 Y34.7662
G01 X62.7083 Y34.8415
G01 X62.9015 Y34.8800
G01 X63.0985 Y34.8800
G01 X63.2917 Y34.8415
G01 X63.3548 Y34.8154
G01 X63.3640 Y34.8122
G01 X63.3748 Y34.8098
G01 X63.3833 Y34.8087
G01 X63.3931 Y34.8083
G01 X63.4017 Y34.8088
G01 X63.4126 Y34.8105
G01 X63.4209 Y34.8126
G01 X63.4302 Y34.8159
G01 X63.4391 Y34.8201
G01 X63.4485 Y34.8258
G01 X63.4554 Y34.8310
G01 X63.4626 Y34.8376
G01 X65.3569 Y36.7318
G01 X65.3627 Y36.7382
G01 X65.3713 Y36.7487
G01 X65.4246 Y36.7924
G01 X65.4854 Y36.8249
G01 X65.5514 Y36.8449
G01 X65.6200 Y36.8517
G01 X65.6335 Y36.8504
G01 X65.6421 Y36.8500
G01 X65.8987 Y36.8500
G01 X65.9109 Y36.8508
G01 X65.9182 Y36.8519
G01 X65.9277 Y36.8543
G01 X65.9381 Y36.8581
G01 X65.9479 Y36.8630
G01 X65.9542 Y36.8668
G01 X65.9602 Y36.8712
G01 X65.9685 Y36.8784
G01 X65.9752 Y36.8856
G01 X65.9804 Y36.8924
G01 X65.9951 Y36.9143
G01 X66.0857 Y37.0049
G01 X66.1921 Y37.0760
G01 X66.3104 Y37.1250
G01 X66.4360 Y37.1500
G01 X66.5640 Y37.1500
G01 X66.6896 Y37.1250
G01 X66.8079 Y37.0760
G01 X66.9143 Y37.0049
G01 X67.0049 Y36.9143
G01 X67.0760 Y36.8079
G01 X67.1250 Y36.6896
G01 X67.1500 Y36.5640
G00 Z1.0000
G00 X67.2501 Y41.0105
G01 F400.00
G01 Z-0.0500
G01 F2500.00
G01 X67.2501 Y40.4200
G01 X67.2490 Y40.3967
G01 X67.2448 Y40.3688
G01 X67.2393 Y40.3474
G01 X67.2311 Y40.3243
G01 X67.2194 Y40.3000
G01 X67.2080 Y40.2811
G01 X67.1933 Y40.2613
G01 X67.1768 Y40.2432
G01 X63.7879 Y36.8542
G01 X63.7948 Y36.8421
G01 X63.8324 Y36.7621
G01 X63.8612 Y36.6813
G01 X63.8827 Y36.5956
G01 X63.8957 Y36.5082
G01 X63.8999 Y36.4225
G01 X63.8954 Y36.3293
G01 X63.8827 Y36.2444
G01 X63.8612 Y36.1587
G01 X63.8315 Y36.0756
G01 X63.7948 Y35.9979
G01 X63.7469 Y35.9180
G01 X63.6957 Y35.8490
G01 X63.6373 Y35.7845
G01 X63.5710 Y35.7243
G01 X63.5000 Y35.6717
G01 X63.4243 Y35.6263
G01 X63.3444 Y35.5885
G01 X63.2613 Y35.5588
G01 X63.1756 Y35.5373
G01 X63.0882 Y35.5243
G01 X63.0000 Y35.5200
G01 X62.9118 Y35.5243
G01 X62.8244 Y35.5373
G01 X62.7387 Y35.5588
G01 X62.6556 Y35.5885
G01 X62.5757 Y35.6263
G01 X62.5000 Y35.6717
G01 X62.4290 Y35.7243
G01 X62.3645 Y35.7827
G01 X62.3043 Y35.8490
G01 X62.2517 Y35.9200
G01 X62.2063 Y35.9957
G01 X62.1685 Y36.0756
G01 X62.1388 Y36.1587
G01 X62.1173 Y36.2444
G01 X62.1043 Y36.3318
G01 X62.1000 Y36.4200
G01 X62.1043 Y36.5082
G01 X62.1173 Y36.5956
G01 X62.1388 Y36.6813
G01 X62.1685 Y36.7644
G01 X62.2063 Y36.8443
G01 X62.2517 Y36.9200
G01 X62.3043 Y36.9910
G01 X62.3619 Y37.0546
G01 X62.4290 Y37.1157
G01 X62.4980 Y37.1669
G01 X62.5779 Y37.2148
G01 X62.6556 Y37.2515
G01 X62.7387 Y37.2812
G01 X62.8244 Y37.3027
G01 X62.9093 Y37.3154
G01 X63.0025 Y37.3199
G01 X63.0882 Y37.3157
G01 X63.1756 Y37.3027
G01 X63.2613 Y37.2812
G01 X63.3421 Y37.2524
G01 X63.4221 Y37.2148
G01 X63.4342 Y37.2079
G01 X66.7499 Y40.5236
G01 X66.7499 Y41.0105
G01 X66.7397 Y41.0155
G01 X66.6944 Y41.0427
G01 X66.6492 Y41.0764
G01 X66.6111 Y41.1111
G01 X66.5764 Y41.1492
G01 X66.5414 Y41.1965
G01 X66.5149 Y41.2407
G01 X66.4929 Y41.2873
G01 X66.4737 Y41.3403
G01 X66.4601 Y41.3951
G01 X66.4526 Y41.4461
G01 X66.4500 Y41.5000
G01 X66.4529 Y41.5563
G01 X66.4606 Y41.6073
G01 X66.4730 Y41.6573
G01 X66.4919 Y41.7105
G01 X66.5162 Y41.7614
G01 X66.5427 Y41.8056
G01 X66.5733 Y41.8470
G01 X66.6111 Y41.8889
G01 X66.6511 Y41.9252
G01 X66.6924 Y41.9559
G01 X66.7407 Y41.9851
G01 X66.7895 Y42.0081
G01 X66.8403 Y42.0263
G01 X66.8927 Y42.0394
G01 X66.9461 Y42.0473
G01 X67.0000 Y42.0500
G01 X67.0539 Y42.0473
G01 X67.1073 Y42.0394
G01 X67.1597 Y42.0263
G01 X67.2105 Y42.0081
G01 X67.2593 Y41.9851
G01 X67.3056 Y41.9573
G01 X67.3489 Y41.9252
G01 X67.3889 Y41.8889
G01 X67.4252 Y41.8489
G01 X67.4573 Y41.8056
G01 X67.4851 Y41.7593
G01 X67.5081 Y41.7105
G01 X67.5263 Y41.6597
G01 X67.5394 Y41.6073
G01 X67.5474 Y41.5539
G01 X67.5500 Y41.5000
G01 X67.5474 Y41.4461
G01 X67.5394 Y41.3927
G01 X67.5263 Y41.3403
G01 X67.5081 Y41.2895
G01 X67.4851 Y41.2407
G01 X67.4573 Y41.1944
G01 X67.4252 Y41.1511
G01 X67.3889 Y41.1111
G01 X67.3489 Y41.0748
G01 X67.3056 Y41.0427
G01 X67.2603 Y41.0155
G01 X67.2501 Y41.0105
G00 Z1.0000
G00 X66.8619 Y42.4682
G01 F400.00
G01 Z-0.0500
G01 F2500.00
G01 X63.7879 Y39.3942
G01 X63.7948 Y39.3821
G01 X63.8324 Y39.3021
G01 X63.8612 Y39.2213
G01 X63.8827 Y39.1356
G01 X63.8957 Y39.0482
G01 X63.8999 Y38.9625
G01 X63.8954 Y38.8693
G01 X63.8827 Y38.7844
G01 X63.8612 Y38.6987
G01 X63.8315 Y38.6156
G01 X63.7948 Y38.5379
G01 X63.7483 Y38.4600
G01 X63.6972 Y38.3910
G01 X63.6346 Y38.3219
G01 X63.5710 Y38.2643
G01 X63.5000 Y38.2117
G01 X63.4243 Y38.1663
G01 X63.3444 Y38.1285
G01 X63.2613 Y38.0988
G01 X63.1756 Y38.0773
G01 X63.0882 Y38.0643
G01 X63.0000 Y38.0600
G01 X62.9118 Y38.0643
G01 X62.8244 Y38.0773
G01 X62.7387 Y38.0988
G01 X62.6556 Y38.1285
G01 X62.5757 Y38.1663
G01 X62.5000 Y38.2117
G01 X62.4290 Y38.2643
G01 X62.3619 Y38.3254
G01 X62.3043 Y38.3890
G01 X62.2517 Y38.4600
G01 X62.2063 Y38.5357
G01 X62.1685 Y38.6156
G01 X62.1388 Y38.6987
G01 X62.1173 Y38.7844
G01 X62.1043 Y38.8718
G01 X62.1000 Y38.9600
G01 X62.1043 Y39.0482
G01 X62.1173 Y39.1356
G01 X62.1388 Y39.2213
G01 X62.1685 Y39.3044
G01 X62.2063 Y39.3843
G01 X62.2517 Y39.4600
G01 X62.3043 Y39.5310
G01 X62.3619 Y39.5946
G01 X62.4290 Y39.6557
G01 X62.4980 Y39.7069
G01 X62.5779 Y39.7548
G01 X62.6556 Y39.7915
G01 X62.7387 Y39.8212
G01 X62.8244 Y39.8427
G01 X62.9093 Y39.8554
G01 X63.0025 Y39.8599
G01 X63.0882 Y39.8557
G01 X63.1756 Y39.8427
G01 X63.2613 Y39.8212
G01 X63.3421 Y39.7924
G01 X63.4221 Y39.7548
G01 X63.4342 Y39.7479
G01 X66.4876 Y42.8013
G01 X66.4737 Y42.8403
G01 X66.4611 Y42.8903
G01 X66.4526 Y42.9461
G01 X66.4501 Y43.0025
G01 X66.4526 Y43.0539
G01 X66.4606 Y43.1073
G01 X66.4737 Y43.1597
G01 X66.4910 Y43.2082
G01 X66.5149 Y43.2593
G01 X66.5441 Y43.3076
G01 X66.5748 Y43.3489
G01 X66.6111 Y43.3889
G01 X66.6530 Y43.4267
G01 X66.6944 Y43.4573
G01 X66.7386 Y43.4838
G01 X66.7895 Y43.5081
G01 X66.8427 Y43.5270
G01 X66.8927 Y43.5394
G01 X66.9437 Y43.5471
G01 X67.0000 Y43.5500
G01 X67.0563 Y43.5471
G01 X67.1073 Y43.5394
G01 X67.1585 Y43.5267
G01 X67.2105 Y43.5081
G01 X67.2593 Y43.4851
G01 X67.3056 Y43.4573
G01 X67.3489 Y43.4252
G01 X67.3889 Y43.3889
G01 X67.4252 Y43.3489
G01 X67.4573 Y43.3056
G01 X67.4851 Y43.2593
G01 X67.5081 Y43.2105
G01 X67.5263 Y43.1597
G01 X67.5394 Y43.1073
G01 X67.5474 Y43.0539
G01 X67.5500 Y43.0000
G01 X67.5474 Y42.9461
G01 X67.5394 Y42.8927
G01 X67.5267 Y42.8415
G01 X67.5081 Y42.7895
G01 X67.4851 Y42.7407
G01 X67.4573 Y42.6944
G01 X67.4252 Y42.6511
G01 X67.3889 Y42.6111
G01 X67.3489 Y42.5748
G01 X67.3056 Y42.5427
G01 X67.2603 Y42.5155
G01 X67.2105 Y42.4919
G01 X67.1597 Y42.4737
G01 X67.1073 Y42.4606
G01 X67.0551 Y42.4528
G01 X67.0000 Y42.4500
G01 X66.9473 Y42.4525
G01 X66.8939 Y42.4603
G01 X66.8619 Y42.4682
G00 Z1.0000
G00 X67.6500 Y43.0640
G01 F400.00
G01 Z-0.0500
G01 F2500.00
G01 X67.6500 Y42.9360
G01 X67.6250 Y42.8104
G01 X67.5760 Y42.6921
G01 X67.5049 Y42.5857
G01 X67.4143 Y42.4951
G01 X67.3079 Y42.4240
G01 X67.1896 Y42.3750
G01 X67.0640 Y42.3500
G01 X66.9239 Y42.3500
G01 X66.9166 Y42.3495
G01 X66.9069 Y42.3481
G01 X66.8974 Y42.3457
G01 X66.8893 Y42.3429
G01 X66.8782 Y42.3376
G01 X66.8708 Y42.3332
G01 X66.8649 Y42.3288
G01 X66.8557 Y42.3207
G01 X66.8483 Y42.3125
G01 X66.8432 Y42.3056
G01 X66.8394 Y42.2993
G01 X66.8340 Y42.2883
G01 X66.8300 Y42.2767
G01 X66.8283 Y42.2695
G01 X66.8270 Y42.2610
G01 X66.8264 Y42.2475
G01 X66.8268 Y42.2402
G01 X66.8283 Y42.2305
G01 X66.8307 Y42.2210
G01 X66.8335 Y42.2129
G01 X66.8394 Y42.2007
G01 X66.8432 Y42.1944
G01 X66.8491 Y42.1865
G01 X66.8557 Y42.1793
G01 X66.8611 Y42.1743
G01 X66.8718 Y42.1662
G01 X66.8792 Y42.1618
G01 X66.8870 Y42.1581
G01 X66.8974 Y42.1543
G01 X66.9057 Y42.1521
G01 X66.9154 Y42.1506
G01 X66.9239 Y42.1500
G01 X67.0640 Y42.1500
G01 X67.1896 Y42.1250
G01 X67.3079 Y42.0760
G01 X67.4143 Y42.0049
G01 X67.5049 Y41.9143
G01 X67.5760 Y41.8079
G01 X67.6250 Y41.6896
G01 X67.6500 Y41.5640
G01 X67.6500 Y41.4360
G01 X67.6250 Y41.3104
G01 X67.5760 Y41.1921
G01 X67.5049 Y41.0857
G01 X67.4143 Y40.9951
G01 X67.3885 Y40.9775
G01 X67.3776 Y40.9676
G01 X67.3727 Y40.9621
G01 X67.3682 Y40.9562
G01 X67.3618 Y40.9458
G01 X67.3567 Y40.9346
G01 X67.3543 Y40.9277
G01 X67.3522 Y40.9194
G01 X67.3505 Y40.9085
G01 X67.3500 Y40.8987
G01 X67.3500 Y40.4421
G01 X67.3504 Y40.4335
G01 X67.3517 Y40.4200
G01 X67.3449 Y40.3514
G01 X67.3249 Y40.2854
G01 X67.2924 Y40.2246
G01 X67.2487 Y40.1713
G01 X67.2382 Y40.1627
G01 X67.2318 Y40.1569
G01 X63.9576 Y36.8826
G01 X63.9502 Y36.8744
G01 X63.9451 Y36.8675
G01 X63.9401 Y36.8591
G01 X63.9359 Y36.8502
G01 X63.9322 Y36.8398
G01 X63.9302 Y36.8314
G01 X63.9287 Y36.8205
G01 X63.9283 Y36.8107
G01 X63.9291 Y36.7997
G01 X63.9302 Y36.7924
G01 X63.9319 Y36.7852
G01 X63.9350 Y36.7759
G01 X63.9615 Y36.7117
G01 X64.0000 Y36.5185
G01 X64.0000 Y36.3215
G01 X63.9615 Y36.1283
G01 X63.8862 Y35.9463
G01 X63.7767 Y35.7826
G01 X63.6374 Y35.6433
G01 X63.4737 Y35.5338
G01 X63.2917 Y35.4585
G01 X63.0985 Y35.4200
G01 X62.9015 Y35.4200
G01 X62.7083 Y35.4585
G01 X62.5263 Y35.5338
G01 X62.3626 Y35.6433
G01 X62.2233 Y35.7826
G01 X62.1138 Y35.9463
G01 X62.0385 Y36.1283
G01 X62.0000 Y36.3215
G01 X62.0000 Y36.5185
G01 X62.0385 Y36.7117
G01 X62.1138 Y36.8937
G01 X62.2233 Y37.0574
G01 X62.3626 Y37.1967
G01 X62.5263 Y37.3062
G01 X62.7083 Y37.3815
G01 X62.9015 Y37.4200
G01 X63.0985 Y37.4200
G01 X63.2917 Y37.3815
G01 X63.3559 Y37.3550
G01 X63.3629 Y37.3526
G01 X63.3700 Y37.3507
G01 X63.3809 Y37.3489
G01 X63.3919 Y37.3483
G01 X63.4017 Y37.3488
G01 X63.4114 Y37.3502
G01 X63.4209 Y37.3526
G01 X63.4302 Y37.3559
G01 X63.4391 Y37.3601
G01 X63.4475 Y37.3651
G01 X63.4563 Y37.3718
G01 X63.4626 Y37.3776
G01 X66.6207 Y40.5357
G01 X66.6257 Y40.5411
G01 X66.6338 Y40.5519
G01 X66.6382 Y40.5592
G01 X66.6424 Y40.5681
G01 X66.6457 Y40.5774
G01 X66.6476 Y40.5845
G01 X66.6496 Y40.5978
G01 X66.6500 Y40.6064
G01 X66.6500 Y40.8987
G01 X66.6497 Y40.9060
G01 X66.6478 Y40.9194
G01 X66.6457 Y40.9277
G01 X66.6429 Y40.9358
G01 X66.6370 Y40.9479
G01 X66.6332 Y40.9542
G01 X66.6281 Y40.9612
G01 X66.6207 Y40.9694
G01 X66.6135 Y40.9760
G01 X66.6066 Y40.9811
G01 X66.5857 Y40.9951
G01 X66.4951 Y41.0857
G01 X66.4240 Y41.1921
G01 X66.3750 Y41.3104
G01 X66.3500 Y41.4360
G01 X66.3500 Y41.5736
G01 X66.3496 Y41.5822
G01 X66.3481 Y41.5931
G01 X66.3457 Y41.6026
G01 X66.3419 Y41.6130
G01 X66.3370 Y41.6229
G01 X66.3325 Y41.6302
G01 X66.3265 Y41.6380
G01 X66.3207 Y41.6443
G01 X66.3125 Y41.6517
G01 X66.3056 Y41.6568
G01 X66.2972 Y41.6618
G01 X66.2883 Y41.6660
G01 X66.2779 Y41.6697
G01 X66.2695 Y41.6717
G01 X66.2598 Y41.6731
G01 X66.2500 Y41.6736
G01 X66.2390 Y41.6730
G01 X66.2305 Y41.6717
G01 X66.2198 Y41.6690
G01 X66.2106 Y41.6655
G01 X66.2007 Y41.6606
G01 X66.1944 Y41.6568
G01 X66.1885 Y41.6524
G01 X66.1793 Y41.6443
G01 X63.9576 Y39.4226
G01 X63.9510 Y39.4154
G01 X63.9465 Y39.4095
G01 X63.9390 Y39.3969
G01 X63.9354 Y39.3890
G01 X63.9322 Y39.3798
G01 X63.9302 Y39.3714
G01 X63.9288 Y39.3617
G01 X63.9283 Y39.3519
G01 X63.9288 Y39.3421
G01 X63.9307 Y39.3300
G01 X63.9326 Y39.3229
G01 X63.9350 Y39.3159
G01 X63.9615 Y39.2517
G01 X64.0000 Y39.0585
G01 X64.0000 Y38.8615
G01 X63.9615 Y38.6683
G01 X63.8862 Y38.4863
G01 X63.7767 Y38.3226
G01 X63.6374 Y38.1833
G01 X63.4737 Y38.0738
G01 X63.2917 Y37.9985
G01 X63.0985 Y37.9600
G01 X62.9015 Y37.9600
G01 X62.7083 Y37.9985
G01 X62.5263 Y38.0738
G01 X62.3626 Y38.1833
G01 X62.2233 Y38.3226
G01 X62.1138 Y38.4863
G01 X62.0385 Y38.6683
G01 X62.0000 Y38.8615
G01 X62.0000 Y39.0585
G01 X62.0385 Y39.2517
G01 X62.1138 Y39.4337
G01 X62.2233 Y39.5974
G01 X62.3626 Y39.7367
G01 X62.5263 Y39.8462
G01 X62.7083 Y39.9215
G01 X62.9015 Y39.9600
G01 X63.0985 Y39.9600
G01 X63.2917 Y39.9215
G01 X63.3548 Y39.8954
G01 X63.3629 Y39.8926
G01 X63.3736 Y39.8900
G01 X63.3821 Y39.8888
G01 X63.3919 Y39.8883
G01 X63.4017 Y39.8888
G01 X63.4090 Y39.8898
G01 X63.4221 Y39.8930
G01 X63.4302 Y39.8959
G01 X63.4391 Y39.9001
G01 X63.4475 Y39.9051
G01 X63.4534 Y39.9095
G01 X63.4626 Y39.9176
G01 X63.8731 Y40.3281
G01 X63.8781 Y40.3335
G01 X63.8849 Y40.3422
G01 X63.8906 Y40.3516
G01 X63.8948 Y40.3605
G01 X63.8985 Y40.3709
G01 X63.9007 Y40.3805
G01 X63.9021 Y40.3914
G01 X63.9024 Y40.4012
G01 X63.9019 Y40.4086
G01 X63.9009 Y40.4159
G01 X63.8977 Y40.4290
G01 X63.8948 Y40.4371
G01 X63.8906 Y40.4459
G01 X63.8856 Y40.4544
G01 X63.8805 Y40.4613
G01 X63.8713 Y40.4712
G01 X63.8659 Y40.4761
G01 X63.8580 Y40.4820
G01 X63.8495 Y40.4870
G01 X63.8418 Y40.4907
G01 X63.8326 Y40.4941
G01 X63.8243 Y40.4964
G01 X63.8110 Y40.4984
G01 X63.8024 Y40.4988
G01 X62.1549 Y40.4988
G01 X62.1206 Y40.5022
G01 X62.0923 Y40.5108
G01 X62.0663 Y40.5247
G01 X62.0434 Y40.5434
G01 X62.0247 Y40.5663
G01 X62.0108 Y40.5923
G01 X62.0022 Y40.6206
G01 X61.9988 Y40.6549
G01 X61.9988 Y42.3451
G01 X62.0022 Y42.3794
G01 X62.0108 Y42.4077
G01 X62.0247 Y42.4337
G01 X62.0434 Y42.4566
G01 X62.0663 Y42.4753
G01 X62.0923 Y42.4892
G01 X62.1206 Y42.4978
G01 X62.1549 Y42.5012
G01 X62.5500 Y42.5012
G01 X62.5586 Y42.5016
G01 X62.5683 Y42.5029
G01 X62.5767 Y42.5048
G01 X62.5905 Y42.5098
G01 X62.5972 Y42.5130
G01 X62.6056 Y42.5180
G01 X62.6135 Y42.5239
G01 X62.6198 Y42.5296
G01 X62.6265 Y42.5368
G01 X62.6318 Y42.5436
G01 X62.6393 Y42.5562
G01 X62.6424 Y42.5629
G01 X62.6457 Y42.5722
G01 X62.6481 Y42.5817
G01 X62.6494 Y42.5902
G01 X62.6500 Y42.6012
G01 X62.6500 Y42.7279
G01 X62.6496 Y42.7365
G01 X62.6483 Y42.7500
G01 X62.6551 Y42.8186
G01 X62.6751 Y42.8846
G01 X62.7076 Y42.9454
G01 X62.7513 Y42.9987
G01 X62.7618 Y43.0073
G01 X62.7682 Y43.0131
G01 X64.4869 Y44.7318
G01 X64.4927 Y44.7382
G01 X64.5013 Y44.7487
G01 X64.5546 Y44.7924
G01 X64.6154 Y44.8249
G01 X64.6814 Y44.8449
G01 X64.7500 Y44.8517
G01 X64.7635 Y44.8503
G01 X64.7721 Y44.8500
G01 X66.3987 Y44.8500
G01 X66.4085 Y44.8504
G01 X66.4158 Y44.8515
G01 X66.4277 Y44.8543
G01 X66.4381 Y44.8581
G01 X66.4458 Y44.8618
G01 X66.4522 Y44.8655
G01 X66.4621 Y44.8727
G01 X66.4694 Y44.8793
G01 X66.4767 Y44.8875
G01 X66.4818 Y44.8944
G01 X66.4951 Y44.9143
G01 X66.5857 Y45.0049
G01 X66.6921 Y45.0760
G01 X66.8104 Y45.1250
G01 X66.9360 Y45.1500
G01 X67.0640 Y45.1500
G01 X67.1896 Y45.1250
G01 X67.3079 Y45.0760
G01 X67.4143 Y45.0049
G01 X67.5049 Y44.9143
G01 X67.5760 Y44.8079
G01 X67.6250 Y44.6896
G01 X67.6500 Y44.5640
G01 X67.6500 Y44.4360
G01 X67.6250 Y44.3104
G01 X67.5760 Y44.1921
G01 X67.5049 Y44.0857
G01 X67.4143 Y43.9951
G01 X67.3079 Y43.9240
G01 X67.1896 Y43.8750
G01 X67.0520 Y43.8476
G01 X67.0449 Y43.8457
G01 X67.0356 Y43.8424
G01 X67.0267 Y43.8382
G01 X67.0194 Y43.8338
G01 X67.0104 Y43.8273
G01 X67.0015 Y43.8189
G01 X66.9966 Y43.8135
G01 X66.9921 Y43.8076
G01 X66.9857 Y43.7971
G01 X66.9806 Y43.7860
G01 X66.9782 Y43.7790
G01 X66.9763 Y43.7719
G01 X66.9744 Y43.7598
G01 X66.9739 Y43.7488
G01 X66.9747 Y43.7378
G01 X66.9758 Y43.7305
G01 X66.9775 Y43.7233
G01 X66.9810 Y43.7129
G01 X66.9857 Y43.7028
G01 X66.9921 Y43.6924
G01 X66.9966 Y43.6865
G01 X67.0015 Y43.6810
G01 X67.0104 Y43.6727
G01 X67.0194 Y43.6662
G01 X67.0267 Y43.6618
G01 X67.0356 Y43.6576
G01 X67.0449 Y43.6543
G01 X67.0520 Y43.6524
G01 X67.1896 Y43.6250
G01 X67.3079 Y43.5760
G01 X67.4143 Y43.5049
G01 X67.5049 Y43.4143
G01 X67.5760 Y43.3079
G01 X67.6250 Y43.1896
G01 X67.6500 Y43.0640
G00 Z1.0000
G00 X66.5105 Y44.7501
G01 F400.00
G01 Z-0.0500
G01 F2500.00
G01 X66.5155 Y44.7603
G01 X66.5427 Y44.8056
G01 X66.5748 Y44.8489
G01 X66.6111 Y44.8889
G01 X66.6511 Y44.9251
G01 X66.6944 Y44.9573
G01 X66.7407 Y44.9850
G01 X66.7895 Y45.0081
G01 X66.8403 Y45.0263
G01 X66.8927 Y45.0394
G01 X66.9461 Y45.0473
G01 X67.0000 Y45.0500
G01 X67.0539 Y45.0473
G01 X67.1073 Y45.0394
G01 X67.1597 Y45.0263
G01 X67.2105 Y45.0081
G01 X67.2593 Y44.9850
G01 X67.3056 Y44.9573
G01 X67.3489 Y44.9251
G01 X67.3889 Y44.8889
G01 X67.4252 Y44.8489
G01 X67.4573 Y44.8056
G01 X67.4851 Y44.7593
G01 X67.5081 Y44.7105
G01 X67.5263 Y44.6596
G01 X67.5394 Y44.6073
G01 X67.5474 Y44.5539
G01 X67.5500 Y44.5000
G01 X67.5474 Y44.4461
G01 X67.5394 Y44.3927
G01 X67.5263 Y44.3403
G01 X67.5081 Y44.2895
G01 X67.4851 Y44.2407
G01 X67.4573 Y44.1944
G01 X67.4267 Y44.1530
G01 X67.3889 Y44.1111
G01 X67.3470 Y44.0733
G01 X67.3056 Y44.0427
G01 X67.2614 Y44.0161
G01 X67.2105 Y43.9919
G01 X67.1573 Y43.9730
G01 X67.1073 Y43.9606
G01 X67.0563 Y43.9529
G01 X67.0000 Y43.9500
G01 X66.9437 Y43.9529
G01 X66.8927 Y43.9606
G01 X66.8403 Y43.9737
G01 X66.7873 Y43.9929
G01 X66.7407 Y44.0149
G01 X66.6965 Y44.0414
G01 X66.6492 Y44.0764
G01 X66.6111 Y44.1111
G01 X66.5764 Y44.1492
G01 X66.5427 Y44.1944
G01 X66.5155 Y44.2396
G01 X66.5105 Y44.2499
G01 X64.8536 Y44.2499
G01 X63.2501 Y42.6464
G01 X63.2501 Y42.4000
G01 X63.8525 Y42.3999
G01 X63.8598 Y42.3990
G01 X63.8668 Y42.3971
G01 X63.8736 Y42.3941
G01 X63.8808 Y42.3894
G01 X63.8862 Y42.3845
G01 X63.8909 Y42.3788
G01 X63.8947 Y42.3725
G01 X63.8978 Y42.3645
G01 X63.8995 Y42.3573
G01 X63.9000 Y42.3500
G01 X63.9000 Y40.6500
G01 X63.8990 Y40.6402
G01 X63.8962 Y40.6309
G01 X63.8916 Y40.6222
G01 X63.8879 Y40.6173
G01 X63.8845 Y40.6138
G01 X63.8767 Y40.6078
G01 X63.8680 Y40.6034
G01 X63.8585 Y40.6007
G01 X63.8500 Y40.6000
G01 X62.1500 Y40.6000
G01 X62.1402 Y40.6010
G01 X62.1309 Y40.6038
G01 X62.1264 Y40.6059
G01 X62.1212 Y40.6091
G01 X62.1138 Y40.6155
G01 X62.1078 Y40.6233
G01 X62.1038 Y40.6309
G01 X62.1010 Y40.6402
G01 X62.1000 Y40.6500
G01 X62.1000 Y42.3500
G01 X62.1004 Y42.3561
G01 X62.1012 Y42.3610
G01 X62.1043 Y42.3703
G01 X62.1091 Y42.3788
G01 X62.1155 Y42.3862
G01 X62.1222 Y42.3916
G01 X62.1309 Y42.3962
G01 X62.1402 Y42.3990
G01 X62.1488 Y42.4000
G01 X62.7499 Y42.4000
G01 X62.7499 Y42.7500
G01 X62.7512 Y42.7757
G01 X62.7547 Y42.7988
G01 X62.7600 Y42.8202
G01 X62.7689 Y42.8457
G01 X62.7806 Y42.8700
G01 X62.7920 Y42.8889
G01 X62.8067 Y42.9087
G01 X62.8232 Y42.9268
G01 X64.5731 Y44.6768
G01 X64.5933 Y44.6948
G01 X64.6110 Y44.7079
G01 X64.6321 Y44.7206
G01 X64.6543 Y44.7311
G01 X64.6798 Y44.7400
G01 X64.7012 Y44.7453
G01 X64.7230 Y44.7486
G01 X64.7488 Y44.7501
G01 X66.5105 Y44.7501
G00 Z1.0000
G00 X65.7575 Y45.6001
G01 F400.00
G01 Z-0.0500
G01 F2500.00
G01 X65.6718 Y45.6043
G01 X65.5844 Y45.6173
G01 X65.4987 Y45.6388
G01 X65.4156 Y45.6685
G01 X65.3357 Y45.7063
G01 X65.2600 Y45.7517
G01 X65.1890 Y45.8043
G01 X65.1236 Y45.8636
G01 X65.0643 Y45.9290
G01 X65.0117 Y46.0000
G01 X64.9663 Y46.0757
G01 X64.9285 Y46.1556
G01 X64.8988 Y46.2387
G01 X64.8773 Y46.3244
G01 X64.8643 Y46.4118
G01 X64.8600 Y46.5000
G01 X64.8643 Y46.5882
G01 X64.8773 Y46.6756
G01 X64.8988 Y46.7613
G01 X64.9285 Y46.8444
G01 X64.9663 Y46.9243
G01 X65.0117 Y47.0000
G01 X65.0643 Y47.0710
G01 X65.1236 Y47.1364
G01 X65.1890 Y47.1957
G01 X65.2600 Y47.2483
G01 X65.3357 Y47.2937
G01 X65.4156 Y47.3315
G01 X65.4987 Y47.3612
G01 X65.5844 Y47.3827
G01 X65.6718 Y47.3957
G01 X65.7600 Y47.4000
G01 X65.8482 Y47.3957
G01 X65.9356 Y47.3827
G01 X66.0213 Y47.3612
G01 X66.1044 Y47.3315
G01 X66.1843 Y47.2937
G01 X66.2600 Y47.2483
G01 X66.3310 Y47.1957
G01 X66.3964 Y47.1364
G01 X66.4557 Y47.0710
G01 X66.5083 Y47.0000
G01 X66.5537 Y46.9243
G01 X66.5915 Y46.8444
G01 X66.6212 Y46.7613
G01 X66.6427 Y46.6756
G01 X66.6557 Y46.5882
G01 X66.6600 Y46.5000
G01 X66.6557 Y46.4118
G01 X66.6427 Y46.3244
G01 X66.6212 Y46.2387
G01 X66.5915 Y46.1556
G01 X66.5537 Y46.0757
G01 X66.5083 Y46.0000
G01 X66.4557 Y45.9290
G01 X66.3964 Y45.8636
G01 X66.3310 Y45.8043
G01 X66.2600 Y45.7517
G01 X66.1843 Y45.7063
G01 X66.1044 Y45.6685
G01 X66.0213 Y45.6388
G01 X65.9356 Y45.6173
G01 X65.8482 Y45.6043
G01 X65.7575 Y45.6001
G00 Z1.0000
G00 X64.7600 Y46.5985
G01 F400.00
G01 Z-0.0500
G01 F2500.00
G01 X64.7985 Y46.7917
G01 X64.8738 Y46.9737
G01 X64.9833 Y47.1374
G01 X65.1226 Y47.2767
G01 X65.2863 Y47.3862
G01 X65.4683 Y47.4615
G01 X65.6615 Y47.5000
G01 X65.8585 Y47.5000
G01 X66.0517 Y47.4615
G01 X66.2337 Y47.3862
G01 X66.3974 Y47.2767
G01 X66.5367 Y47.1374
G01 X66.6462 Y46.9737
G01 X66.7215 Y46.7917
G01 X66.7600 Y46.5985
G01 X66.7600 Y46.4015
G01 X66.7215 Y46.2083
G01 X66.6462 Y46.0263
G01 X66.5367 Y45.8626
G01 X66.3974 Y45.7233
G01 X66.2337 Y45.6138
G01 X66.0517 Y45.5385
G01 X65.8585 Y45.5000
G01 X65.6615 Y45.5000
G01 X65.4683 Y45.5385
G01 X65.2863 Y45.6138
G01 X65.1226 Y45.7233
G01 X64.9833 Y45.8626
G01 X64.8738 Y46.0263
G01 X64.7985 Y46.2083
G01 X64.7600 Y46.4015
G01 X64.7600 Y46.5985
G00 Z1.0000
G00 X64.2200 Y46.5985
G01 F400.00
G01 Z-0.0500
G01 F2500.00
G01 X64.2200 Y46.4015
G01 X64.1815 Y46.2083
G01 X64.1062 Y46.0263
G01 X63.9967 Y45.8626
G01 X63.8574 Y45.7233
G01 X63.6937 Y45.6138
G01 X63.5117 Y45.5385
G01 X63.3185 Y45.5000
G01 X63.1215 Y45.5000
G01 X62.9283 Y45.5385
G01 X62.7463 Y45.6138
G01 X62.5826 Y45.7233
G01 X62.4433 Y45.8626
G01 X62.3338 Y46.0263
G01 X62.2585 Y46.2083
G01 X62.2200 Y46.4015
G01 X62.2200 Y46.5985
G01 X62.2585 Y46.7917
G01 X62.3338 Y46.9737
G01 X62.4433 Y47.1374
G01 X62.5826 Y47.2767
G01 X62.7463 Y47.3862
G01 X62.9283 Y47.4615
G01 X63.1215 Y47.5000
G01 X63.3185 Y47.5000
G01 X63.5117 Y47.4615
G01 X63.6937 Y47.3862
G01 X63.8574 Y47.2767
G01 X63.9967 Y47.1374
G01 X64.1062 Y46.9737
G01 X64.1815 Y46.7917
G01 X64.2200 Y46.5985
G00 Z1.0000
G00 X63.2175 Y45.6001
G01 F400.00
G01 Z-0.0500
G01 F2500.00
G01 X63.1318 Y45.6043
G01 X63.0444 Y45.6173
G01 X62.9587 Y45.6388
G01 X62.8756 Y45.6685
G01 X62.7957 Y45.7063
G01 X62.7200 Y45.7517
G01 X62.6490 Y45.8043
G01 X62.5836 Y45.8636
G01 X62.5243 Y45.9290
G01 X62.4717 Y46.0000
G01 X62.4263 Y46.0757
G01 X62.3885 Y46.1556
G01 X62.3588 Y46.2387
G01 X62.3373 Y46.3244
G01 X62.3243 Y46.4118
G01 X62.3200 Y46.5000
G01 X62.3243 Y46.5882
G01 X62.3373 Y46.6756
G01 X62.3588 Y46.7613
G01 X62.3885 Y46.8444
G01 X62.4263 Y46.9243
G01 X62.4717 Y47.0000
G01 X62.5243 Y47.0710
G01 X62.5836 Y47.1364
G01 X62.6490 Y47.1957
G01 X62.7200 Y47.2483
G01 X62.7957 Y47.2937
G01 X62.8756 Y47.3315
G01 X62.9587 Y47.3612
G01 X63.0444 Y47.3827
G01 X63.1318 Y47.3957
G01 X63.2200 Y47.4000
G01 X63.3082 Y47.3957
G01 X63.3956 Y47.3827
G01 X63.4813 Y47.3612
G01 X63.5644 Y47.3315
G01 X63.6443 Y47.2937
G01 X63.7200 Y47.2483
G01 X63.7910 Y47.1957
G01 X63.8564 Y47.1364
G01 X63.9157 Y47.0710
G01 X63.9683 Y47.0000
G01 X64.0137 Y46.9243
G01 X64.0515 Y46.8444
G01 X64.0812 Y46.7613
G01 X64.1027 Y46.6756
G01 X64.1157 Y46.5882
G01 X64.1200 Y46.5000
G01 X64.1157 Y46.4118
G01 X64.1027 Y46.3244
G01 X64.0812 Y46.2387
G01 X64.0515 Y46.1556
G01 X64.0137 Y46.0757
G01 X63.9683 Y46.0000
G01 X63.9157 Y45.9290
G01 X63.8564 Y45.8636
G01 X63.7910 Y45.8043
G01 X63.7200 Y45.7517
G01 X63.6443 Y45.7063
G01 X63.5644 Y45.6685
G01 X63.4813 Y45.6388
G01 X63.3956 Y45.6173
G01 X63.3082 Y45.6043
G01 X63.2175 Y45.6001
G00 Z1.0000
G00 X67.3000 Y46.5985
G01 F400.00
G01 Z-0.0500
G01 F2500.00
G01 X67.3385 Y46.7917
G01 X67.4138 Y46.9737
G01 X67.5233 Y47.1374
G01 X67.6626 Y47.2767
G01 X67.8263 Y47.3862
G01 X68.0083 Y47.4615
G01 X68.2015 Y47.5000
G01 X68.3985 Y47.5000
G01 X68.5917 Y47.4615
G01 X68.7737 Y47.3862
G01 X68.9374 Y47.2767
G01 X69.0767 Y47.1374
G01 X69.1862 Y46.9737
G01 X69.2615 Y46.7917
G01 X69.3000 Y46.5985
G01 X69.3000 Y46.4015
G01 X69.2615 Y46.2083
G01 X69.1862 Y46.0263
G01 X69.0767 Y45.8626
G01 X68.9374 Y45.7233
G01 X68.7737 Y45.6138
G01 X68.5917 Y45.5385
G01 X68.3985 Y45.5000
G01 X68.2015 Y45.5000
G01 X68.0083 Y45.5385
G01 X67.8263 Y45.6138
G01 X67.6626 Y45.7233
G01 X67.5233 Y45.8626
G01 X67.4138 Y46.0263
G01 X67.3385 Y46.2083
G01 X67.3000 Y46.4015
G01 X67.3000 Y46.5985
G00 Z1.0000
G00 X68.2975 Y45.6001
G01 F400.00
G01 Z-0.0500
G01 F2500.00
G01 X68.2118 Y45.6043
G01 X68.1244 Y45.6173
G01 X68.0387 Y45.6388
G01 X67.9556 Y45.6685
G01 X67.8757 Y45.7063
G01 X67.8000 Y45.7517
G01 X67.7290 Y45.8043
G01 X67.6636 Y45.8636
G01 X67.6043 Y45.9290
G01 X67.5517 Y46.0000
G01 X67.5063 Y46.0757
G01 X67.4685 Y46.1556
G01 X67.4388 Y46.2387
G01 X67.4173 Y46.3244
G01 X67.4043 Y46.4118
G01 X67.4000 Y46.5000
G01 X67.4043 Y46.5882
G01 X67.4173 Y46.6756
G01 X67.4388 Y46.7613
G01 X67.4685 Y46.8444
G01 X67.5063 Y46.9243
G01 X67.5517 Y47.0000
G01 X67.6043 Y47.0710
G01 X67.6636 Y47.1364
G01 X67.7290 Y47.1957
G01 X67.8000 Y47.2483
G01 X67.8757 Y47.2937
G01 X67.9556 Y47.3315
G01 X68.0387 Y47.3612
G01 X68.1244 Y47.3827
G01 X68.2118 Y47.3957
G01 X68.3000 Y47.4000
G01 X68.3882 Y47.3957
G01 X68.4756 Y47.3827
G01 X68.5613 Y47.3612
G01 X68.6444 Y47.3315
G01 X68.7243 Y47.2937
G01 X68.8000 Y47.2483
G01 X68.8710 Y47.1957
G01 X68.9364 Y47.1364
G01 X68.9957 Y47.0710
G01 X69.0483 Y47.0000
G01 X69.0937 Y46.9243
G01 X69.1315 Y46.8444
G01 X69.1612 Y46.7613
G01 X69.1827 Y46.6756
G01 X69.1957 Y46.5882
G01 X69.2000 Y46.5000
G01 X69.1957 Y46.4118
G01 X69.1827 Y46.3244
G01 X69.1612 Y46.2387
G01 X69.1315 Y46.1556
G01 X69.0937 Y46.0757
G01 X69.0483 Y46.0000
G01 X68.9957 Y45.9290
G01 X68.9364 Y45.8636
G01 X68.8710 Y45.8043
G01 X68.8000 Y45.7517
G01 X68.7243 Y45.7063
G01 X68.6444 Y45.6685
G01 X68.5613 Y45.6388
G01 X68.4756 Y45.6173
G01 X68.3882 Y45.6043
G01 X68.2975 Y45.6001
G00 Z1.0000
G00 X69.8400 Y46.5985
G01 F400.00
G01 Z-0.0500
G01 F2500.00
G01 X69.8785 Y46.7917
G01 X69.9538 Y46.9737
G01 X70.0633 Y47.1374
G01 X70.2026 Y47.2767
G01 X70.3663 Y47.3862
G01 X70.5483 Y47.4615
G01 X70.7415 Y47.5000
G01 X70.9385 Y47.5000
G01 X71.1317 Y47.4615
G01 X71.3137 Y47.3862
G01 X71.4774 Y47.2767
G01 X71.6167 Y47.1374
G01 X71.7262 Y46.9737
G01 X71.8015 Y46.7917
G01 X71.8400 Y46.5985
G01 X71.8400 Y46.4015
G01 X71.8015 Y46.2083
G01 X71.7262 Y46.0263
G01 X71.6167 Y45.8626
G01 X71.4774 Y45.7233
G01 X71.3137 Y45.6138
G01 X71.1317 Y45.5385
G01 X70.9385 Y45.5000
G01 X70.7415 Y45.5000
G01 X70.5483 Y45.5385
G01 X70.3663 Y45.6138
G01 X70.2026 Y45.7233
G01 X70.0633 Y45.8626
G01 X69.9538 Y46.0263
G01 X69.8785 Y46.2083
G01 X69.8400 Y46.4015
G01 X69.8400 Y46.5985
G00 Z1.0000
G00 X70.8375 Y45.6001
G01 F400.00
G01 Z-0.0500
G01 F2500.00
G01 X70.7518 Y45.6043
G01 X70.6644 Y45.6173
G01 X70.5787 Y45.6388
G01 X70.4956 Y45.6685
G01 X70.4157 Y45.7063
G01 X70.3400 Y45.7517
G01 X70.2690 Y45.8043
G01 X70.2036 Y45.8636
G01 X70.1443 Y45.9290
G01 X70.0917 Y46.0000
G01 X70.0463 Y46.0757
G01 X70.0085 Y46.1556
G01 X69.9788 Y46.2387
G01 X69.9573 Y46.3244
G01 X69.9443 Y46.4118
G01 X69.9400 Y46.5000
G01 X69.9443 Y46.5882
G01 X69.9573 Y46.6756
G01 X69.9788 Y46.7613
G01 X70.0085 Y46.8444
G01 X70.0463 Y46.9243
G01 X70.0917 Y47.0000
G01 X70.1443 Y47.0710
G01 X70.2036 Y47.1364
G01 X70.2690 Y47.1957
G01 X70.3400 Y47.2483
G01 X70.4157 Y47.2937
G01 X70.4956 Y47.3315
G01 X70.5787 Y47.3612
G01 X70.6644 Y47.3827
G01 X70.7518 Y47.3957
G01 X70.8400 Y47.4000
G01 X70.9282 Y47.3957
G01 X71.0156 Y47.3827
G01 X71.1013 Y47.3612
G01 X71.1844 Y47.3315
G01 X71.2643 Y47.2937
G01 X71.3400 Y47.2483
G01 X71.4110 Y47.1957
G01 X71.4764 Y47.1364
G01 X71.5357 Y47.0710
G01 X71.5883 Y47.0000
G01 X71.6337 Y46.9243
G01 X71.6715 Y46.8444
G01 X71.7012 Y46.7613
G01 X71.7227 Y46.6756
G01 X71.7357 Y46.5882
G01 X71.7400 Y46.5000
G01 X71.7357 Y46.4118
G01 X71.7227 Y46.3244
G01 X71.7012 Y46.2387
G01 X71.6715 Y46.1556
G01 X71.6337 Y46.0757
G01 X71.5883 Y46.0000
G01 X71.5357 Y45.9290
G01 X71.4764 Y45.8636
G01 X71.4110 Y45.8043
G01 X71.3400 Y45.7517
G01 X71.2643 Y45.7063
G01 X71.1844 Y45.6685
G01 X71.1013 Y45.6388
G01 X71.0156 Y45.6173
G01 X70.9282 Y45.6043
G01 X70.8375 Y45.6001
G00 Z1.0000
G00 X72.3800 Y46.5985
G01 F400.00
G01 Z-0.0500
G01 F2500.00
G01 X72.4185 Y46.7917
G01 X72.4938 Y46.9737
G01 X72.6033 Y47.1374
G01 X72.7426 Y47.2767
G01 X72.9063 Y47.3862
G01 X73.0883 Y47.4615
G01 X73.2815 Y47.5000
G01 X73.4785 Y47.5000
G01 X73.6717 Y47.4615
G01 X73.8537 Y47.3862
G01 X74.0174 Y47.2767
G01 X74.1567 Y47.1374
G01 X74.2662 Y46.9737
G01 X74.3415 Y46.7917
G01 X74.3800 Y46.5985
G01 X74.3800 Y46.4015
G01 X74.3415 Y46.2083
G01 X74.2662 Y46.0263
G01 X74.1567 Y45.8626
G01 X74.0174 Y45.7233
G01 X73.8537 Y45.6138
G01 X73.6717 Y45.5385
G01 X73.4785 Y45.5000
G01 X73.2815 Y45.5000
G01 X73.0883 Y45.5385
G01 X72.9063 Y45.6138
G01 X72.7426 Y45.7233
G01 X72.6033 Y45.8626
G01 X72.4938 Y46.0263
G01 X72.4185 Y46.2083
G01 X72.3800 Y46.4015
G01 X72.3800 Y46.5985
G00 Z1.0000
G00 X73.3775 Y45.6001
G01 F400.00
G01 Z-0.0500
G01 F2500.00
G01 X73.2918 Y45.6043
G01 X73.2044 Y45.6173
G01 X73.1187 Y45.6388
G01 X73.0356 Y45.6685
G01 X72.9557 Y45.7063
G01 X72.8800 Y45.7517
G01 X72.8090 Y45.8043
G01 X72.7436 Y45.8636
G01 X72.6843 Y45.9290
G01 X72.6317 Y46.0000
G01 X72.5863 Y46.0757
G01 X72.5485 Y46.1556
G01 X72.5188 Y46.2387
G01 X72.4973 Y46.3244
G01 X72.4843 Y46.4118
G01 X72.4800 Y46.5000
G01 X72.4843 Y46.5882
G01 X72.4973 Y46.6756
G01 X72.5188 Y46.7613
G01 X72.5485 Y46.8444
G01 X72.5863 Y46.9243
G01 X72.6317 Y47.0000
G01 X72.6843 Y47.0710
G01 X72.7436 Y47.1364
G01 X72.8090 Y47.1957
G01 X72.8800 Y47.2483
G01 X72.9557 Y47.2937
G01 X73.0356 Y47.3315
G01 X73.1187 Y47.3612
G01 X73.2044 Y47.3827
G01 X73.2918 Y47.3957
G01 X73.3800 Y47.4000
G01 X73.4682 Y47.3957
G01 X73.5556 Y47.3827
G01 X73.6413 Y47.3612
G01 X73.7244 Y47.3315
G01 X73.8043 Y47.2937
G01 X73.8800 Y47.2483
G01 X73.9510 Y47.1957
G01 X74.0164 Y47.1364
G01 X74.0757 Y47.0710
G01 X74.1283 Y47.0000
G01 X74.1737 Y46.9243
G01 X74.2115 Y46.8444
G01 X74.2412 Y46.7613
G01 X74.2627 Y46.6756
G01 X74.2757 Y46.5882
G01 X74.2800 Y46.5000
G01 X74.2757 Y46.4118
G01 X74.2627 Y46.3244
G01 X74.2412 Y46.2387
G01 X74.2115 Y46.1556
G01 X74.1737 Y46.0757
G01 X74.1283 Y46.0000
G01 X74.0757 Y45.9290
G01 X74.0164 Y45.8636
G01 X73.9510 Y45.8043
G01 X73.8800 Y45.7517
G01 X73.8043 Y45.7063
G01 X73.7244 Y45.6685
G01 X73.6413 Y45.6388
G01 X73.5556 Y45.6173
G01 X73.4682 Y45.6043
G01 X73.3775 Y45.6001
G00 Z1.0000
G00 X74.9200 Y46.5985
G01 F400.00
G01 Z-0.0500
G01 F2500.00
G01 X74.9585 Y46.7917
G01 X75.0338 Y46.9737
G01 X75.1433 Y47.1374
G01 X75.2826 Y47.2767
G01 X75.4463 Y47.3862
G01 X75.6283 Y47.4615
G01 X75.8215 Y47.5000
G01 X76.0185 Y47.5000
G01 X76.2117 Y47.4615
G01 X76.3937 Y47.3862
G01 X76.5574 Y47.2767
G01 X76.6967 Y47.1374
G01 X76.8062 Y46.9737
G01 X76.8815 Y46.7917
G01 X76.9200 Y46.5985
G01 X76.9200 Y46.4015
G01 X76.8815 Y46.2083
G01 X76.8062 Y46.0263
G01 X76.6967 Y45.8626
G01 X76.5574 Y45.7233
G01 X76.3937 Y45.6138
G01 X76.2117 Y45.5385
G01 X76.0185 Y45.5000
G01 X75.8215 Y45.5000
G01 X75.6283 Y45.5385
G01 X75.4463 Y45.6138
G01 X75.2826 Y45.7233
G01 X75.1433 Y45.8626
G01 X75.0338 Y46.0263
G01 X74.9585 Y46.2083
G01 X74.9200 Y46.4015
G01 X74.9200 Y46.5985
G00 Z1.0000
G00 X75.9175 Y45.6001
G01 F400.00
G01 Z-0.0500
G01 F2500.00
G01 X75.8318 Y45.6043
G01 X75.7444 Y45.6173
G01 X75.6587 Y45.6388
G01 X75.5756 Y45.6685
G01 X75.4957 Y45.7063
G01 X75.4200 Y45.7517
G01 X75.3490 Y45.8043
G01 X75.2836 Y45.8636
G01 X75.2243 Y45.9290
G01 X75.1717 Y46.0000
G01 X75.1263 Y46.0757
G01 X75.0885 Y46.1556
G01 X75.0588 Y46.2387
G01 X75.0373 Y46.3244
G01 X75.0243 Y46.4118
G01 X75.0200 Y46.5000
G01 X75.0243 Y46.5882
G01 X75.0373 Y46.6756
G01 X75.0588 Y46.7613
G01 X75.0885 Y46.8444
G01 X75.1263 Y46.9243
G01 X75.1717 Y47.0000
G01 X75.2243 Y47.0710
G01 X75.2836 Y47.1364
G01 X75.3490 Y47.1957
G01 X75.4200 Y47.2483
G01 X75.4957 Y47.2937
G01 X75.5756 Y47.3315
G01 X75.6587 Y47.3612
G01 X75.7444 Y47.3827
G01 X75.8318 Y47.3957
G01 X75.9200 Y47.4000
G01 X76.0082 Y47.3957
G01 X76.0956 Y47.3827
G01 X76.1813 Y47.3612
G01 X76.2644 Y47.3315
G01 X76.3443 Y47.2937
G01 X76.4200 Y47.2483
G01 X76.4910 Y47.1957
G01 X76.5564 Y47.1364
G01 X76.6157 Y47.0710
G01 X76.6683 Y47.0000
G01 X76.7137 Y46.9243
G01 X76.7515 Y46.8444
G01 X76.7812 Y46.7613
G01 X76.8027 Y46.6756
G01 X76.8157 Y46.5882
G01 X76.8200 Y46.5000
G01 X76.8157 Y46.4118
G01 X76.8027 Y46.3244
G01 X76.7812 Y46.2387
G01 X76.7515 Y46.1556
G01 X76.7137 Y46.0757
G01 X76.6683 Y46.0000
G01 X76.6157 Y45.9290
G01 X76.5564 Y45.8636
G01 X76.4910 Y45.8043
G01 X76.4200 Y45.7517
G01 X76.3443 Y45.7063
G01 X76.2644 Y45.6685
G01 X76.1813 Y45.6388
G01 X76.0956 Y45.6173
G01 X76.0082 Y45.6043
G01 X75.9175 Y45.6001
G00 Z1.0000
G00 X77.4600 Y46.5985
G01 F400.00
G01 Z-0.0500
G01 F2500.00
G01 X77.4985 Y46.7917
G01 X77.5738 Y46.9737
G01 X77.6833 Y47.1374
G01 X77.8226 Y47.2767
G01 X77.9863 Y47.3862
G01 X78.1683 Y47.4615
G01 X78.3615 Y47.5000
G01 X78.5585 Y47.5000
G01 X78.7517 Y47.4615
G01 X78.9337 Y47.3862
G01 X79.0974 Y47.2767
G01 X79.2367 Y47.1374
G01 X79.3462 Y46.9737
G01 X79.4215 Y46.7917
G01 X79.4600 Y46.5985
G01 X79.4600 Y46.4015
G01 X79.4215 Y46.2083
G01 X79.3462 Y46.0263
G01 X79.2367 Y45.8626
G01 X79.0974 Y45.7233
G01 X78.9337 Y45.6138
G01 X78.7517 Y45.5385
G01 X78.5585 Y45.5000
G01 X78.3615 Y45.5000
G01 X78.1683 Y45.5385
G01 X77.9863 Y45.6138
G01 X77.8226 Y45.7233
G01 X77.6833 Y45.8626
G01 X77.5738 Y46.0263
G01 X77.4985 Y46.2083
G01 X77.4600 Y46.4015
G01 X77.4600 Y46.5985
G00 Z1.0000
G00 X78.4575 Y45.6001
G01 F400.00
G01 Z-0.0500
G01 F2500.00
G01 X78.3718 Y45.6043
G01 X78.2844 Y45.6173
G01 X78.1987 Y45.6388
G01 X78.1156 Y45.6685
G01 X78.0357 Y45.7063
G01 X77.9600 Y45.7517
G01 X77.8890 Y45.8043
G01 X77.8236 Y45.8636
G01 X77.7643 Y45.9290
G01 X77.7117 Y46.0000
G01 X77.6663 Y46.0757
G01 X77.6285 Y46.1556
G01 X77.5988 Y46.2387
G01 X77.5773 Y46.3244
G01 X77.5643 Y46.4118
G01 X77.5600 Y46.5000
G01 X77.5643 Y46.5882
G01 X77.5773 Y46.6756
G01 X77.5988 Y46.7613
G01 X77.6285 Y46.8444
G01 X77.6663 Y46.9243
G01 X77.7117 Y47.0000
G01 X77.7643 Y47.0710
G01 X77.8236 Y47.1364
G01 X77.8890 Y47.1957
G01 X77.9600 Y47.2483
G01 X78.0357 Y47.2937
G01 X78.1156 Y47.3315
G01 X78.1987 Y47.3612
G01 X78.2844 Y47.3827
G01 X78.3718 Y47.3957
G01 X78.4600 Y47.4000
G01 X78.5482 Y47.3957
G01 X78.6356 Y47.3827
G01 X78.7213 Y47.3612
G01 X78.8044 Y47.3315
G01 X78.8843 Y47.2937
G01 X78.9600 Y47.2483
G01 X79.0310 Y47.1957
G01 X79.0964 Y47.1364
G01 X79.1557 Y47.0710
G01 X79.2083 Y47.0000
G01 X79.2537 Y46.9243
G01 X79.2915 Y46.8444
G01 X79.3212 Y46.7613
G01 X79.3427 Y46.6756
G01 X79.3557 Y46.5882
G01 X79.3600 Y46.5000
G01 X79.3557 Y46.4118
G01 X79.3427 Y46.3244
G01 X79.3212 Y46.2387
G01 X79.2915 Y46.1556
G01 X79.2537 Y46.0757
G01 X79.2083 Y46.0000
G01 X79.1557 Y45.9290
G01 X79.0964 Y45.8636
G01 X79.0310 Y45.8043
G01 X78.9600 Y45.7517
G01 X78.8843 Y45.7063
G01 X78.8044 Y45.6685
G01 X78.7213 Y45.6388
G01 X78.6356 Y45.6173
G01 X78.5482 Y45.6043
G01 X78.4575 Y45.6001
G00 Z1.0000
G00 X79.9988 Y47.3451
G01 F400.00
G01 Z-0.0500
G01 F2500.00
G01 X80.0022 Y47.3794
G01 X80.0108 Y47.4077
G01 X80.0247 Y47.4337
G01 X80.0434 Y47.4566
G01 X80.0663 Y47.4753
G01 X80.0923 Y47.4892
G01 X80.1206 Y47.4978
G01 X80.1549 Y47.5012
G01 X81.8451 Y47.5012
G01 X81.8794 Y47.4978
G01 X81.9077 Y47.4892
G01 X81.9337 Y47.4753
G01 X81.9566 Y47.4566
G01 X81.9753 Y47.4337
G01 X81.9892 Y47.4077
G01 X81.9978 Y47.3794
G01 X82.0012 Y47.3451
G01 X82.0012 Y45.6549
G01 X81.9978 Y45.6206
G01 X81.9892 Y45.5923
G01 X81.9753 Y45.5663
G01 X81.9566 Y45.5434
G01 X81.9337 Y45.5247
G01 X81.9077 Y45.5108
G01 X81.8794 Y45.5022
G01 X81.8451 Y45.4988
G01 X80.1549 Y45.4988
G01 X80.1206 Y45.5022
G01 X80.0923 Y45.5108
G01 X80.0663 Y45.5247
G01 X80.0434 Y45.5434
G01 X80.0247 Y45.5663
G01 X80.0108 Y45.5923
G01 X80.0022 Y45.6206
G01 X79.9988 Y45.6549
G01 X79.9988 Y47.3451
G00 Z1.0000
G00 X81.8500 Y45.6000
G01 F400.00
G01 Z-0.0500
G01 F2500.00
G01 X80.1500 Y45.6000
G01 X80.1402 Y45.6010
G01 X80.1309 Y45.6038
G01 X80.1264 Y45.6059
G01 X80.1212 Y45.6091
G01 X80.1138 Y45.6155
G01 X80.1078 Y45.6233
G01 X80.1038 Y45.6309
G01 X80.1010 Y45.6402
G01 X80.1000 Y45.6500
G01 X80.1000 Y47.3500
G01 X80.1010 Y47.3598
G01 X80.1038 Y47.3691
G01 X80.1084 Y47.3778
G01 X80.1121 Y47.3827
G01 X80.1155 Y47.3862
G01 X80.1233 Y47.3922
G01 X80.1320 Y47.3966
G01 X80.1415 Y47.3993
G01 X80.1500 Y47.4000
G01 X81.8500 Y47.4000
G01 X81.8598 Y47.3990
G01 X81.8645 Y47.3978
G01 X81.8703 Y47.3957
G01 X81.8788 Y47.3909
G01 X81.8862 Y47.3845
G01 X81.8922 Y47.3767
G01 X81.8962 Y47.3691
G01 X81.8990 Y47.3598
G01 X81.9000 Y47.3500
G01 X81.9000 Y45.6488
G01 X81.8988 Y45.6390
G01 X81.8962 Y45.6309
G01 X81.8916 Y45.6222
G01 X81.8854 Y45.6146
G01 X81.8778 Y45.6084
G01 X81.8691 Y45.6038
G01 X81.8598 Y45.6010
G01 X81.8500 Y45.6000
G00 Z1.0000
G00 X81.8892 Y49.3852
G01 F400.00
G01 Z-0.0500
G01 F2500.00
G01 X81.7913 Y49.0914
G01 X81.7853 Y49.0760
G01 X81.7784 Y49.0625
G01 X81.7734 Y49.0513
G01 X81.7673 Y49.0414
G01 X81.7580 Y49.0295
G01 X81.7509 Y49.0195
G01 X81.7402 Y49.0074
G01 X81.5449 Y48.8121
G01 X81.5399 Y48.8079
G01 X81.5323 Y48.8007
G01 X81.5202 Y48.7918
G01 X81.5109 Y48.7842
G01 X81.5008 Y48.7778
G01 X81.4872 Y48.7714
G01 X81.4766 Y48.7658
G01 X81.4654 Y48.7615
G01 X81.4508 Y48.7579
G01 X81.4394 Y48.7544
G01 X81.4232 Y48.7514
G01 X81.0297 Y48.7022
G01 X81.0177 Y48.7012
G01 X81.0024 Y48.7014
G01 X80.9851 Y48.7010
G01 X80.9736 Y48.7018
G01 X80.5801 Y48.7510
G01 X80.5737 Y48.7523
G01 X80.5633 Y48.7539
G01 X80.5489 Y48.7580
G01 X80.5372 Y48.7606
G01 X80.5260 Y48.7648
G01 X80.5126 Y48.7716
G01 X80.5016 Y48.7764
G01 X80.4914 Y48.7827
G01 X80.4820 Y48.7901
G01 X80.4698 Y48.7988
G01 X80.4574 Y48.8098
G01 X80.2621 Y49.0051
G01 X80.2581 Y49.0099
G01 X80.2509 Y49.0174
G01 X80.2419 Y49.0296
G01 X80.2342 Y49.0391
G01 X80.2280 Y49.0489
G01 X80.2216 Y49.0626
G01 X80.2158 Y49.0734
G01 X80.2098 Y49.0883
G01 X80.1118 Y49.3821
G01 X80.1087 Y49.3958
G01 X80.1049 Y49.4085
G01 X80.1021 Y49.4249
G01 X80.1015 Y49.4381
G01 X80.1000 Y49.4517
G01 X80.1000 Y50.4627
G01 X80.0988 Y50.4799
G01 X80.0988 Y51.7201
G01 X80.1094 Y51.8276
G01 X80.1393 Y51.9262
G01 X80.1879 Y52.0171
G01 X80.2533 Y52.0967
G01 X80.3329 Y52.1621
G01 X80.4238 Y52.2107
G01 X80.4790 Y52.2274
G01 X80.4871 Y52.2303
G01 X80.4993 Y52.2361
G01 X80.5056 Y52.2400
G01 X80.5125 Y52.2451
G01 X80.5207 Y52.2524
G01 X80.5273 Y52.2597
G01 X80.5338 Y52.2686
G01 X80.5393 Y52.2782
G01 X80.5433 Y52.2872
G01 X80.5457 Y52.2941
G01 X80.5476 Y52.3012
G01 X80.5494 Y52.3121
G01 X80.5500 Y52.3232
G01 X80.5500 Y52.6603
G01 X80.5492 Y52.6713
G01 X80.5481 Y52.6786
G01 X80.5464 Y52.6858
G01 X80.5429 Y52.6962
G01 X80.5382 Y52.7062
G01 X80.5332 Y52.7147
G01 X80.5288 Y52.7206
G01 X80.5207 Y52.7298
G01 X80.5115 Y52.7379
G01 X80.5056 Y52.7423
G01 X80.4993 Y52.7461
G01 X80.4894 Y52.7510
G01 X80.4802 Y52.7544
G01 X80.3967 Y52.7798
G01 X80.3274 Y52.8168
G01 X80.2667 Y52.8667
G01 X80.2168 Y52.9274
G01 X80.1798 Y52.9967
G01 X80.1570 Y53.0718
G01 X80.1488 Y53.1549
G01 X80.1488 Y53.7951
G01 X80.1570 Y53.8782
G01 X80.1798 Y53.9533
G01 X80.2168 Y54.0226
G01 X80.2667 Y54.0833
G01 X80.3274 Y54.1332
G01 X80.3967 Y54.1702
G01 X80.4718 Y54.1930
G01 X80.5549 Y54.2012
G01 X81.4451 Y54.2012
G01 X81.5282 Y54.1930
G01 X81.6033 Y54.1702
G01 X81.6726 Y54.1332
G01 X81.7333 Y54.0833
G01 X81.7832 Y54.0226
G01 X81.8202 Y53.9533
G01 X81.8430 Y53.8782
G01 X81.8512 Y53.7951
G01 X81.8512 Y53.1549
G01 X81.8430 Y53.0718
G01 X81.8202 Y52.9967
G01 X81.7832 Y52.9274
G01 X81.7333 Y52.8667
G01 X81.6726 Y52.8168
G01 X81.6033 Y52.7798
G01 X81.5198 Y52.7544
G01 X81.5106 Y52.7510
G01 X81.5007 Y52.7461
G01 X81.4944 Y52.7423
G01 X81.4885 Y52.7379
G01 X81.4793 Y52.7298
G01 X81.4712 Y52.7206
G01 X81.4668 Y52.7147
G01 X81.4618 Y52.7062
G01 X81.4571 Y52.6962
G01 X81.4536 Y52.6858
G01 X81.4519 Y52.6786
G01 X81.4508 Y52.6713
G01 X81.4500 Y52.6603
G01 X81.4500 Y52.3232
G01 X81.4506 Y52.3121
G01 X81.4524 Y52.3012
G01 X81.4551 Y52.2918
G01 X81.4576 Y52.2849
G01 X81.4607 Y52.2782
G01 X81.4662 Y52.2686
G01 X81.4727 Y52.2597
G01 X81.4793 Y52.2524
G01 X81.4875 Y52.2451
G01 X81.4944 Y52.2400
G01 X81.5007 Y52.2361
G01 X81.5129 Y52.2303
G01 X81.5210 Y52.2274
G01 X81.5762 Y52.2107
G01 X81.6671 Y52.1621
G01 X81.7467 Y52.0967
G01 X81.8121 Y52.0171
G01 X81.8607 Y51.9262
G01 X81.8906 Y51.8276
G01 X81.9012 Y51.7201
G01 X81.9012 Y50.4799
G01 X81.9000 Y50.4627
G01 X81.9000 Y49.4549
G01 X81.8986 Y49.4409
G01 X81.8982 Y49.4276
G01 X81.8957 Y49.4113
G01 X81.8921 Y49.3985
G01 X81.8892 Y49.3852
G00 Z1.0000
G00 X81.8000 Y50.5015
G01 F400.00
G01 Z-0.0500
G01 F2500.00
G01 X81.8000 Y49.4500
G01 X81.7996 Y49.4406
G01 X81.7977 Y49.4287
G01 X81.7949 Y49.4184
G01 X81.6949 Y49.1184
G01 X81.6919 Y49.1106
G01 X81.6882 Y49.1028
G01 X81.6832 Y49.0944
G01 X81.6781 Y49.0875
G01 X81.6707 Y49.0793
G01 X81.4690 Y48.8776
G01 X81.4637 Y48.8729
G01 X81.4572 Y48.8679
G01 X81.4471 Y48.8618
G01 X81.4397 Y48.8582
G01 X81.4330 Y48.8556
G01 X81.4206 Y48.8521
G01 X81.4124 Y48.8507
G01 X81.0124 Y48.8007
G01 X81.0048 Y48.8001
G01 X80.9965 Y48.8000
G01 X80.9876 Y48.8007
G01 X80.5864 Y48.8509
G01 X80.5783 Y48.8524
G01 X80.5714 Y48.8542
G01 X80.5603 Y48.8582
G01 X80.5498 Y48.8635
G01 X80.5438 Y48.8673
G01 X80.5372 Y48.8722
G01 X80.5293 Y48.8793
G01 X80.3293 Y49.0793
G01 X80.3216 Y49.0879
G01 X80.3174 Y49.0935
G01 X80.3131 Y49.1004
G01 X80.3084 Y49.1097
G01 X80.3051 Y49.1184
G01 X80.2051 Y49.4184
G01 X80.2018 Y49.4313
G01 X80.2005 Y49.4393
G01 X80.2000 Y49.4487
G01 X80.2000 Y51.7250
G01 X80.2020 Y51.7667
G01 X80.2079 Y51.8067
G01 X80.2183 Y51.8484
G01 X80.2324 Y51.8876
G01 X80.2502 Y51.9253
G01 X80.2703 Y51.9590
G01 X80.2981 Y51.9965
G01 X80.3245 Y52.0255
G01 X80.3563 Y52.0543
G01 X80.3889 Y52.0784
G01 X80.4247 Y52.0998
G01 X80.4624 Y52.1176
G01 X80.5005 Y52.1313
G01 X80.5421 Y52.1418
G01 X80.5821 Y52.1478
G01 X80.6238 Y52.1500
G01 X80.6499 Y52.1500
G01 X80.6498 Y52.8500
G01 X80.5488 Y52.8500
G01 X80.5206 Y52.8514
G01 X80.4915 Y52.8558
G01 X80.4629 Y52.8629
G01 X80.4352 Y52.8728
G01 X80.4086 Y52.8854
G01 X80.3833 Y52.9006
G01 X80.3597 Y52.9181
G01 X80.3379 Y52.9379
G01 X80.3181 Y52.9597
G01 X80.2992 Y52.9854
G01 X80.2854 Y53.0086
G01 X80.2738 Y53.0330
G01 X80.2637 Y53.0606
G01 X80.2558 Y53.0915
G01 X80.2514 Y53.1206
G01 X80.2500 Y53.1500
G01 X80.2500 Y53.8000
G01 X80.2514 Y53.8294
G01 X80.2558 Y53.8585
G01 X80.2629 Y53.8871
G01 X80.2738 Y53.9170
G01 X80.2854 Y53.9414
G01 X80.2992 Y53.9646
G01 X80.3181 Y53.9903
G01 X80.3396 Y54.0138
G01 X80.3597 Y54.0319
G01 X80.3813 Y54.0480
G01 X80.4086 Y54.0646
G01 X80.4363 Y54.0776
G01 X80.4629 Y54.0871
G01 X80.4915 Y54.0942
G01 X80.5206 Y54.0986
G01 X80.5488 Y54.1000
G01 X81.4500 Y54.1000
G01 X81.4806 Y54.0984
G01 X81.5085 Y54.0942
G01 X81.5347 Y54.0877
G01 X81.5648 Y54.0772
G01 X81.5936 Y54.0634
G01 X81.6167 Y54.0494
G01 X81.6384 Y54.0334
G01 X81.6621 Y54.0121
G01 X81.6834 Y53.9884
G01 X81.6994 Y53.9667
G01 X81.7134 Y53.9436
G01 X81.7276 Y53.9137
G01 X81.7371 Y53.8871
G01 X81.7442 Y53.8585
G01 X81.7486 Y53.8294
G01 X81.7500 Y53.8012
G01 X81.7500 Y53.1500
G01 X81.7486 Y53.1206
G01 X81.7440 Y53.0903
G01 X81.7371 Y53.0629
G01 X81.7272 Y53.0352
G01 X81.7146 Y53.0086
G01 X81.6994 Y52.9833
G01 X81.6819 Y52.9597
G01 X81.6621 Y52.9379
G01 X81.6403 Y52.9181
G01 X81.6146 Y52.8992
G01 X81.5914 Y52.8854
G01 X81.5648 Y52.8728
G01 X81.5371 Y52.8629
G01 X81.5085 Y52.8558
G01 X81.4794 Y52.8514
G01 X81.4512 Y52.8500
G01 X81.3501 Y52.8500
G01 X81.3502 Y52.1500
G01 X81.3762 Y52.1500
G01 X81.4179 Y52.1478
G01 X81.4579 Y52.1418
G01 X81.4972 Y52.1320
G01 X81.5399 Y52.1167
G01 X81.5753 Y52.0998
G01 X81.6121 Y52.0777
G01 X81.6446 Y52.0535
G01 X81.6755 Y52.0255
G01 X81.7035 Y51.9946
G01 X81.7270 Y51.9631
G01 X81.7509 Y51.9232
G01 X81.7676 Y51.8876
G01 X81.7820 Y51.8472
G01 X81.7918 Y51.8079
G01 X81.7977 Y51.7691
G01 X81.8000 Y51.7262
G01 X81.8000 Y50.5015
G00 Z1.0000
G00 X84.8000 Y50.5015
G01 F400.00
G01 Z-0.0500
G01 F2500.00
G01 X84.8000 Y49.4500
G01 X84.7996 Y49.4406
G01 X84.7977 Y49.4287
G01 X84.7949 Y49.4184
G01 X84.6949 Y49.1184
G01 X84.6919 Y49.1106
G01 X84.6882 Y49.1028
G01 X84.6832 Y49.0944
G01 X84.6781 Y49.0875
G01 X84.6707 Y49.0793
G01 X84.4690 Y48.8776
G01 X84.4637 Y48.8729
G01 X84.4572 Y48.8679
G01 X84.4471 Y48.8618
G01 X84.4397 Y48.8582
G01 X84.4330 Y48.8556
G01 X84.4206 Y48.8521
G01 X84.4124 Y48.8507
G01 X84.0124 Y48.8007
G01 X84.0048 Y48.8001
G01 X83.9965 Y48.8000
G01 X83.9876 Y48.8007
G01 X83.5864 Y48.8509
G01 X83.5783 Y48.8524
G01 X83.5714 Y48.8542
G01 X83.5603 Y48.8582
G01 X83.5498 Y48.8635
G01 X83.5438 Y48.8673
G01 X83.5372 Y48.8722
G01 X83.5293 Y48.8793
G01 X83.3293 Y49.0793
G01 X83.3216 Y49.0879
G01 X83.3174 Y49.0935
G01 X83.3131 Y49.1004
G01 X83.3084 Y49.1097
G01 X83.3051 Y49.1184
G01 X83.2051 Y49.4184
G01 X83.2018 Y49.4313
G01 X83.2005 Y49.4393
G01 X83.2000 Y49.4487
G01 X83.2000 Y51.7250
G01 X83.2020 Y51.7667
G01 X83.2079 Y51.8067
G01 X83.2183 Y51.8484
G01 X83.2324 Y51.8876
G01 X83.2502 Y51.9253
G01 X83.2703 Y51.9590
G01 X83.2981 Y51.9965
G01 X83.3245 Y52.0255
G01 X83.3563 Y52.0543
G01 X83.3889 Y52.0784
G01 X83.4247 Y52.0998
G01 X83.4624 Y52.1176
G01 X83.5005 Y52.1313
G01 X83.5421 Y52.1418
G01 X83.5821 Y52.1478
G01 X83.6238 Y52.1500
G01 X83.6499 Y52.1500
G01 X83.6498 Y52.8500
G01 X83.5488 Y52.8500
G01 X83.5206 Y52.8514
G01 X83.4915 Y52.8558
G01 X83.4629 Y52.8629
G01 X83.4352 Y52.8728
G01 X83.4086 Y52.8854
G01 X83.3833 Y52.9006
G01 X83.3597 Y52.9181
G01 X83.3379 Y52.9379
G01 X83.3181 Y52.9597
G01 X83.2992 Y52.9854
G01 X83.2854 Y53.0086
G01 X83.2738 Y53.0330
G01 X83.2637 Y53.0606
G01 X83.2558 Y53.0915
G01 X83.2514 Y53.1206
G01 X83.2500 Y53.1500
G01 X83.2500 Y53.8000
G01 X83.2514 Y53.8294
G01 X83.2558 Y53.8585
G01 X83.2629 Y53.8871
G01 X83.2738 Y53.9170
G01 X83.2854 Y53.9414
G01 X83.2992 Y53.9646
G01 X83.3181 Y53.9903
G01 X83.3396 Y54.0138
G01 X83.3597 Y54.0319
G01 X83.3813 Y54.0480
G01 X83.4086 Y54.0646
G01 X83.4363 Y54.0776
G01 X83.4629 Y54.0871
G01 X83.4915 Y54.0942
G01 X83.5206 Y54.0986
G01 X83.5488 Y54.1000
G01 X84.4500 Y54.1000
G01 X84.4806 Y54.0984
G01 X84.5085 Y54.0942
G01 X84.5347 Y54.0877
G01 X84.5648 Y54.0772
G01 X84.5936 Y54.0634
G01 X84.6167 Y54.0494
G01 X84.6384 Y54.0334
G01 X84.6621 Y54.0121
G01 X84.6834 Y53.9884
G01 X84.6994 Y53.9667
G01 X84.7134 Y53.9436
G01 X84.7276 Y53.9137
G01 X84.7371 Y53.8871
G01 X84.7442 Y53.8585
G01 X84.7486 Y53.8294
G01 X84.7500 Y53.8012
G01 X84.7500 Y53.1500
G01 X84.7486 Y53.1206
G01 X84.7440 Y53.0903
G01 X84.7371 Y53.0629
G01 X84.7272 Y53.0352
G01 X84.7146 Y53.0086
G01 X84.6994 Y52.9833
G01 X84.6819 Y52.9597
G01 X84.6621 Y52.9379
G01 X84.6403 Y52.9181
G01 X84.6146 Y52.8992
G01 X84.5914 Y52.8854
G01 X84.5648 Y52.8728
G01 X84.5371 Y52.8629
G01 X84.5085 Y52.8558
G01 X84.4794 Y52.8514
G01 X84.4512 Y52.8500
G01 X84.3501 Y52.8500
G01 X84.3502 Y52.1500
G01 X84.3762 Y52.1500
G01 X84.4179 Y52.1478
G01 X84.4579 Y52.1418
G01 X84.4972 Y52.1320
G01 X84.5399 Y52.1167
G01 X84.5753 Y52.0998
G01 X84.6121 Y52.0777
G01 X84.6446 Y52.0535
G01 X84.6755 Y52.0255
G01 X84.7035 Y51.9946
G01 X84.7270 Y51.9631
G01 X84.7509 Y51.9232
G01 X84.7676 Y51.8876
G01 X84.7820 Y51.8472
G01 X84.7918 Y51.8079
G01 X84.7977 Y51.7691
G01 X84.8000 Y51.7262
G01 X84.8000 Y50.5015
G00 Z1.0000
G00 X84.8892 Y49.3852
G01 F400.00
G01 Z-0.0500
G01 F2500.00
G01 X84.7913 Y49.0914
G01 X84.7853 Y49.0760
G01 X84.7784 Y49.0625
G01 X84.7734 Y49.0513
G01 X84.7673 Y49.0414
G01 X84.7580 Y49.0295
G01 X84.7509 Y49.0195
G01 X84.7402 Y49.0074
G01 X84.5449 Y48.8121
G01 X84.5399 Y48.8079
G01 X84.5323 Y48.8007
G01 X84.5202 Y48.7918
G01 X84.5109 Y48.7842
G01 X84.5008 Y48.7778
G01 X84.4872 Y48.7714
G01 X84.4766 Y48.7658
G01 X84.4654 Y48.7615
G01 X84.4508 Y48.7579
G01 X84.4394 Y48.7544
G01 X84.4232 Y48.7514
G01 X84.0297 Y48.7022
G01 X84.0177 Y48.7012
G01 X84.0024 Y48.7014
G01 X83.9851 Y48.7010
G01 X83.9736 Y48.7018
G01 X83.5801 Y48.7510
G01 X83.5737 Y48.7523
G01 X83.5633 Y48.7539
G01 X83.5489 Y48.7580
G01 X83.5372 Y48.7606
G01 X83.5260 Y48.7648
G01 X83.5126 Y48.7716
G01 X83.5016 Y48.7764
G01 X83.4914 Y48.7827
G01 X83.4820 Y48.7901
G01 X83.4698 Y48.7988
G01 X83.4574 Y48.8098
G01 X83.2621 Y49.0051
G01 X83.2581 Y49.0099
G01 X83.2509 Y49.0174
G01 X83.2419 Y49.0296
G01 X83.2342 Y49.0391
G01 X83.2280 Y49.0489
G01 X83.2216 Y49.0626
G01 X83.2158 Y49.0734
G01 X83.2098 Y49.0883
G01 X83.1118 Y49.3821
G01 X83.1087 Y49.3958
G01 X83.1049 Y49.4085
G01 X83.1021 Y49.4249
G01 X83.1015 Y49.4381
G01 X83.1000 Y49.4517
G01 X83.1000 Y50.4627
G01 X83.0988 Y50.4799
G01 X83.0988 Y51.7201
G01 X83.1094 Y51.8276
G01 X83.1393 Y51.9262
G01 X83.1879 Y52.0171
G01 X83.2533 Y52.0967
G01 X83.3329 Y52.1621
G01 X83.4238 Y52.2107
G01 X83.4790 Y52.2274
G01 X83.4871 Y52.2303
G01 X83.4993 Y52.2361
G01 X83.5056 Y52.2400
G01 X83.5125 Y52.2451
G01 X83.5207 Y52.2524
G01 X83.5273 Y52.2597
G01 X83.5338 Y52.2686
G01 X83.5393 Y52.2782
G01 X83.5433 Y52.2872
G01 X83.5457 Y52.2941
G01 X83.5476 Y52.3012
G01 X83.5494 Y52.3121
G01 X83.5500 Y52.3232
G01 X83.5500 Y52.6603
G01 X83.5492 Y52.6713
G01 X83.5481 Y52.6786
G01 X83.5464 Y52.6858
G01 X83.5429 Y52.6962
G01 X83.5382 Y52.7062
G01 X83.5332 Y52.7147
G01 X83.5288 Y52.7206
G01 X83.5207 Y52.7298
G01 X83.5115 Y52.7379
G01 X83.5056 Y52.7423
G01 X83.4993 Y52.7461
G01 X83.4894 Y52.7510
G01 X83.4802 Y52.7544
G01 X83.3967 Y52.7798
G01 X83.3274 Y52.8168
G01 X83.2667 Y52.8667
G01 X83.2168 Y52.9274
G01 X83.1798 Y52.9967
G01 X83.1570 Y53.0718
G01 X83.1488 Y53.1549
G01 X83.1488 Y53.7951
G01 X83.1570 Y53.8782
G01 X83.1798 Y53.9533
G01 X83.2168 Y54.0226
G01 X83.2667 Y54.0833
G01 X83.3274 Y54.1332
G01 X83.3967 Y54.1702
G01 X83.4718 Y54.1930
G01 X83.5549 Y54.2012
G01 X84.4451 Y54.2012
G01 X84.5282 Y54.1930
G01 X84.6033 Y54.1702
G01 X84.6726 Y54.1332
G01 X84.7333 Y54.0833
G01 X84.7832 Y54.0226
G01 X84.8202 Y53.9533
G01 X84.8430 Y53.8782
G01 X84.8512 Y53.7951
G01 X84.8512 Y53.1549
G01 X84.8430 Y53.0718
G01 X84.8202 Y52.9967
G01 X84.7832 Y52.9274
G01 X84.7333 Y52.8667
G01 X84.6726 Y52.8168
G01 X84.6033 Y52.7798
G01 X84.5198 Y52.7544
G01 X84.5106 Y52.7510
G01 X84.5007 Y52.7461
G01 X84.4944 Y52.7423
G01 X84.4885 Y52.7379
G01 X84.4793 Y52.7298
G01 X84.4712 Y52.7206
G01 X84.4668 Y52.7147
G01 X84.4618 Y52.7062
G01 X84.4571 Y52.6962
G01 X84.4536 Y52.6858
G01 X84.4519 Y52.6786
G01 X84.4508 Y52.6713
G01 X84.4500 Y52.6603
G01 X84.4500 Y52.3232
G01 X84.4506 Y52.3121
G01 X84.4524 Y52.3012
G01 X84.4551 Y52.2918
G01 X84.4576 Y52.2849
G01 X84.4607 Y52.2782
G01 X84.4662 Y52.2686
G01 X84.4727 Y52.2597
G01 X84.4793 Y52.2524
G01 X84.4875 Y52.2451
G01 X84.4944 Y52.2400
G01 X84.5007 Y52.2361
G01 X84.5129 Y52.2303
G01 X84.5210 Y52.2274
G01 X84.5762 Y52.2107
G01 X84.6671 Y52.1621
G01 X84.7467 Y52.0967
G01 X84.8121 Y52.0171
G01 X84.8607 Y51.9262
G01 X84.8906 Y51.8276
G01 X84.9012 Y51.7201
G01 X84.9012 Y50.4799
G01 X84.9000 Y50.4627
G01 X84.9000 Y49.4549
G01 X84.8986 Y49.4409
G01 X84.8982 Y49.4276
G01 X84.8957 Y49.4113
G01 X84.8921 Y49.3985
G01 X84.8892 Y49.3852
G00 Z1.0000
G00 X87.9975 Y48.6401
G01 F400.00
G01 Z-0.0500
G01 F2500.00
G01 X87.9118 Y48.6443
G01 X87.8244 Y48.6573
G01 X87.7387 Y48.6788
G01 X87.6556 Y48.7085
G01 X87.5757 Y48.7463
G01 X87.5000 Y48.7917
G01 X87.4290 Y48.8443
G01 X87.3636 Y48.9036
G01 X87.3043 Y48.9690
G01 X87.2517 Y49.0400
G01 X87.2063 Y49.1157
G01 X87.1685 Y49.1956
G01 X87.1388 Y49.2787
G01 X87.1173 Y49.3644
G01 X87.1043 Y49.4518
G01 X87.1000 Y49.5400
G01 X87.1043 Y49.6282
G01 X87.1173 Y49.7156
G01 X87.1388 Y49.8013
G01 X87.1685 Y49.8844
G01 X87.2063 Y49.9643
G01 X87.2517 Y50.0400
G01 X87.3043 Y50.1110
G01 X87.3636 Y50.1764
G01 X87.4290 Y50.2357
G01 X87.5000 Y50.2883
G01 X87.5757 Y50.3337
G01 X87.6556 Y50.3715
G01 X87.7387 Y50.4012
G01 X87.8244 Y50.4227
G01 X87.9118 Y50.4357
G01 X88.0000 Y50.4400
G01 X88.0882 Y50.4357
G01 X88.1756 Y50.4227
G01 X88.2613 Y50.4012
G01 X88.3444 Y50.3715
G01 X88.4243 Y50.3337
G01 X88.5000 Y50.2883
G01 X88.5710 Y50.2357
G01 X88.6364 Y50.1764
G01 X88.6957 Y50.1110
G01 X88.7483 Y50.0400
G01 X88.7937 Y49.9643
G01 X88.8315 Y49.8844
G01 X88.8612 Y49.8013
G01 X88.8827 Y49.7156
G01 X88.8957 Y49.6282
G01 X88.9000 Y49.5400
G01 X88.8957 Y49.4518
G01 X88.8827 Y49.3644
G01 X88.8612 Y49.2787
G01 X88.8315 Y49.1956
G01 X88.7937 Y49.1157
G01 X88.7483 Y49.0400
G01 X88.6957 Y48.9690
G01 X88.6364 Y48.9036
G01 X88.5710 Y48.8443
G01 X88.5000 Y48.7917
G01 X88.4243 Y48.7463
G01 X88.3444 Y48.7085
G01 X88.2613 Y48.6788
G01 X88.1756 Y48.6573
G01 X88.0882 Y48.6443
G01 X87.9975 Y48.6401
G00 Z1.0000
G00 X89.0000 Y49.6385
G01 F400.00
G01 Z-0.0500
G01 F2500.00
G01 X89.0000 Y49.4415
G01 X88.9615 Y49.2483
G01 X88.8862 Y49.0663
G01 X88.7767 Y48.9026
G01 X88.6374 Y48.7633
G01 X88.4737 Y48.6538
G01 X88.2917 Y48.5785
G01 X88.0985 Y48.5400
G01 X87.9015 Y48.5400
G01 X87.7083 Y48.5785
G01 X87.5263 Y48.6538
G01 X87.3626 Y48.7633
G01 X87.2233 Y48.9026
G01 X87.1138 Y49.0663
G01 X87.0385 Y49.2483
G01 X87.0000 Y49.4415
G01 X87.0000 Y49.6385
G01 X87.0385 Y49.8317
G01 X87.1138 Y50.0137
G01 X87.2233 Y50.1774
G01 X87.3626 Y50.3167
G01 X87.5263 Y50.4262
G01 X87.7083 Y50.5015
G01 X87.9015 Y50.5400
G01 X88.0985 Y50.5400
G01 X88.2917 Y50.5015
G01 X88.4737 Y50.4262
G01 X88.6374 Y50.3167
G01 X88.7767 Y50.1774
G01 X88.8862 Y50.0137
G01 X88.9615 Y49.8317
G01 X89.0000 Y49.6385
G00 Z1.0000
G00 X87.9975 Y51.1801
G01 F400.00
G01 Z-0.0500
G01 F2500.00
G01 X87.9118 Y51.1843
G01 X87.8244 Y51.1973
G01 X87.7387 Y51.2188
G01 X87.6556 Y51.2485
G01 X87.5757 Y51.2863
G01 X87.5000 Y51.3317
G01 X87.4290 Y51.3843
G01 X87.3636 Y51.4436
G01 X87.3043 Y51.5090
G01 X87.2517 Y51.5800
G01 X87.2063 Y51.6557
G01 X87.1685 Y51.7356
G01 X87.1388 Y51.8187
G01 X87.1173 Y51.9044
G01 X87.1043 Y51.9918
G01 X87.1000 Y52.0800
G01 X87.1043 Y52.1682
G01 X87.1173 Y52.2556
G01 X87.1388 Y52.3413
G01 X87.1685 Y52.4244
G01 X87.2063 Y52.5043
G01 X87.2517 Y52.5800
G01 X87.3043 Y52.6510
G01 X87.3636 Y52.7164
G01 X87.4290 Y52.7757
G01 X87.5000 Y52.8283
G01 X87.5757 Y52.8737
G01 X87.6556 Y52.9115
G01 X87.7387 Y52.9412
G01 X87.8244 Y52.9627
G01 X87.9118 Y52.9757
G01 X88.0000 Y52.9800
G01 X88.0882 Y52.9757
G01 X88.1756 Y52.9627
G01 X88.2613 Y52.9412
G01 X88.3444 Y52.9115
G01 X88.4243 Y52.8737
G01 X88.5000 Y52.8283
G01 X88.5710 Y52.7757
G01 X88.6364 Y52.7164
G01 X88.6957 Y52.6510
G01 X88.7483 Y52.5800
G01 X88.7937 Y52.5043
G01 X88.8315 Y52.4244
G01 X88.8612 Y52.3413
G01 X88.8827 Y52.2556
G01 X88.8957 Y52.1682
G01 X88.9000 Y52.0800
G01 X88.8957 Y51.9918
G01 X88.8827 Y51.9044
G01 X88.8612 Y51.8187
G01 X88.8315 Y51.7356
G01 X88.7937 Y51.6557
G01 X88.7483 Y51.5800
G01 X88.6957 Y51.5090
G01 X88.6364 Y51.4436
G01 X88.5710 Y51.3843
G01 X88.5000 Y51.3317
G01 X88.4243 Y51.2863
G01 X88.3444 Y51.2485
G01 X88.2613 Y51.2188
G01 X88.1756 Y51.1973
G01 X88.0882 Y51.1843
G01 X87.9975 Y51.1801
G00 Z1.0000
G00 X87.0488 Y51.7633
G01 F400.00
G01 Z-0.0500
G01 F2500.00
G01 X87.0385 Y51.7883
G01 X87.0000 Y51.9815
G01 X87.0000 Y52.1785
G01 X87.0385 Y52.3717
G01 X87.1138 Y52.5537
G01 X87.2233 Y52.7174
G01 X87.3626 Y52.8567
G01 X87.5263 Y52.9662
G01 X87.7083 Y53.0415
G01 X87.9015 Y53.0800
G01 X88.0985 Y53.0800
G01 X88.2917 Y53.0415
G01 X88.4737 Y52.9662
G01 X88.6374 Y52.8567
G01 X88.7767 Y52.7174
G01 X88.8862 Y52.5537
G01 X88.9615 Y52.3717
G01 X89.0000 Y52.1785
G01 X89.0000 Y51.9815
G01 X88.9615 Y51.7883
G01 X88.8862 Y51.6063
G01 X88.7767 Y51.4426
G01 X88.6374 Y51.3033
G01 X88.4737 Y51.1938
G01 X88.2917 Y51.1185
G01 X88.0985 Y51.0800
G01 X87.9015 Y51.0800
G01 X87.7083 Y51.1185
G01 X87.5263 Y51.1938
G01 X87.3626 Y51.3033
G01 X87.2233 Y51.4426
G01 X87.1138 Y51.6063
G01 X87.0488 Y51.7633
G00 Z1.0000
G00 X87.3301 Y54.0205
G01 F400.00
G01 Z-0.0500
G01 F2500.00
G01 X87.3645 Y53.9827
G01 X87.4281 Y53.9251
G01 X87.5000 Y53.8717
G01 X87.5768 Y53.8257
G01 X87.6545 Y53.7890
G01 X87.7000 Y53.7726
G01 X87.7000 Y53.4386
G01 X87.5859 Y53.3911
G01 X87.3807 Y53.4776
G01 X87.1697 Y53.6204
G01 X86.9906 Y53.8015
G01 X86.9006 Y53.9381
G01 X86.9375 Y53.9327
G01 X87.0012 Y53.9297
G01 X87.0637 Y53.9328
G01 X87.1269 Y53.9422
G01 X87.1888 Y53.9577
G01 X87.2477 Y53.9787
G01 X87.3055 Y54.0059
G01 X87.3301 Y54.0205
G00 Z1.0000
G00 X87.7000 Y55.4674
G01 F400.00
G01 Z-0.0500
G01 F2500.00
G01 X87.6545 Y55.4510
G01 X87.5768 Y55.4143
G01 X87.4990 Y55.3676
G01 X87.4272 Y55.3141
G01 X87.3636 Y55.2564
G01 X87.3063 Y55.1933
G01 X87.0257 Y55.4740
G01 X87.1697 Y55.6196
G01 X87.3807 Y55.7624
G01 X87.5859 Y55.8489
G01 X87.7000 Y55.8014
G01 X87.7000 Y55.4674
G00 Z1.0000
G00 X88.3000 Y55.4674
G01 F400.00
G01 Z-0.0500
G01 F2500.00
G01 X88.3000 Y55.8014
G01 X88.4141 Y55.8489
G01 X88.6193 Y55.7624
G01 X88.8303 Y55.6196
G01 X89.0094 Y55.4385
G01 X89.1498 Y55.2256
G01 X89.2289 Y55.0347
G01 X89.1803 Y54.9200
G01 X88.8474 Y54.9200
G01 X88.8310 Y54.9655
G01 X88.7943 Y55.0432
G01 X88.7490 Y55.1190
G01 X88.6957 Y55.1910
G01 X88.6364 Y55.2564
G01 X88.5710 Y55.3157
G01 X88.4990 Y55.3690
G01 X88.4232 Y55.4143
G01 X88.3455 Y55.4510
G01 X88.3000 Y55.4674
G00 Z1.0000
G00 X88.8474 Y54.3200
G01 F400.00
G01 Z-0.0500
G01 F2500.00
G01 X89.1803 Y54.3200
G01 X89.2289 Y54.2053
G01 X89.1498 Y54.0144
G01 X89.0094 Y53.8015
G01 X88.8303 Y53.6204
G01 X88.6193 Y53.4776
G01 X88.4141 Y53.3911
G01 X88.3000 Y53.4386
G01 X88.3000 Y53.7726
G01 X88.3455 Y53.7890
G01 X88.4232 Y53.8257
G01 X88.4990 Y53.8710
G01 X88.5710 Y53.9243
G01 X88.6364 Y53.9836
G01 X88.6957 Y54.0490
G01 X88.7490 Y54.1210
G01 X88.7943 Y54.1968
G01 X88.8310 Y54.2745
G01 X88.8474 Y54.3200
G00 Z1.0000
G00 X90.4250 Y56.8250
G01 F400.00
G01 Z-0.0500
G01 F2500.00
G01 X90.4250 Y26.4250
G01 X90.4245 Y26.4152
G01 X90.4231 Y26.4055
G01 X90.4207 Y26.3960
G01 X90.4174 Y26.3867
G01 X90.4132 Y26.3778
G01 X90.4082 Y26.3694
G01 X90.4023 Y26.3615
G01 X90.3957 Y26.3543
G01 X90.3885 Y26.3477
G01 X90.3806 Y26.3418
G01 X90.3722 Y26.3368
G01 X90.3633 Y26.3326
G01 X90.3540 Y26.3293
G01 X90.3445 Y26.3269
G01 X90.3348 Y26.3255
G01 X90.3250 Y26.3250
G01 X60.6750 Y26.3250
G01 X60.6652 Y26.3255
G01 X60.6555 Y26.3269
G01 X60.6460 Y26.3293
G01 X60.6367 Y26.3326
G01 X60.6278 Y26.3368
G01 X60.6194 Y26.3418
G01 X60.6115 Y26.3477
G01 X60.6043 Y26.3543
G01 X60.5977 Y26.3615
G01 X60.5918 Y26.3694
G01 X60.5868 Y26.3778
G01 X60.5826 Y26.3867
G01 X60.5793 Y26.3960
G01 X60.5769 Y26.4055
G01 X60.5755 Y26.4152
G01 X60.5750 Y26.4250
G01 X60.5750 Y56.8250
G01 X60.5755 Y56.8348
G01 X60.5769 Y56.8445
G01 X60.5793 Y56.8540
G01 X60.5826 Y56.8633
G01 X60.5868 Y56.8722
G01 X60.5918 Y56.8806
G01 X60.5977 Y56.8885
G01 X60.6043 Y56.8957
G01 X60.6115 Y56.9023
G01 X60.6194 Y56.9082
G01 X60.6278 Y56.9132
G01 X60.6367 Y56.9174
G01 X60.6460 Y56.9207
G01 X60.6555 Y56.9231
G01 X60.6652 Y56.9245
G01 X60.6750 Y56.9250
G01 X90.3250 Y56.9250
G01 X90.3348 Y56.9245
G01 X90.3445 Y56.9231
G01 X90.3540 Y56.9207
G01 X90.3633 Y56.9174
G01 X90.3722 Y56.9132
G01 X90.3806 Y56.9082
G01 X90.3885 Y56.9023
G01 X90.3957 Y56.8957
G01 X90.4023 Y56.8885
G01 X90.4082 Y56.8806
G01 X90.4132 Y56.8722
G01 X90.4174 Y56.8633
G01 X90.4207 Y56.8540
G01 X90.4231 Y56.8445
G01 X90.4245 Y56.8348
G01 X90.4250 Y56.8250
G00 Z1.0000
G00 X89.0504 Y60.2956
G01 F400.00
G01 Z-0.0500
G01 F2500.00
G01 X89.0526 Y60.1044
G01 X89.0435 Y60.0118
G01 X89.0177 Y59.9270
G01 X88.9760 Y59.8488
G01 X88.9197 Y59.7803
G01 X88.8512 Y59.7240
G01 X88.7730 Y59.6823
G01 X88.6882 Y59.6565
G01 X88.5955 Y59.6474
G01 X88.2792 Y59.6497
G01 X88.2000 Y59.7289
G01 X88.2000 Y60.0500
G01 X88.3512 Y60.0500
G01 X88.3794 Y60.0514
G01 X88.4073 Y60.0555
G01 X88.4371 Y60.0629
G01 X88.4648 Y60.0728
G01 X88.4914 Y60.0854
G01 X88.5177 Y60.1013
G01 X88.5422 Y60.1197
G01 X88.5621 Y60.1379
G01 X88.5803 Y60.1578
G01 X88.5994 Y60.1833
G01 X88.6157 Y60.2108
G01 X88.6272 Y60.2352
G01 X88.6363 Y60.2606
G01 X88.6442 Y60.2915
G01 X88.6487 Y60.3218
G01 X88.6500 Y60.3488
G01 X88.6500 Y60.3750
G01 X88.9711 Y60.3750
G01 X89.0504 Y60.2956
G00 Z1.0000
G00 X88.9760 Y61.5012
G01 F400.00
G01 Z-0.0500
G01 F2500.00
G01 X89.0177 Y61.4230
G01 X89.0435 Y61.3382
G01 X89.0526 Y61.2456
G01 X89.0504 Y61.0544
G01 X88.9711 Y60.9750
G01 X88.6500 Y60.9750
G01 X88.6500 Y61.0012
G01 X88.6487 Y61.0282
G01 X88.6442 Y61.0585
G01 X88.6363 Y61.0894
G01 X88.6272 Y61.1148
G01 X88.6157 Y61.1392
G01 X88.5994 Y61.1667
G01 X88.5803 Y61.1922
G01 X88.5621 Y61.2121
G01 X88.5422 Y61.2303
G01 X88.5177 Y61.2487
G01 X88.4914 Y61.2646
G01 X88.4648 Y61.2772
G01 X88.4371 Y61.2871
G01 X88.4073 Y61.2945
G01 X88.3794 Y61.2986
G01 X88.3512 Y61.3000
G01 X88.2000 Y61.3000
G01 X88.2000 Y61.6211
G01 X88.2792 Y61.7003
G01 X88.5955 Y61.7026
G01 X88.6882 Y61.6935
G01 X88.7730 Y61.6677
G01 X88.8512 Y61.6260
G01 X88.9197 Y61.5697
G01 X88.9760 Y61.5012
G00 Z1.0000
G00 X87.6000 Y61.3000
G01 F400.00
G01 Z-0.0500
G01 F2500.00
G01 X87.4488 Y61.3000
G01 X87.4206 Y61.2986
G01 X87.3939 Y61.2947
G01 X87.3629 Y61.2871
G01 X87.3352 Y61.2772
G01 X87.3086 Y61.2646
G01 X87.2854 Y61.2508
G01 X87.2597 Y61.2319
G01 X87.2362 Y61.2104
G01 X87.2181 Y61.1903
G01 X87.2020 Y61.1687
G01 X87.1866 Y61.1436
G01 X87.1728 Y61.1148
G01 X87.1629 Y61.0871
G01 X87.1558 Y61.0585
G01 X87.1517 Y61.0318
G01 X87.1512 Y61.0252
G01 X86.7788 Y61.0252
G01 X86.7496 Y61.0544
G01 X86.7474 Y61.2456
G01 X86.7565 Y61.3382
G01 X86.7823 Y61.4230
G01 X86.8240 Y61.5012
G01 X86.8803 Y61.5697
G01 X86.9488 Y61.6260
G01 X87.0270 Y61.6677
G01 X87.1118 Y61.6935
G01 X87.2045 Y61.7026
G01 X87.5208 Y61.7003
G01 X87.6000 Y61.6211
G01 X87.6000 Y61.3000
G00 Z1.0000
G00 X86.0212 Y61.0251
G01 F400.00
G01 Z-0.0500
G01 F2500.00
G01 X85.6488 Y61.0251
G01 X85.6483 Y61.0318
G01 X85.6442 Y61.0585
G01 X85.6371 Y61.0871
G01 X85.6272 Y61.1148
G01 X85.6134 Y61.1436
G01 X85.5980 Y61.1687
G01 X85.5819 Y61.1903
G01 X85.5638 Y61.2104
G01 X85.5403 Y61.2319
G01 X85.5146 Y61.2508
G01 X85.4914 Y61.2646
G01 X85.4648 Y61.2772
G01 X85.4371 Y61.2871
G01 X85.4061 Y61.2947
G01 X85.3794 Y61.2986
G01 X85.3512 Y61.3000
G01 X85.2000 Y61.3000
G01 X85.2000 Y61.6211
G01 X85.2792 Y61.7003
G01 X85.5955 Y61.7026
G01 X85.6882 Y61.6935
G01 X85.7730 Y61.6677
G01 X85.8512 Y61.6260
G01 X85.9197 Y61.5697
G01 X85.9760 Y61.5012
G01 X86.0177 Y61.4230
G01 X86.0435 Y61.3382
G01 X86.0526 Y61.2456
G01 X86.0504 Y61.0544
G01 X86.0212 Y61.0251
G00 Z1.0000
G00 X86.0504 Y60.2956
G01 F400.00
G01 Z-0.0500
G01 F2500.00
G01 X86.0526 Y60.1044
G01 X86.0435 Y60.0118
G01 X86.0177 Y59.9270
G01 X85.9760 Y59.8488
G01 X85.9197 Y59.7803
G01 X85.8512 Y59.7240
G01 X85.7730 Y59.6823
G01 X85.6882 Y59.6565
G01 X85.5955 Y59.6474
G01 X85.2792 Y59.6497
G01 X85.2000 Y59.7289
G01 X85.2000 Y60.0500
G01 X85.3512 Y60.0500
G01 X85.3794 Y60.0514
G01 X85.4061 Y60.0553
G01 X85.4371 Y60.0629
G01 X85.4648 Y60.0728
G01 X85.4914 Y60.0854
G01 X85.5146 Y60.0992
G01 X85.5403 Y60.1181
G01 X85.5638 Y60.1396
G01 X85.5819 Y60.1597
G01 X85.5980 Y60.1813
G01 X85.6134 Y60.2064
G01 X85.6272 Y60.2352
G01 X85.6371 Y60.2629
G01 X85.6442 Y60.2915
G01 X85.6483 Y60.3182
G01 X85.6488 Y60.3249
G01 X86.0212 Y60.3249
G01 X86.0504 Y60.2956
G00 Z1.0000
G00 X87.5208 Y59.6497
G01 F400.00
G01 Z-0.0500
G01 F2500.00
G01 X87.2045 Y59.6474
G01 X87.1118 Y59.6565
G01 X87.0270 Y59.6823
G01 X86.9488 Y59.7240
G01 X86.8803 Y59.7803
G01 X86.8240 Y59.8488
G01 X86.7823 Y59.9270
G01 X86.7565 Y60.0118
G01 X86.7474 Y60.1044
G01 X86.7496 Y60.2956
G01 X86.7788 Y60.3249
G01 X87.1512 Y60.3249
G01 X87.1517 Y60.3182
G01 X87.1558 Y60.2915
G01 X87.1629 Y60.2629
G01 X87.1728 Y60.2352
G01 X87.1866 Y60.2064
G01 X87.2020 Y60.1813
G01 X87.2181 Y60.1597
G01 X87.2362 Y60.1396
G01 X87.2597 Y60.1181
G01 X87.2854 Y60.0992
G01 X87.3086 Y60.0854
G01 X87.3352 Y60.0728
G01 X87.3629 Y60.0629
G01 X87.3939 Y60.0553
G01 X87.4206 Y60.0514
G01 X87.4488 Y60.0500
G01 X87.6000 Y60.0500
G01 X87.6000 Y59.7289
G01 X87.5208 Y59.6497
G00 Z1.0000
G00 X84.5208 Y59.6497
G01 F400.00
G01 Z-0.0500
G01 F2500.00
G01 X84.2045 Y59.6474
G01 X84.1118 Y59.6565
G01 X84.0270 Y59.6823
G01 X83.9488 Y59.7240
G01 X83.8803 Y59.7803
G01 X83.8240 Y59.8488
G01 X83.7823 Y59.9270
G01 X83.7565 Y60.0118
G01 X83.7474 Y60.1044
G01 X83.7496 Y60.2956
G01 X83.7788 Y60.3249
G01 X84.1512 Y60.3249
G01 X84.1517 Y60.3182
G01 X84.1558 Y60.2915
G01 X84.1629 Y60.2629
G01 X84.1728 Y60.2352
G01 X84.1866 Y60.2064
G01 X84.2020 Y60.1813
G01 X84.2181 Y60.1597
G01 X84.2362 Y60.1396
G01 X84.2597 Y60.1181
G01 X84.2854 Y60.0992
G01 X84.3086 Y60.0854
G01 X84.3352 Y60.0728
G01 X84.3629 Y60.0629
G01 X84.3939 Y60.0553
G01 X84.4206 Y60.0514
G01 X84.4488 Y60.0500
G01 X84.6000 Y60.0500
G01 X84.6000 Y59.7289
G01 X84.5208 Y59.6497
G00 Z1.0000
G00 X83.0504 Y60.2956
G01 F400.00
G01 Z-0.0500
G01 F2500.00
G01 X83.0526 Y60.1044
G01 X83.0435 Y60.0118
G01 X83.0177 Y59.9270
G01 X82.9760 Y59.8488
G01 X82.9197 Y59.7803
G01 X82.8512 Y59.7240
G01 X82.7730 Y59.6823
G01 X82.6882 Y59.6565
G01 X82.5955 Y59.6474
G01 X82.2792 Y59.6497
G01 X82.2000 Y59.7289
G01 X82.2000 Y60.0500
G01 X82.3512 Y60.0500
G01 X82.3794 Y60.0514
G01 X82.4061 Y60.0553
G01 X82.4371 Y60.0629
G01 X82.4648 Y60.0728
G01 X82.4914 Y60.0854
G01 X82.5146 Y60.0992
G01 X82.5403 Y60.1181
G01 X82.5638 Y60.1396
G01 X82.5819 Y60.1597
G01 X82.5980 Y60.1813
G01 X82.6134 Y60.2064
G01 X82.6272 Y60.2352
G01 X82.6371 Y60.2629
G01 X82.6442 Y60.2915
G01 X82.6483 Y60.3182
G01 X82.6488 Y60.3249
G01 X83.0212 Y60.3249
G01 X83.0504 Y60.2956
G00 Z1.0000
G00 X83.0212 Y61.0251
G01 F400.00
G01 Z-0.0500
G01 F2500.00
G01 X82.6488 Y61.0251
G01 X82.6483 Y61.0318
G01 X82.6442 Y61.0585
G01 X82.6371 Y61.0871
G01 X82.6272 Y61.1148
G01 X82.6134 Y61.1436
G01 X82.5980 Y61.1687
G01 X82.5819 Y61.1903
G01 X82.5638 Y61.2104
G01 X82.5403 Y61.2319
G01 X82.5146 Y61.2508
G01 X82.4914 Y61.2646
G01 X82.4648 Y61.2772
G01 X82.4371 Y61.2871
G01 X82.4061 Y61.2947
G01 X82.3794 Y61.2986
G01 X82.3512 Y61.3000
G01 X82.2000 Y61.3000
G01 X82.2000 Y61.6211
G01 X82.2792 Y61.7003
G01 X82.5955 Y61.7026
G01 X82.6882 Y61.6935
G01 X82.7730 Y61.6677
G01 X82.8512 Y61.6260
G01 X82.9197 Y61.5697
G01 X82.9760 Y61.5012
G01 X83.0177 Y61.4230
G01 X83.0435 Y61.3382
G01 X83.0526 Y61.2456
G01 X83.0504 Y61.0544
G01 X83.0212 Y61.0251
G00 Z1.0000
G00 X81.6000 Y61.3000
G01 F400.00
G01 Z-0.0500
G01 F2500.00
G01 X81.4488 Y61.3000
G01 X81.4206 Y61.2986
G01 X81.3939 Y61.2947
G01 X81.3629 Y61.2871
G01 X81.3352 Y61.2772
G01 X81.3086 Y61.2646
G01 X81.2854 Y61.2508
G01 X81.2597 Y61.2319
G01 X81.2362 Y61.2104
G01 X81.2181 Y61.1903
G01 X81.2020 Y61.1687
G01 X81.1866 Y61.1436
G01 X81.1728 Y61.1148
G01 X81.1629 Y61.0871
G01 X81.1558 Y61.0585
G01 X81.1517 Y61.0318
G01 X81.1512 Y61.0252
G01 X80.7788 Y61.0252
G01 X80.7496 Y61.0544
G01 X80.7474 Y61.2456
G01 X80.7565 Y61.3382
G01 X80.7823 Y61.4230
G01 X80.8240 Y61.5012
G01 X80.8803 Y61.5697
G01 X80.9488 Y61.6260
G01 X81.0270 Y61.6677
G01 X81.1118 Y61.6935
G01 X81.2045 Y61.7026
G01 X81.5208 Y61.7003
G01 X81.6000 Y61.6211
G01 X81.6000 Y61.3000
G00 Z1.0000
G00 X80.0212 Y61.0251
G01 F400.00
G01 Z-0.0500
G01 F2500.00
G01 X79.6488 Y61.0251
G01 X79.6483 Y61.0318
G01 X79.6442 Y61.0585
G01 X79.6371 Y61.0871
G01 X79.6272 Y61.1148
G01 X79.6134 Y61.1436
G01 X79.5980 Y61.1687
G01 X79.5819 Y61.1903
G01 X79.5638 Y61.2104
G01 X79.5403 Y61.2319
G01 X79.5146 Y61.2508
G01 X79.4914 Y61.2646
G01 X79.4648 Y61.2772
G01 X79.4371 Y61.2871
G01 X79.4061 Y61.2947
G01 X79.3794 Y61.2986
G01 X79.3512 Y61.3000
G01 X79.2000 Y61.3000
G01 X79.2000 Y61.6211
G01 X79.2792 Y61.7003
G01 X79.5955 Y61.7026
G01 X79.6882 Y61.6935
G01 X79.7730 Y61.6677
G01 X79.8512 Y61.6260
G01 X79.9197 Y61.5697
G01 X79.9760 Y61.5012
G01 X80.0177 Y61.4230
G01 X80.0435 Y61.3382
G01 X80.0526 Y61.2456
G01 X80.0504 Y61.0544
G01 X80.0212 Y61.0251
G00 Z1.0000
G00 X80.0504 Y60.2956
G01 F400.00
G01 Z-0.0500
G01 F2500.00
G01 X80.0526 Y60.1044
G01 X80.0435 Y60.0118
G01 X80.0177 Y59.9270
G01 X79.9760 Y59.8488
G01 X79.9197 Y59.7803
G01 X79.8512 Y59.7240
G01 X79.7730 Y59.6823
G01 X79.6882 Y59.6565
G01 X79.5955 Y59.6474
G01 X79.2792 Y59.6497
G01 X79.2000 Y59.7289
G01 X79.2000 Y60.0500
G01 X79.3512 Y60.0500
G01 X79.3794 Y60.0514
G01 X79.4061 Y60.0553
G01 X79.4371 Y60.0629
G01 X79.4648 Y60.0728
G01 X79.4914 Y60.0854
G01 X79.5146 Y60.0992
G01 X79.5403 Y60.1181
G01 X79.5638 Y60.1396
G01 X79.5819 Y60.1597
G01 X79.5980 Y60.1813
G01 X79.6134 Y60.2064
G01 X79.6272 Y60.2352
G01 X79.6371 Y60.2629
G01 X79.6442 Y60.2915
G01 X79.6483 Y60.3182
G01 X79.6488 Y60.3249
G01 X80.0212 Y60.3249
G01 X80.0504 Y60.2956
G00 Z1.0000
G00 X81.5208 Y59.6497
G01 F400.00
G01 Z-0.0500
G01 F2500.00
G01 X81.2045 Y59.6474
G01 X81.1118 Y59.6565
G01 X81.0270 Y59.6823
G01 X80.9488 Y59.7240
G01 X80.8803 Y59.7803
G01 X80.8240 Y59.8488
G01 X80.7823 Y59.9270
G01 X80.7565 Y60.0118
G01 X80.7474 Y60.1044
G01 X80.7496 Y60.2956
G01 X80.7788 Y60.3249
G01 X81.1512 Y60.3249
G01 X81.1517 Y60.3182
G01 X81.1558 Y60.2915
G01 X81.1629 Y60.2629
G01 X81.1728 Y60.2352
G01 X81.1866 Y60.2064
G01 X81.2020 Y60.1813
G01 X81.2181 Y60.1597
G01 X81.2362 Y60.1396
G01 X81.2597 Y60.1181
G01 X81.2854 Y60.0992
G01 X81.3086 Y60.0854
G01 X81.3352 Y60.0728
G01 X81.3629 Y60.0629
G01 X81.3939 Y60.0553
G01 X81.4206 Y60.0514
G01 X81.4488 Y60.0500
G01 X81.6000 Y60.0500
G01 X81.6000 Y59.7289
G01 X81.5208 Y59.6497
G00 Z1.0000
G00 X78.5208 Y59.6497
G01 F400.00
G01 Z-0.0500
G01 F2500.00
G01 X78.2045 Y59.6474
G01 X78.1118 Y59.6565
G01 X78.0270 Y59.6823
G01 X77.9488 Y59.7240
G01 X77.8803 Y59.7803
G01 X77.8240 Y59.8488
G01 X77.7823 Y59.9270
G01 X77.7565 Y60.0118
G01 X77.7474 Y60.1044
G01 X77.7496 Y60.2956
G01 X77.7788 Y60.3249
G01 X78.1512 Y60.3249
G01 X78.1517 Y60.3182
G01 X78.1558 Y60.2915
G01 X78.1629 Y60.2629
G01 X78.1728 Y60.2352
G01 X78.1866 Y60.2064
G01 X78.2020 Y60.1813
G01 X78.2181 Y60.1597
G01 X78.2362 Y60.1396
G01 X78.2597 Y60.1181
G01 X78.2854 Y60.0992
G01 X78.3086 Y60.0854
G01 X78.3352 Y60.0728
G01 X78.3629 Y60.0629
G01 X78.3939 Y60.0553
G01 X78.4206 Y60.0514
G01 X78.4488 Y60.0500
G01 X78.6000 Y60.0500
G01 X78.6000 Y59.7289
G01 X78.5208 Y59.6497
G00 Z1.0000
G00 X77.0504 Y60.2956
G01 F400.00
G01 Z-0.0500
G01 F2500.00
G01 X77.0526 Y60.1044
G01 X77.0435 Y60.0118
G01 X77.0177 Y59.9270
G01 X76.9760 Y59.8488
G01 X76.9197 Y59.7803
G01 X76.8512 Y59.7240
G01 X76.7730 Y59.6823
G01 X76.6882 Y59.6565
G01 X76.5955 Y59.6474
G01 X76.2792 Y59.6497
G01 X76.2000 Y59.7289
G01 X76.2000 Y60.0500
G01 X76.3512 Y60.0500
G01 X76.3794 Y60.0514
G01 X76.4061 Y60.0553
G01 X76.4371 Y60.0629
G01 X76.4648 Y60.0728
G01 X76.4914 Y60.0854
G01 X76.5146 Y60.0992
G01 X76.5403 Y60.1181
G01 X76.5638 Y60.1396
G01 X76.5819 Y60.1597
G01 X76.5980 Y60.1813
G01 X76.6134 Y60.2064
G01 X76.6272 Y60.2352
G01 X76.6371 Y60.2629
G01 X76.6442 Y60.2915
G01 X76.6483 Y60.3182
G01 X76.6488 Y60.3249
G01 X77.0212 Y60.3249
G01 X77.0504 Y60.2956
G00 Z1.0000
G00 X77.0212 Y61.0251
G01 F400.00
G01 Z-0.0500
G01 F2500.00
G01 X76.6488 Y61.0251
G01 X76.6483 Y61.0318
G01 X76.6442 Y61.0585
G01 X76.6371 Y61.0871
G01 X76.6272 Y61.1148
G01 X76.6134 Y61.1436
G01 X76.5980 Y61.1687
G01 X76.5819 Y61.1903
G01 X76.5638 Y61.2104
G01 X76.5403 Y61.2319
G01 X76.5146 Y61.2508
G01 X76.4914 Y61.2646
G01 X76.4648 Y61.2772
G01 X76.4371 Y61.2871
G01 X76.4061 Y61.2947
G01 X76.3794 Y61.2986
G01 X76.3512 Y61.3000
G01 X76.2000 Y61.3000
G01 X76.2000 Y61.6211
G01 X76.2792 Y61.7003
G01 X76.5955 Y61.7026
G01 X76.6882 Y61.6935
G01 X76.7730 Y61.6677
G01 X76.8512 Y61.6260
G01 X76.9197 Y61.5697
G01 X76.9760 Y61.5012
G01 X77.0177 Y61.4230
G01 X77.0435 Y61.3382
G01 X77.0526 Y61.2456
G01 X77.0504 Y61.0544
G01 X77.0212 Y61.0251
G00 Z1.0000
G00 X75.6000 Y61.3000
G01 F400.00
G01 Z-0.0500
G01 F2500.00
G01 X75.4488 Y61.3000
G01 X75.4206 Y61.2986
G01 X75.3939 Y61.2947
G01 X75.3629 Y61.2871
G01 X75.3352 Y61.2772
G01 X75.3086 Y61.2646
G01 X75.2854 Y61.2508
G01 X75.2597 Y61.2319
G01 X75.2362 Y61.2104
G01 X75.2181 Y61.1903
G01 X75.2020 Y61.1687
G01 X75.1866 Y61.1436
G01 X75.1728 Y61.1148
G01 X75.1629 Y61.0871
G01 X75.1558 Y61.0585
G01 X75.1517 Y61.0318
G01 X75.1512 Y61.0252
G01 X74.7788 Y61.0252
G01 X74.7496 Y61.0544
G01 X74.7474 Y61.2456
G01 X74.7565 Y61.3382
G01 X74.7823 Y61.4230
G01 X74.8240 Y61.5012
G01 X74.8803 Y61.5697
G01 X74.9488 Y61.6260
G01 X75.0270 Y61.6677
G01 X75.1118 Y61.6935
G01 X75.2045 Y61.7026
G01 X75.5208 Y61.7003
G01 X75.6000 Y61.6211
G01 X75.6000 Y61.3000
G00 Z1.0000
G00 X73.9962 Y61.0251
G01 F400.00
G01 Z-0.0500
G01 F2500.00
G01 X73.6500 Y61.0251
G01 X73.6483 Y61.0568
G01 X73.6442 Y61.0835
G01 X73.6377 Y61.1097
G01 X73.6272 Y61.1398
G01 X73.6146 Y61.1664
G01 X73.5994 Y61.1917
G01 X73.5803 Y61.2172
G01 X73.5621 Y61.2371
G01 X73.5422 Y61.2553
G01 X73.5167 Y61.2744
G01 X73.4914 Y61.2896
G01 X73.4648 Y61.3022
G01 X73.4371 Y61.3121
G01 X73.4061 Y61.3197
G01 X73.3794 Y61.3236
G01 X73.3512 Y61.3250
G01 X73.2000 Y61.3250
G01 X73.2000 Y61.6461
G01 X73.2792 Y61.7253
G01 X73.5955 Y61.7276
G01 X73.6882 Y61.7185
G01 X73.7730 Y61.6927
G01 X73.8512 Y61.6510
G01 X73.9197 Y61.5947
G01 X73.9760 Y61.5262
G01 X74.0177 Y61.4480
G01 X74.0435 Y61.3632
G01 X74.0526 Y61.2706
G01 X74.0504 Y61.0794
G01 X73.9962 Y61.0251
G00 Z1.0000
G00 X74.0504 Y60.3206
G01 F400.00
G01 Z-0.0500
G01 F2500.00
G01 X74.0526 Y60.1294
G01 X74.0435 Y60.0368
G01 X74.0177 Y59.9520
G01 X73.9760 Y59.8738
G01 X73.9197 Y59.8053
G01 X73.8512 Y59.7490
G01 X73.7730 Y59.7073
G01 X73.6882 Y59.6815
G01 X73.5955 Y59.6724
G01 X73.2792 Y59.6747
G01 X73.2000 Y59.7539
G01 X73.2000 Y60.0750
G01 X73.3500 Y60.0750
G01 X73.3806 Y60.0766
G01 X73.4085 Y60.0808
G01 X73.4371 Y60.0879
G01 X73.4648 Y60.0978
G01 X73.4925 Y60.1110
G01 X73.5167 Y60.1256
G01 X73.5422 Y60.1447
G01 X73.5621 Y60.1629
G01 X73.5803 Y60.1828
G01 X73.5987 Y60.2073
G01 X73.6146 Y60.2336
G01 X73.6276 Y60.2613
G01 X73.6374 Y60.2891
G01 X73.6440 Y60.3153
G01 X73.6455 Y60.3249
G01 X74.0462 Y60.3249
G01 X74.0504 Y60.3206
G00 Z1.0000
G00 X75.5208 Y59.6497
G01 F400.00
G01 Z-0.0500
G01 F2500.00
G01 X75.2045 Y59.6474
G01 X75.1118 Y59.6565
G01 X75.0270 Y59.6823
G01 X74.9488 Y59.7240
G01 X74.8803 Y59.7803
G01 X74.8240 Y59.8488
G01 X74.7823 Y59.9270
G01 X74.7565 Y60.0118
G01 X74.7474 Y60.1044
G01 X74.7496 Y60.2956
G01 X74.7788 Y60.3249
G01 X75.1512 Y60.3249
G01 X75.1517 Y60.3182
G01 X75.1558 Y60.2915
G01 X75.1629 Y60.2629
G01 X75.1728 Y60.2352
G01 X75.1866 Y60.2064
G01 X75.2020 Y60.1813
G01 X75.2181 Y60.1597
G01 X75.2362 Y60.1396
G01 X75.2597 Y60.1181
G01 X75.2854 Y60.0992
G01 X75.3086 Y60.0854
G01 X75.3352 Y60.0728
G01 X75.3629 Y60.0629
G01 X75.3939 Y60.0553
G01 X75.4206 Y60.0514
G01 X75.4488 Y60.0500
G01 X75.6000 Y60.0500
G01 X75.6000 Y59.7289
G01 X75.5208 Y59.6497
G00 Z1.0000
G00 X72.5208 Y59.6747
G01 F400.00
G01 Z-0.0500
G01 F2500.00
G01 X72.2045 Y59.6724
G01 X72.1118 Y59.6815
G01 X72.0270 Y59.7073
G01 X71.9488 Y59.7490
G01 X71.8803 Y59.8053
G01 X71.8240 Y59.8738
G01 X71.7823 Y59.9520
G01 X71.7565 Y60.0368
G01 X71.7474 Y60.1294
G01 X71.7496 Y60.3206
G01 X71.7788 Y60.3499
G01 X72.1512 Y60.3499
G01 X72.1517 Y60.3432
G01 X72.1558 Y60.3165
G01 X72.1629 Y60.2879
G01 X72.1728 Y60.2602
G01 X72.1866 Y60.2314
G01 X72.2020 Y60.2063
G01 X72.2181 Y60.1847
G01 X72.2362 Y60.1646
G01 X72.2597 Y60.1431
G01 X72.2854 Y60.1242
G01 X72.3086 Y60.1104
G01 X72.3352 Y60.0978
G01 X72.3629 Y60.0879
G01 X72.3939 Y60.0803
G01 X72.4206 Y60.0764
G01 X72.4488 Y60.0750
G01 X72.6000 Y60.0750
G01 X72.6000 Y59.7539
G01 X72.5208 Y59.6747
G00 Z1.0000
G00 X71.0504 Y60.2956
G01 F400.00
G01 Z-0.0500
G01 F2500.00
G01 X71.0526 Y60.1044
G01 X71.0435 Y60.0118
G01 X71.0177 Y59.9270
G01 X70.9760 Y59.8488
G01 X70.9197 Y59.7803
G01 X70.8512 Y59.7240
G01 X70.7730 Y59.6823
G01 X70.6882 Y59.6565
G01 X70.5955 Y59.6474
G01 X70.2792 Y59.6497
G01 X70.2000 Y59.7289
G01 X70.2000 Y60.0500
G01 X70.3512 Y60.0500
G01 X70.3794 Y60.0514
G01 X70.4061 Y60.0553
G01 X70.4371 Y60.0629
G01 X70.4648 Y60.0728
G01 X70.4914 Y60.0854
G01 X70.5167 Y60.1006
G01 X70.5422 Y60.1197
G01 X70.5621 Y60.1379
G01 X70.5803 Y60.1578
G01 X70.5994 Y60.1833
G01 X70.6146 Y60.2086
G01 X70.6272 Y60.2352
G01 X70.6377 Y60.2653
G01 X70.6442 Y60.2915
G01 X70.6483 Y60.3182
G01 X70.6500 Y60.3499
G01 X70.9962 Y60.3499
G01 X71.0504 Y60.2956
G00 Z1.0000
G00 X71.0462 Y61.0501
G01 F400.00
G01 Z-0.0500
G01 F2500.00
G01 X70.6455 Y61.0501
G01 X70.6440 Y61.0597
G01 X70.6374 Y61.0859
G01 X70.6276 Y61.1137
G01 X70.6146 Y61.1414
G01 X70.5987 Y61.1677
G01 X70.5803 Y61.1922
G01 X70.5621 Y61.2121
G01 X70.5422 Y61.2303
G01 X70.5167 Y61.2494
G01 X70.4925 Y61.2640
G01 X70.4648 Y61.2772
G01 X70.4371 Y61.2871
G01 X70.4085 Y61.2942
G01 X70.3806 Y61.2984
G01 X70.3500 Y61.3000
G01 X70.2000 Y61.3000
G01 X70.2000 Y61.6211
G01 X70.2792 Y61.7003
G01 X70.5955 Y61.7026
G01 X70.6882 Y61.6935
G01 X70.7730 Y61.6677
G01 X70.8512 Y61.6260
G01 X70.9197 Y61.5697
G01 X70.9760 Y61.5012
G01 X71.0177 Y61.4230
G01 X71.0435 Y61.3382
G01 X71.0526 Y61.2456
G01 X71.0504 Y61.0544
G01 X71.0462 Y61.0501
G00 Z1.0000
G00 X69.6000 Y61.6211
G01 F400.00
G01 Z-0.0500
G01 F2500.00
G01 X69.6000 Y61.3000
G01 X69.4488 Y61.3000
G01 X69.4206 Y61.2986
G01 X69.3939 Y61.2947
G01 X69.3629 Y61.2871
G01 X69.3352 Y61.2772
G01 X69.3086 Y61.2646
G01 X69.2854 Y61.2508
G01 X69.2597 Y61.2319
G01 X69.2362 Y61.2104
G01 X69.2181 Y61.1903
G01 X69.2020 Y61.1687
G01 X69.1866 Y61.1436
G01 X69.1728 Y61.1148
G01 X69.1629 Y61.0871
G01 X69.1558 Y61.0585
G01 X69.1517 Y61.0318
G01 X69.1512 Y61.0252
G01 X68.7788 Y61.0252
G01 X68.7496 Y61.0544
G01 X68.7474 Y61.2456
G01 X68.7565 Y61.3382
G01 X68.7823 Y61.4230
G01 X68.8240 Y61.5012
G01 X68.8803 Y61.5697
G01 X68.9488 Y61.6260
G01 X69.0270 Y61.6677
G01 X69.1118 Y61.6935
G01 X69.2045 Y61.7026
G01 X69.5208 Y61.7003
G01 X69.6000 Y61.6211
G00 Z1.0000
G00 X68.0212 Y61.0251
G01 F400.00
G01 Z-0.0500
G01 F2500.00
G01 X67.6488 Y61.0251
G01 X67.6483 Y61.0318
G01 X67.6442 Y61.0585
G01 X67.6371 Y61.0871
G01 X67.6272 Y61.1148
G01 X67.6134 Y61.1436
G01 X67.5980 Y61.1687
G01 X67.5819 Y61.1903
G01 X67.5638 Y61.2104
G01 X67.5403 Y61.2319
G01 X67.5146 Y61.2508
G01 X67.4914 Y61.2646
G01 X67.4648 Y61.2772
G01 X67.4371 Y61.2871
G01 X67.4061 Y61.2947
G01 X67.3794 Y61.2986
G01 X67.3512 Y61.3000
G01 X67.2000 Y61.3000
G01 X67.2000 Y61.6211
G01 X67.2792 Y61.7003
G01 X67.5955 Y61.7026
G01 X67.6882 Y61.6935
G01 X67.7730 Y61.6677
G01 X67.8512 Y61.6260
G01 X67.9197 Y61.5697
G01 X67.9760 Y61.5012
G01 X68.0177 Y61.4230
G01 X68.0435 Y61.3382
G01 X68.0526 Y61.2456
G01 X68.0504 Y61.0544
G01 X68.0212 Y61.0251
G00 Z1.0000
G00 X68.0504 Y60.2956
G01 F400.00
G01 Z-0.0500
G01 F2500.00
G01 X68.0526 Y60.1044
G01 X68.0435 Y60.0118
G01 X68.0177 Y59.9270
G01 X67.9760 Y59.8488
G01 X67.9197 Y59.7803
G01 X67.8512 Y59.7240
G01 X67.7730 Y59.6823
G01 X67.6882 Y59.6565
G01 X67.5955 Y59.6474
G01 X67.2792 Y59.6497
G01 X67.2000 Y59.7289
G01 X67.2000 Y60.0500
G01 X67.3512 Y60.0500
G01 X67.3794 Y60.0514
G01 X67.4061 Y60.0553
G01 X67.4371 Y60.0629
G01 X67.4648 Y60.0728
G01 X67.4914 Y60.0854
G01 X67.5146 Y60.0992
G01 X67.5403 Y60.1181
G01 X67.5638 Y60.1396
G01 X67.5819 Y60.1597
G01 X67.5980 Y60.1813
G01 X67.6134 Y60.2064
G01 X67.6272 Y60.2352
G01 X67.6371 Y60.2629
G01 X67.6442 Y60.2915
G01 X67.6483 Y60.3182
G01 X67.6488 Y60.3249
G01 X68.0212 Y60.3249
G01 X68.0504 Y60.2956
G00 Z1.0000
G00 X69.5208 Y59.6497
G01 F400.00
G01 Z-0.0500
G01 F2500.00
G01 X69.2045 Y59.6474
G01 X69.1118 Y59.6565
G01 X69.0270 Y59.6823
G01 X68.9488 Y59.7240
G01 X68.8803 Y59.7803
G01 X68.8240 Y59.8488
G01 X68.7823 Y59.9270
G01 X68.7565 Y60.0118
G01 X68.7474 Y60.1044
G01 X68.7496 Y60.2956
G01 X68.7788 Y60.3249
G01 X69.1512 Y60.3249
G01 X69.1517 Y60.3182
G01 X69.1558 Y60.2915
G01 X69.1629 Y60.2629
G01 X69.1728 Y60.2352
G01 X69.1866 Y60.2064
G01 X69.2020 Y60.1813
G01 X69.2181 Y60.1597
G01 X69.2362 Y60.1396
G01 X69.2597 Y60.1181
G01 X69.2854 Y60.0992
G01 X69.3086 Y60.0854
G01 X69.3352 Y60.0728
G01 X69.3629 Y60.0629
G01 X69.3939 Y60.0553
G01 X69.4206 Y60.0514
G01 X69.4488 Y60.0500
G01 X69.6000 Y60.0500
G01 X69.6000 Y59.7289
G01 X69.5208 Y59.6497
G00 Z1.0000
G00 X66.5208 Y59.6497
G01 F400.00
G01 Z-0.0500
G01 F2500.00
G01 X66.2045 Y59.6474
G01 X66.1118 Y59.6565
G01 X66.0270 Y59.6823
G01 X65.9488 Y59.7240
G01 X65.8803 Y59.7803
G01 X65.8240 Y59.8488
G01 X65.7823 Y59.9270
G01 X65.7565 Y60.0118
G01 X65.7553 Y60.0247
G01 X66.6000 Y60.0247
G01 X66.6000 Y59.7289
G01 X66.5208 Y59.6497
G00 Z1.0000
G00 X66.6000 Y61.6211
G01 F400.00
G01 Z-0.0500
G01 F2500.00
G01 X66.6000 Y61.3253
G01 X65.7553 Y61.3253
G01 X65.7565 Y61.3382
G01 X65.7823 Y61.4230
G01 X65.8240 Y61.5012
G01 X65.8803 Y61.5697
G01 X65.9488 Y61.6260
G01 X66.0270 Y61.6677
G01 X66.1118 Y61.6935
G01 X66.2045 Y61.7026
G01 X66.5208 Y61.7003
G01 X66.6000 Y61.6211
G00 Z1.0000
G00 X63.9994 Y62.2619
G01 F400.00
G01 Z-0.0500
G01 F2500.00
G01 X63.9625 Y62.2673
G01 X63.8988 Y62.2703
G01 X63.8363 Y62.2672
G01 X63.7731 Y62.2578
G01 X63.7112 Y62.2423
G01 X63.6523 Y62.2213
G01 X63.5945 Y62.1941
G01 X63.5699 Y62.1795
G01 X63.5355 Y62.2173
G01 X63.4719 Y62.2749
G01 X63.4000 Y62.3283
G01 X63.3232 Y62.3743
G01 X63.2455 Y62.4110
G01 X63.2000 Y62.4274
G01 X63.2000 Y62.7614
G01 X63.3141 Y62.8089
G01 X63.5193 Y62.7224
G01 X63.7303 Y62.5796
G01 X63.9094 Y62.3985
G01 X63.9994 Y62.2619
G00 Z1.0000
G00 X63.5937 Y61.0067
G01 F400.00
G01 Z-0.0500
G01 F2500.00
G01 X63.8743 Y60.7260
G01 X63.7303 Y60.5804
G01 X63.5193 Y60.4376
G01 X63.3141 Y60.3511
G01 X63.2000 Y60.3986
G01 X63.2000 Y60.7326
G01 X63.2455 Y60.7490
G01 X63.3232 Y60.7857
G01 X63.4010 Y60.8324
G01 X63.4728 Y60.8859
G01 X63.5364 Y60.9436
G01 X63.5937 Y61.0067
G00 Z1.0000
G00 X62.0526 Y61.2800
G01 F400.00
G01 Z-0.0500
G01 F2500.00
G01 X62.0690 Y61.2345
G01 X62.1057 Y61.1568
G01 X62.1510 Y61.0810
G01 X62.2043 Y61.0090
G01 X62.2636 Y60.9436
G01 X62.3290 Y60.8843
G01 X62.4010 Y60.8310
G01 X62.4768 Y60.7857
G01 X62.5545 Y60.7490
G01 X62.6000 Y60.7326
G01 X62.6000 Y60.3986
G01 X62.4859 Y60.3511
G01 X62.2807 Y60.4376
G01 X62.0697 Y60.5804
G01 X61.8906 Y60.7615
G01 X61.7502 Y60.9744
G01 X61.6711 Y61.1653
G01 X61.7197 Y61.2800
G01 X62.0526 Y61.2800
G00 Z1.0000
G00 X62.6000 Y62.4274
G01 F400.00
G01 Z-0.0500
G01 F2500.00
G01 X62.5545 Y62.4110
G01 X62.4768 Y62.3743
G01 X62.4010 Y62.3290
G01 X62.3290 Y62.2757
G01 X62.2636 Y62.2164
G01 X62.2043 Y62.1510
G01 X62.1510 Y62.0790
G01 X62.1057 Y62.0032
G01 X62.0690 Y61.9255
G01 X62.0526 Y61.8800
G01 X61.7197 Y61.8800
G01 X61.6711 Y61.9947
G01 X61.7502 Y62.1856
G01 X61.8906 Y62.3985
G01 X62.0697 Y62.5796
G01 X62.2807 Y62.7224
G01 X62.4859 Y62.8089
G01 X62.6000 Y62.7614
G01 X62.6000 Y62.4274
G00 Z1.0000
G00 X62.8975 Y63.2201
G01 F400.00
G01 Z-0.0500
G01 F2500.00
G01 X62.8118 Y63.2243
G01 X62.7244 Y63.2373
G01 X62.6387 Y63.2588
G01 X62.5556 Y63.2885
G01 X62.4757 Y63.3263
G01 X62.4000 Y63.3717
G01 X62.3290 Y63.4243
G01 X62.2636 Y63.4836
G01 X62.2043 Y63.5490
G01 X62.1517 Y63.6200
G01 X62.1063 Y63.6957
G01 X62.0685 Y63.7756
G01 X62.0388 Y63.8587
G01 X62.0173 Y63.9444
G01 X62.0043 Y64.0318
G01 X62.0000 Y64.1200
G01 X62.0043 Y64.2082
G01 X62.0173 Y64.2956
G01 X62.0388 Y64.3813
G01 X62.0685 Y64.4644
G01 X62.1063 Y64.5443
G01 X62.1517 Y64.6200
G01 X62.2043 Y64.6910
G01 X62.2636 Y64.7564
G01 X62.3290 Y64.8157
G01 X62.4000 Y64.8683
G01 X62.4757 Y64.9137
G01 X62.5556 Y64.9515
G01 X62.6387 Y64.9812
G01 X62.7244 Y65.0027
G01 X62.8118 Y65.0157
G01 X62.9000 Y65.0200
G01 X62.9882 Y65.0157
G01 X63.0756 Y65.0027
G01 X63.1613 Y64.9812
G01 X63.2444 Y64.9515
G01 X63.3243 Y64.9137
G01 X63.4000 Y64.8683
G01 X63.4710 Y64.8157
G01 X63.5364 Y64.7564
G01 X63.5957 Y64.6910
G01 X63.6483 Y64.6200
G01 X63.6937 Y64.5443
G01 X63.7315 Y64.4644
G01 X63.7612 Y64.3813
G01 X63.7827 Y64.2956
G01 X63.7957 Y64.2082
G01 X63.8000 Y64.1200
G01 X63.7957 Y64.0318
G01 X63.7827 Y63.9444
G01 X63.7612 Y63.8587
G01 X63.7315 Y63.7756
G01 X63.6937 Y63.6957
G01 X63.6483 Y63.6200
G01 X63.5957 Y63.5490
G01 X63.5364 Y63.4836
G01 X63.4710 Y63.4243
G01 X63.4000 Y63.3717
G01 X63.3243 Y63.3263
G01 X63.2444 Y63.2885
G01 X63.1613 Y63.2588
G01 X63.0756 Y63.2373
G01 X62.9882 Y63.2243
G01 X62.8975 Y63.2201
G00 Z1.0000
G00 X63.9000 Y64.2185
G01 F400.00
G01 Z-0.0500
G01 F2500.00
G01 X63.9000 Y64.0215
G01 X63.8615 Y63.8283
G01 X63.7862 Y63.6463
G01 X63.6767 Y63.4826
G01 X63.5374 Y63.3433
G01 X63.3737 Y63.2338
G01 X63.1917 Y63.1585
G01 X62.9985 Y63.1200
G01 X62.8015 Y63.1200
G01 X62.6083 Y63.1585
G01 X62.4263 Y63.2338
G01 X62.2626 Y63.3433
G01 X62.1233 Y63.4826
G01 X62.0138 Y63.6463
G01 X61.9385 Y63.8283
G01 X61.9000 Y64.0215
G01 X61.9000 Y64.2185
G01 X61.9385 Y64.4117
G01 X62.0138 Y64.5937
G01 X62.1233 Y64.7574
G01 X62.2626 Y64.8967
G01 X62.4263 Y65.0062
G01 X62.6083 Y65.0815
G01 X62.8015 Y65.1200
G01 X62.9985 Y65.1200
G01 X63.1917 Y65.0815
G01 X63.3737 Y65.0062
G01 X63.5374 Y64.8967
G01 X63.6767 Y64.7574
G01 X63.7862 Y64.5937
G01 X63.8615 Y64.4117
G01 X63.9000 Y64.2185
G00 Z1.0000
G00 X62.8975 Y65.7601
G01 F400.00
G01 Z-0.0500
G01 F2500.00
G01 X62.8118 Y65.7643
G01 X62.7244 Y65.7773
G01 X62.6387 Y65.7988
G01 X62.5556 Y65.8285
G01 X62.4757 Y65.8663
G01 X62.4000 Y65.9117
G01 X62.3290 Y65.9643
