(G-CODE GENERATED BY FLATCAM v8.992 - www.flatcam.org - Version Date: 2020/05/03)

(Name: MSP430G2553_array.drl_09_cnc)
(Type: G-code from Excellon)
(Units: MM)

(Created on Saturday, 30 May 2020 at 13:10)

(This preprocessor is the default preprocessor used by FlatCAM.)
(It is made to work with MACH3 compatible motion controllers.)


(TOOLS DIAMETER: )
(Tool: 1 -> Dia: 0.7)
(Tool: 2 -> Dia: 1.0)
(Tool: 3 -> Dia: 0.7)
(Tool: 4 -> Dia: 0.9)

(FEEDRATE Z: )
(Tool: 1 -> Feedrate: 140.0)
(Tool: 2 -> Feedrate: 140.0)
(Tool: 3 -> Feedrate: 140.0)
(Tool: 4 -> Feedrate: 140.0)

(FEEDRATE RAPIDS: )
(Tool: 1 -> Feedrate Rapids: 1500)
(Tool: 2 -> Feedrate Rapids: 1500)
(Tool: 3 -> Feedrate Rapids: 1500)
(Tool: 4 -> Feedrate Rapids: 1500)

(Z_CUT: )
(Tool: 1 -> Z_Cut: -2.0)
(Tool: 2 -> Z_Cut: -2.0)
(Tool: 3 -> Z_Cut: -2.0)
(Tool: 4 -> Z_Cut: -2.0)

(Tools Offset: )
(Tool: 4 -> Offset Z: -0.0)

(Z_MOVE: )
(Tool: 1 -> Z_Move: 1.0)
(Tool: 2 -> Z_Move: 1.0)
(Tool: 3 -> Z_Move: 1.0)
(Tool: 4 -> Z_Move: 1.0)

(Z Start: None mm)
(Z End: 2.0 mm)
(Steps per circle: 64)
(Preprocessor Excellon: default)

(X range:   61.5500 ...   89.1500  mm)
(Y range:   27.6500 ...   88.5500  mm)

(Spindle Speed: 10000.0 RPM)
G21
G90
G94



G00 Z1.0000

G01 F140.00
M03 S10000
G4 P2.0
G00 X71.6000 Y38.5000
G01 Z-2.0000
G01 Z0
G00 Z1.0000
G00 X72.0000 Y38.5000
G01 Z-2.0000
G01 Z0
G00 Z1.0000
G00 X75.8000 Y30.0000
G01 Z-2.0000
G01 Z0
G00 Z1.0000
G00 X76.2000 Y30.0000
G01 Z-2.0000
G01 Z0
G00 Z1.0000
G00 X71.6000 Y30.5000
G01 Z-2.0000
G01 Z0
G00 Z1.0000
G00 X72.0000 Y30.5000
G01 Z-2.0000
G01 Z0
G00 Z1.0000
G00 X67.3000 Y38.8000
G01 Z-2.0000
G01 Z0
G00 Z1.0000
G00 X67.3000 Y39.2000
G01 Z-2.0000
G01 Z0
G00 Z1.0000
G00 X67.1000 Y42.5000
G01 Z-2.0000
G01 Z0
G00 Z1.0000
G00 X67.5000 Y42.5000
G01 Z-2.0000
G01 Z0
G00 Z1.0000
G00 X78.7000 Y77.7000
G01 Z-2.0000
G01 Z0
G00 Z1.0000
G00 X79.1000 Y77.7000
G01 Z-2.0000
G01 Z0
G00 Z1.0000
G00 X74.5000 Y86.2000
G01 Z-2.0000
G01 Z0
G00 Z1.0000
G00 X74.9000 Y86.2000
G01 Z-2.0000
G01 Z0
G00 Z1.0000
G00 X78.7000 Y85.7000
G01 Z-2.0000
G01 Z0
G00 Z1.0000
G00 X79.1000 Y85.7000
G01 Z-2.0000
G01 Z0
G00 Z1.0000
G00 X83.4000 Y77.4000
G01 Z-2.0000
G01 Z0
G00 Z1.0000
G00 X83.4000 Y77.0000
G01 Z-2.0000
G01 Z0
G00 Z1.0000
G00 X83.2000 Y73.7000
G01 Z-2.0000
G01 Z0
G00 Z1.0000
G00 X83.6000 Y73.7000
G01 Z-2.0000
G01 Z0
G00 Z1.0000
M05
G00 Z2.00

