(G-CODE GENERATED BY FLATCAM v8.992 - www.flatcam.org - Version Date: 2020/05/03)

(Name: MSP430G2553_array-B_Cu.gbr_iso_cnc)
(Type: G-code from Geometry)
(Units: MM)

(Created on Sunday, 31 May 2020 at 17:18)

(This preprocessor is the default preprocessor used by FlatCAM.)
(It is made to work with MACH3 compatible motion controllers.)

(TOOL DIAMETER: 0.1 mm)
(Feedrate_XY: 2500.0 mm/min)
(Feedrate_Z: 400.0 mm/min)
(Feedrate rapids 1500.0 mm/min)

(Z_Cut: -0.04 mm)
(Z_Move: 1.0 mm)
(Z Start: None mm)
(Z End: 15.0 mm)
(Steps per circle: 64)
(Preprocessor Geometry: default)

(X range:   60.4750 ...   90.3250  mm)
(Y range:   27.1750 ...   89.0250  mm)

(Spindle Speed: None RPM)
G21
G90
G94



G01 F2500.00
G00 Z1.0000

M03
G00 X63.6959 Y34.4999
G01 F400.00
G01 Z-0.0400
G01 F2500.00
G01 X67.7000 Y34.4999
G01 X67.7000 Y34.0238
G01 X67.7010 Y34.0152
G01 X67.7038 Y34.0059
G01 X67.7078 Y33.9983
G01 X67.7138 Y33.9905
G01 X67.7212 Y33.9841
G01 X67.7297 Y33.9793
G01 X67.7390 Y33.9762
G01 X67.7488 Y33.9750
G01 X68.2000 Y33.9750
G01 X68.2061 Y33.9754
G01 X68.2110 Y33.9762
G01 X68.2191 Y33.9788
G01 X68.2257 Y33.9821
G01 X68.2327 Y33.9871
G01 X68.2387 Y33.9933
G01 X68.2435 Y34.0004
G01 X68.2466 Y34.0070
G01 X68.2490 Y34.0152
G01 X68.2500 Y34.0238
G01 X68.2500 Y35.4750
G01 X68.2496 Y35.4811
G01 X68.2488 Y35.4860
G01 X68.2462 Y35.4941
G01 X68.2422 Y35.5017
G01 X68.2370 Y35.5086
G01 X68.2317 Y35.5137
G01 X68.2257 Y35.5179
G01 X68.2180 Y35.5216
G01 X68.2110 Y35.5238
G01 X68.2025 Y35.5249
G01 X67.7488 Y35.5250
G01 X67.7402 Y35.5240
G01 X67.7320 Y35.5216
G01 X67.7243 Y35.5179
G01 X67.7164 Y35.5120
G01 X67.7098 Y35.5048
G01 X67.7065 Y35.4996
G01 X67.7043 Y35.4953
G01 X67.7012 Y35.4860
G01 X67.7000 Y35.4762
G01 X67.7000 Y35.0001
G01 X63.5688 Y35.0001
G01 X63.5431 Y34.9986
G01 X63.5212 Y34.9953
G01 X63.4998 Y34.9900
G01 X63.4743 Y34.9811
G01 X63.4510 Y34.9700
G01 X63.4311 Y34.9580
G01 X63.4104 Y34.9425
G01 X63.3932 Y34.9268
G01 X63.3342 Y34.8679
G01 X63.3221 Y34.8748
G01 X63.2444 Y34.9115
G01 X63.1613 Y34.9412
G01 X63.0756 Y34.9627
G01 X62.9882 Y34.9757
G01 X62.9000 Y34.9800
G01 X62.8118 Y34.9757
G01 X62.7244 Y34.9627
G01 X62.6387 Y34.9412
G01 X62.5556 Y34.9115
G01 X62.4757 Y34.8737
G01 X62.4000 Y34.8283
G01 X62.3272 Y34.7741
G01 X62.2619 Y34.7146
G01 X62.2043 Y34.6510
G01 X62.1531 Y34.5820
G01 X62.1063 Y34.5043
G01 X62.0685 Y34.4244
G01 X62.0388 Y34.3413
G01 X62.0169 Y34.2532
G01 X62.0042 Y34.1658
G01 X62.0000 Y34.0800
G01 X62.0042 Y33.9942
G01 X62.0173 Y33.9044
G01 X62.0388 Y33.8187
G01 X62.0685 Y33.7356
G01 X62.1063 Y33.6557
G01 X62.1517 Y33.5800
G01 X62.2043 Y33.5090
G01 X62.2636 Y33.4436
G01 X62.3290 Y33.3843
G01 X62.4000 Y33.3317
G01 X62.4757 Y33.2863
G01 X62.5556 Y33.2485
G01 X62.6387 Y33.2188
G01 X62.7244 Y33.1973
G01 X62.8118 Y33.1843
G01 X62.9000 Y33.1800
G01 X62.9882 Y33.1843
G01 X63.0756 Y33.1973
G01 X63.1613 Y33.2188
G01 X63.2444 Y33.2485
G01 X63.3243 Y33.2863
G01 X63.4000 Y33.3317
G01 X63.4710 Y33.3843
G01 X63.5364 Y33.4436
G01 X63.5957 Y33.5090
G01 X63.6483 Y33.5800
G01 X63.6937 Y33.6557
G01 X63.7315 Y33.7356
G01 X63.7612 Y33.8187
G01 X63.7827 Y33.9044
G01 X63.7957 Y33.9918
G01 X63.8000 Y34.0800
G01 X63.7957 Y34.1682
G01 X63.7827 Y34.2556
G01 X63.7612 Y34.3413
G01 X63.7315 Y34.4244
G01 X63.6959 Y34.4999
G00 Z1.0000
G00 X63.6980 Y34.4954
G01 F400.00
G01 Z-0.0400
G01 F2500.00
G01 X63.6959 Y34.4999
G01 X63.7009 Y34.4999
G01 X63.6959 Y34.4999
G00 Z1.0000
G00 X63.6951 Y37.0414
G01 F400.00
G01 Z-0.0400
G01 F2500.00
G01 X67.3036 Y40.6499
G01 X67.6214 Y40.6499
G01 X67.7000 Y40.5713
G01 X67.7000 Y39.9238
G01 X67.7005 Y39.9177
G01 X67.7015 Y39.9129
G01 X67.7034 Y39.9070
G01 X67.7053 Y39.9025
G01 X67.7084 Y39.8972
G01 X67.7113 Y39.8933
G01 X67.7183 Y39.8863
G01 X67.7243 Y39.8821
G01 X67.7320 Y39.8784
G01 X67.7402 Y39.8760
G01 X67.7488 Y39.8750
G01 X68.2000 Y39.8750
G01 X68.2098 Y39.8760
G01 X68.2191 Y39.8788
G01 X68.2267 Y39.8828
G01 X68.2345 Y39.8888
G01 X68.2409 Y39.8962
G01 X68.2435 Y39.9004
G01 X68.2462 Y39.9059
G01 X68.2490 Y39.9152
G01 X68.2500 Y39.9250
G01 X68.2500 Y41.3750
G01 X68.2490 Y41.3848
G01 X68.2462 Y41.3941
G01 X68.2416 Y41.4028
G01 X68.2362 Y41.4095
G01 X68.2288 Y41.4159
G01 X68.2203 Y41.4207
G01 X68.2110 Y41.4238
G01 X68.2012 Y41.4250
G01 X67.7500 Y41.4250
G01 X67.7439 Y41.4246
G01 X67.7367 Y41.4232
G01 X67.7297 Y41.4207
G01 X67.7233 Y41.4172
G01 X67.7173 Y41.4129
G01 X67.7121 Y41.4077
G01 X67.7078 Y41.4017
G01 X67.7043 Y41.3953
G01 X67.7018 Y41.3883
G01 X67.7004 Y41.3811
G01 X67.7000 Y41.3750
G01 X67.7000 Y41.1501
G01 X67.2000 Y41.1501
G01 X67.1755 Y41.1489
G01 X67.1488 Y41.1448
G01 X67.1274 Y41.1393
G01 X67.1043 Y41.1311
G01 X67.0821 Y41.1206
G01 X67.0631 Y41.1093
G01 X67.0413 Y41.0933
G01 X67.0232 Y41.0768
G01 X63.3467 Y37.4004
G01 X63.3232 Y37.4143
G01 X63.2433 Y37.4519
G01 X63.1613 Y37.4812
G01 X63.0768 Y37.5025
G01 X62.9858 Y37.5158
G01 X62.9000 Y37.5200
G01 X62.8130 Y37.5158
G01 X62.7220 Y37.5022
G01 X62.6387 Y37.4812
G01 X62.5556 Y37.4515
G01 X62.4757 Y37.4137
G01 X62.4021 Y37.3696
G01 X62.3281 Y37.3149
G01 X62.2636 Y37.2564
G01 X62.2043 Y37.1910
G01 X62.1517 Y37.1200
G01 X62.1075 Y37.0464
G01 X62.0676 Y36.9621
G01 X62.0388 Y36.8813
G01 X62.0173 Y36.7956
G01 X62.0043 Y36.7082
G01 X62.0001 Y36.6225
G01 X62.0046 Y36.5293
G01 X62.0173 Y36.4444
G01 X62.0388 Y36.3587
G01 X62.0685 Y36.2756
G01 X62.1063 Y36.1957
G01 X62.1517 Y36.1200
G01 X62.2043 Y36.0490
G01 X62.2636 Y35.9836
G01 X62.3290 Y35.9243
G01 X62.4000 Y35.8717
G01 X62.4757 Y35.8263
G01 X62.5556 Y35.7885
G01 X62.6387 Y35.7588
G01 X62.7244 Y35.7373
G01 X62.8118 Y35.7243
G01 X62.9000 Y35.7200
G01 X62.9882 Y35.7243
G01 X63.0756 Y35.7373
G01 X63.1613 Y35.7588
G01 X63.2444 Y35.7885
G01 X63.3243 Y35.8263
G01 X63.4000 Y35.8717
G01 X63.4710 Y35.9243
G01 X63.5364 Y35.9836
G01 X63.5957 Y36.0490
G01 X63.6483 Y36.1200
G01 X63.6937 Y36.1957
G01 X63.7315 Y36.2756
G01 X63.7612 Y36.3587
G01 X63.7827 Y36.4444
G01 X63.7957 Y36.5318
G01 X63.8000 Y36.6200
G01 X63.7957 Y36.7082
G01 X63.7827 Y36.7956
G01 X63.7612 Y36.8813
G01 X63.7315 Y36.9644
G01 X63.6951 Y37.0414
G00 Z1.0000
G00 X63.6973 Y37.0369
G01 F400.00
G01 Z-0.0400
G01 F2500.00
G01 X63.6951 Y37.0414
G01 X63.6987 Y37.0450
G01 X63.6951 Y37.0414
G00 Z1.0000
G00 X66.2592 Y36.1499
G01 F400.00
G01 Z-0.0400
G01 F2500.00
G01 X69.2964 Y36.1499
G01 X69.6749 Y35.7714
G01 X69.6749 Y35.5182
G01 X69.6692 Y35.5144
G01 X69.6646 Y35.5104
G01 X69.6606 Y35.5058
G01 X69.6565 Y35.4996
G01 X69.6538 Y35.4941
G01 X69.6518 Y35.4883
G01 X69.6504 Y35.4811
G01 X69.6500 Y35.4750
G01 X69.6500 Y34.0250
G01 X69.6510 Y34.0152
G01 X69.6538 Y34.0059
G01 X69.6571 Y33.9993
G01 X69.6613 Y33.9933
G01 X69.6664 Y33.9880
G01 X69.6722 Y33.9834
G01 X69.6786 Y33.9798
G01 X69.6855 Y33.9772
G01 X69.6927 Y33.9755
G01 X69.7000 Y33.9750
G01 X70.1525 Y33.9751
G01 X70.1585 Y33.9757
G01 X70.1645 Y33.9772
G01 X70.1703 Y33.9793
G01 X70.1767 Y33.9828
G01 X70.1827 Y33.9871
G01 X70.1870 Y33.9914
G01 X70.1909 Y33.9962
G01 X70.1941 Y34.0014
G01 X70.1966 Y34.0070
G01 X70.1985 Y34.0129
G01 X70.1996 Y34.0189
G01 X70.2000 Y34.0250
G01 X70.2000 Y35.4762
G01 X70.1995 Y35.4823
G01 X70.1982 Y35.4883
G01 X70.1962 Y35.4941
G01 X70.1929 Y35.5007
G01 X70.1894 Y35.5058
G01 X70.1854 Y35.5104
G01 X70.1808 Y35.5144
G01 X70.1751 Y35.5182
G01 X70.1751 Y35.8762
G01 X70.1736 Y35.9019
G01 X70.1703 Y35.9238
G01 X70.1650 Y35.9452
G01 X70.1561 Y35.9707
G01 X70.1444 Y35.9950
G01 X70.1330 Y36.0139
G01 X70.1198 Y36.0317
G01 X70.1027 Y36.0510
G01 X69.5760 Y36.5777
G01 X69.5587 Y36.5933
G01 X69.5410 Y36.6065
G01 X69.5179 Y36.6206
G01 X69.4934 Y36.6319
G01 X69.4726 Y36.6393
G01 X69.4512 Y36.6448
G01 X69.4245 Y36.6489
G01 X69.4000 Y36.6501
G01 X66.2592 Y36.6501
G01 X66.2391 Y36.7061
G01 X66.2055 Y36.7771
G01 X66.1652 Y36.8445
G01 X66.1199 Y36.9056
G01 X66.0639 Y36.9674
G01 X66.0075 Y37.0184
G01 X65.9465 Y37.0638
G01 X65.8749 Y37.1066
G01 X65.8061 Y37.1391
G01 X65.7322 Y37.1656
G01 X65.6537 Y37.1850
G01 X65.5784 Y37.1961
G01 X65.5000 Y37.2000
G01 X65.4216 Y37.1961
G01 X65.3463 Y37.1850
G01 X65.2678 Y37.1656
G01 X65.1939 Y37.1391
G01 X65.1251 Y37.1066
G01 X65.0535 Y37.0638
G01 X64.9925 Y37.0184
G01 X64.9343 Y36.9657
G01 X64.8816 Y36.9075
G01 X64.8362 Y36.8465
G01 X64.7934 Y36.7749
G01 X64.7609 Y36.7061
G01 X64.7344 Y36.6322
G01 X64.7154 Y36.5561
G01 X64.7039 Y36.4784
G01 X64.7000 Y36.4000
G01 X64.7039 Y36.3216
G01 X64.7154 Y36.2439
G01 X64.7344 Y36.1678
G01 X64.7609 Y36.0939
G01 X64.7945 Y36.0229
G01 X64.8348 Y35.9555
G01 X64.8816 Y35.8925
G01 X64.9343 Y35.8343
G01 X64.9925 Y35.7816
G01 X65.0555 Y35.7348
G01 X65.1229 Y35.6945
G01 X65.1939 Y35.6609
G01 X65.2678 Y35.6344
G01 X65.3439 Y35.6154
G01 X65.4216 Y35.6039
G01 X65.5000 Y35.6000
G01 X65.5784 Y35.6039
G01 X65.6561 Y35.6154
G01 X65.7322 Y35.6344
G01 X65.8061 Y35.6609
G01 X65.8771 Y35.6945
G01 X65.9445 Y35.7348
G01 X66.0075 Y35.7816
G01 X66.0657 Y35.8343
G01 X66.1184 Y35.8925
G01 X66.1652 Y35.9555
G01 X66.2055 Y36.0229
G01 X66.2391 Y36.0939
G01 X66.2592 Y36.1499
G00 Z1.0000
G00 X66.2575 Y36.1452
G01 F400.00
G01 Z-0.0400
G01 F2500.00
G01 X66.2592 Y36.1499
G01 X66.2642 Y36.1499
G01 X66.2592 Y36.1499
G00 Z1.0000
G00 X67.4592 Y37.8499
G01 F400.00
G01 Z-0.0400
G01 F2500.00
G01 X68.4964 Y37.8499
G01 X70.3249 Y36.0214
G01 X70.3249 Y35.5182
G01 X70.3192 Y35.5144
G01 X70.3146 Y35.5104
G01 X70.3106 Y35.5058
G01 X70.3065 Y35.4996
G01 X70.3038 Y35.4941
G01 X70.3018 Y35.4883
G01 X70.3004 Y35.4811
G01 X70.3000 Y35.4750
G01 X70.3000 Y34.0250
G01 X70.3004 Y34.0189
G01 X70.3015 Y34.0129
G01 X70.3038 Y34.0059
G01 X70.3078 Y33.9983
G01 X70.3130 Y33.9914
G01 X70.3183 Y33.9863
G01 X70.3254 Y33.9815
G01 X70.3320 Y33.9784
G01 X70.3402 Y33.9760
G01 X70.3475 Y33.9751
G01 X70.8012 Y33.9750
G01 X70.8098 Y33.9760
G01 X70.8180 Y33.9784
G01 X70.8257 Y33.9821
G01 X70.8327 Y33.9871
G01 X70.8394 Y33.9942
G01 X70.8429 Y33.9993
G01 X70.8452 Y34.0036
G01 X70.8471 Y34.0082
G01 X70.8488 Y34.0140
G01 X70.8498 Y34.0201
G01 X70.8500 Y34.0250
G01 X70.8500 Y35.4762
G01 X70.8495 Y35.4823
G01 X70.8482 Y35.4883
G01 X70.8462 Y35.4941
G01 X70.8429 Y35.5007
G01 X70.8394 Y35.5058
G01 X70.8354 Y35.5104
G01 X70.8308 Y35.5144
G01 X70.8251 Y35.5182
G01 X70.8250 Y36.1275
G01 X70.8239 Y36.1495
G01 X70.8198 Y36.1762
G01 X70.8143 Y36.1976
G01 X70.8069 Y36.2184
G01 X70.7967 Y36.2407
G01 X70.7815 Y36.2660
G01 X70.7683 Y36.2837
G01 X70.7518 Y36.3018
G01 X68.7768 Y38.2768
G01 X68.7605 Y38.2917
G01 X68.7389 Y38.3080
G01 X68.7200 Y38.3194
G01 X68.6934 Y38.3319
G01 X68.6726 Y38.3393
G01 X68.6488 Y38.3453
G01 X68.6245 Y38.3489
G01 X68.6025 Y38.3500
G01 X67.4592 Y38.3501
G01 X67.4391 Y38.4061
G01 X67.4055 Y38.4771
G01 X67.3652 Y38.5445
G01 X67.3199 Y38.6056
G01 X67.2639 Y38.6674
G01 X67.2075 Y38.7184
G01 X67.1465 Y38.7638
G01 X67.0749 Y38.8066
G01 X67.0061 Y38.8391
G01 X66.9322 Y38.8656
G01 X66.8537 Y38.8850
G01 X66.7784 Y38.8961
G01 X66.7012 Y38.9000
G01 X66.6192 Y38.8958
G01 X66.5439 Y38.8846
G01 X66.4678 Y38.8656
G01 X66.3939 Y38.8391
G01 X66.3251 Y38.8066
G01 X66.2535 Y38.7638
G01 X66.1925 Y38.7184
G01 X66.1343 Y38.6657
G01 X66.0816 Y38.6075
G01 X66.0362 Y38.5465
G01 X65.9934 Y38.4749
G01 X65.9609 Y38.4061
G01 X65.9344 Y38.3322
G01 X65.9154 Y38.2561
G01 X65.9039 Y38.1784
G01 X65.9000 Y38.1000
G01 X65.9039 Y38.0216
G01 X65.9154 Y37.9439
G01 X65.9344 Y37.8678
G01 X65.9609 Y37.7939
G01 X65.9945 Y37.7229
G01 X66.0348 Y37.6555
G01 X66.0816 Y37.5925
G01 X66.1343 Y37.5343
G01 X66.1925 Y37.4816
G01 X66.2555 Y37.4348
G01 X66.3229 Y37.3945
G01 X66.3939 Y37.3609
G01 X66.4678 Y37.3344
G01 X66.5439 Y37.3154
G01 X66.6216 Y37.3039
G01 X66.7000 Y37.3000
G01 X66.7784 Y37.3039
G01 X66.8561 Y37.3154
G01 X66.9322 Y37.3344
G01 X67.0061 Y37.3609
G01 X67.0771 Y37.3945
G01 X67.1445 Y37.4348
G01 X67.2075 Y37.4816
G01 X67.2657 Y37.5343
G01 X67.3184 Y37.5925
G01 X67.3652 Y37.6555
G01 X67.4055 Y37.7229
G01 X67.4391 Y37.7939
G01 X67.4592 Y37.8499
G00 Z1.0000
G00 X67.4575 Y37.8452
G01 F400.00
G01 Z-0.0400
G01 F2500.00
G01 X67.4592 Y37.8499
G01 X67.4642 Y37.8499
G01 X67.4592 Y37.8499
G00 Z1.0000
G00 X68.3749 Y41.4182
G01 F400.00
G01 Z-0.0400
G01 F2500.00
G01 X68.3692 Y41.4144
G01 X68.3646 Y41.4104
G01 X68.3606 Y41.4058
G01 X68.3571 Y41.4007
G01 X68.3538 Y41.3941
G01 X68.3518 Y41.3883
G01 X68.3505 Y41.3823
G01 X68.3500 Y41.3762
G01 X68.3500 Y39.9250
G01 X68.3505 Y39.9177
G01 X68.3525 Y39.9093
G01 X68.3553 Y39.9025
G01 X68.3591 Y39.8962
G01 X68.3638 Y39.8905
G01 X68.3692 Y39.8856
G01 X68.3754 Y39.8815
G01 X68.3832 Y39.8779
G01 X68.3902 Y39.8760
G01 X68.3975 Y39.8751
G01 X68.8500 Y39.8750
G01 X68.8598 Y39.8760
G01 X68.8691 Y39.8788
G01 X68.8757 Y39.8821
G01 X68.8808 Y39.8856
G01 X68.8862 Y39.8905
G01 X68.8909 Y39.8962
G01 X68.8947 Y39.9025
G01 X68.8975 Y39.9093
G01 X68.8993 Y39.9165
G01 X68.9000 Y39.9238
G01 X68.9000 Y41.3762
G01 X68.8995 Y41.3823
G01 X68.8982 Y41.3883
G01 X68.8962 Y41.3941
G01 X68.8929 Y41.4007
G01 X68.8894 Y41.4058
G01 X68.8854 Y41.4104
G01 X68.8808 Y41.4144
G01 X68.8751 Y41.4182
G01 X68.8751 Y41.7750
G01 X68.8736 Y41.8019
G01 X68.8703 Y41.8238
G01 X68.8650 Y41.8452
G01 X68.8561 Y41.8707
G01 X68.8444 Y41.8950
G01 X68.8330 Y41.9139
G01 X68.8198 Y41.9317
G01 X68.8018 Y41.9518
G01 X68.4768 Y42.2768
G01 X68.4596 Y42.2925
G01 X68.4389 Y42.3080
G01 X68.4157 Y42.3217
G01 X68.3957 Y42.3311
G01 X68.3749 Y42.3386
G01 X68.3500 Y42.3450
G01 X68.3245 Y42.3489
G01 X68.3000 Y42.3501
G01 X67.0421 Y42.3501
G01 X67.0176 Y42.3489
G01 X66.9957 Y42.3457
G01 X66.9672 Y42.3386
G01 X66.9464 Y42.3311
G01 X66.9242 Y42.3206
G01 X66.9031 Y42.3080
G01 X66.8854 Y42.2948
G01 X66.8652 Y42.2768
G01 X63.9985 Y39.4101
G01 X63.7641 Y39.4101
G01 X63.7605 Y39.4236
G01 X63.7315 Y39.5044
G01 X63.6925 Y39.5864
G01 X63.6483 Y39.6600
G01 X63.5972 Y39.7290
G01 X63.5364 Y39.7964
G01 X63.4710 Y39.8557
G01 X63.3979 Y39.9096
G01 X63.3243 Y39.9537
G01 X63.2467 Y39.9905
G01 X63.1613 Y40.0212
G01 X63.0756 Y40.0427
G01 X62.9858 Y40.0558
G01 X62.9000 Y40.0600
G01 X62.8142 Y40.0558
G01 X62.7268 Y40.0431
G01 X62.6387 Y40.0212
G01 X62.5556 Y39.9915
G01 X62.4757 Y39.9537
G01 X62.3990 Y39.9076
G01 X62.3290 Y39.8557
G01 X62.2636 Y39.7964
G01 X62.2043 Y39.7310
G01 X62.1531 Y39.6620
G01 X62.1052 Y39.5821
G01 X62.0685 Y39.5044
G01 X62.0388 Y39.4213
G01 X62.0173 Y39.3356
G01 X62.0043 Y39.2482
G01 X62.0000 Y39.1600
G01 X62.0042 Y39.0742
G01 X62.0178 Y38.9820
G01 X62.0388 Y38.8987
G01 X62.0685 Y38.8156
G01 X62.1063 Y38.7357
G01 X62.1517 Y38.6600
G01 X62.2043 Y38.5890
G01 X62.2636 Y38.5236
G01 X62.3290 Y38.4643
G01 X62.4000 Y38.4117
G01 X62.4757 Y38.3663
G01 X62.5556 Y38.3285
G01 X62.6387 Y38.2988
G01 X62.7244 Y38.2773
G01 X62.8118 Y38.2643
G01 X62.9000 Y38.2600
G01 X62.9882 Y38.2643
G01 X63.0756 Y38.2773
G01 X63.1613 Y38.2988
G01 X63.2444 Y38.3285
G01 X63.3243 Y38.3663
G01 X63.4020 Y38.4131
G01 X63.4728 Y38.4659
G01 X63.5364 Y38.5236
G01 X63.5941 Y38.5872
G01 X63.6483 Y38.6600
G01 X63.6937 Y38.7357
G01 X63.7315 Y38.8156
G01 X63.7605 Y38.8964
G01 X63.7641 Y38.9099
G01 X64.1021 Y38.9099
G01 X64.1278 Y38.9112
G01 X64.1509 Y38.9147
G01 X64.1723 Y38.9200
G01 X64.1978 Y38.9289
G01 X64.2200 Y38.9394
G01 X64.2390 Y38.9507
G01 X64.2626 Y38.9683
G01 X64.2789 Y38.9832
G01 X67.1457 Y41.8499
G01 X68.1964 Y41.8499
G01 X68.3749 Y41.6714
G01 X68.3749 Y41.4182
G00 Z1.0000
G00 X68.3749 Y41.4232
G01 F400.00
G01 Z-0.0400
G01 F2500.00
G01 X68.3749 Y41.4182
G01 X68.3708 Y41.4154
G01 X68.3749 Y41.4182
G00 Z1.0000
G00 X69.0249 Y41.4182
G01 F400.00
G01 Z-0.0400
G01 F2500.00
G01 X69.0192 Y41.4144
G01 X69.0146 Y41.4104
G01 X69.0106 Y41.4058
G01 X69.0071 Y41.4007
G01 X69.0038 Y41.3941
G01 X69.0018 Y41.3883
G01 X69.0005 Y41.3823
G01 X69.0000 Y41.3762
G01 X69.0000 Y39.9250
G01 X69.0005 Y39.9177
G01 X69.0025 Y39.9093
G01 X69.0053 Y39.9025
G01 X69.0091 Y39.8962
G01 X69.0138 Y39.8905
G01 X69.0192 Y39.8856
G01 X69.0254 Y39.8815
G01 X69.0320 Y39.8784
G01 X69.0390 Y39.8762
G01 X69.0463 Y39.8751
G01 X69.5000 Y39.8750
G01 X69.5073 Y39.8755
G01 X69.5157 Y39.8775
G01 X69.5236 Y39.8809
G01 X69.5298 Y39.8848
G01 X69.5354 Y39.8896
G01 X69.5409 Y39.8962
G01 X69.5452 Y39.9036
G01 X69.5478 Y39.9105
G01 X69.5495 Y39.9177
G01 X69.5500 Y39.9250
G01 X69.5500 Y41.3750
G01 X69.5496 Y41.3811
G01 X69.5482 Y41.3883
G01 X69.5462 Y41.3941
G01 X69.5435 Y41.3996
G01 X69.5402 Y41.4048
G01 X69.5354 Y41.4104
G01 X69.5308 Y41.4144
G01 X69.5251 Y41.4182
G01 X69.5251 Y42.8000
G01 X69.5241 Y42.8221
G01 X69.5198 Y42.8512
G01 X69.5143 Y42.8726
G01 X69.5061 Y42.8957
G01 X69.4956 Y42.9179
G01 X69.4843 Y42.9369
G01 X69.4667 Y42.9605
G01 X69.4518 Y42.9768
G01 X69.4337 Y42.9933
G01 X69.4139 Y43.0080
G01 X69.3950 Y43.0194
G01 X69.3684 Y43.0319
G01 X69.3476 Y43.0393
G01 X69.3226 Y43.0455
G01 X69.2995 Y43.0489
G01 X69.2750 Y43.0501
G01 X66.6505 Y43.0501
G01 X66.6236 Y43.0486
G01 X66.6018 Y43.0453
G01 X66.5791 Y43.0397
G01 X66.5548 Y43.0311
G01 X66.5305 Y43.0194
G01 X66.5116 Y43.0080
G01 X66.4938 Y42.9948
G01 X66.4746 Y42.9777
G01 X65.4470 Y41.9501
G01 X63.8000 Y41.9501
G01 X63.7999 Y42.5537
G01 X63.7985 Y42.5621
G01 X63.7957 Y42.5703
G01 X63.7916 Y42.5778
G01 X63.7870 Y42.5836
G01 X63.7808 Y42.5894
G01 X63.7736 Y42.5941
G01 X63.7657 Y42.5975
G01 X63.7585 Y42.5993
G01 X63.7500 Y42.6000
G01 X62.0488 Y42.6000
G01 X62.0402 Y42.5990
G01 X62.0320 Y42.5966
G01 X62.0243 Y42.5929
G01 X62.0173 Y42.5879
G01 X62.0113 Y42.5817
G01 X62.0065 Y42.5746
G01 X62.0029 Y42.5668
G01 X62.0007 Y42.5585
G01 X62.0000 Y42.5500
G01 X62.0000 Y40.8488
G01 X62.0010 Y40.8402
G01 X62.0034 Y40.8320
G01 X62.0071 Y40.8243
G01 X62.0121 Y40.8173
G01 X62.0183 Y40.8113
G01 X62.0254 Y40.8065
G01 X62.0332 Y40.8029
G01 X62.0415 Y40.8007
G01 X62.0500 Y40.8000
G01 X63.7500 Y40.8000
G01 X63.7585 Y40.8007
G01 X63.7668 Y40.8029
G01 X63.7736 Y40.8059
G01 X63.7798 Y40.8098
G01 X63.7854 Y40.8146
G01 X63.7902 Y40.8202
G01 X63.7941 Y40.8264
G01 X63.7971 Y40.8332
G01 X63.7990 Y40.8402
G01 X63.7999 Y40.8475
G01 X63.8000 Y41.4499
G01 X65.5505 Y41.4499
G01 X65.5751 Y41.4511
G01 X65.5993 Y41.4547
G01 X65.6231 Y41.4607
G01 X65.6440 Y41.4681
G01 X65.6684 Y41.4794
G01 X65.6895 Y41.4920
G01 X65.7092 Y41.5067
G01 X65.7265 Y41.5223
G01 X66.7541 Y42.5499
G01 X69.0249 Y42.5499
G01 X69.0249 Y41.4182
G00 Z1.0000
G00 X69.0249 Y41.4232
G01 F400.00
G01 Z-0.0400
G01 F2500.00
G01 X69.0249 Y41.4182
G01 X69.0208 Y41.4154
G01 X69.0249 Y41.4182
G00 Z1.0000
G00 X70.3249 Y41.4182
G01 F400.00
G01 Z-0.0400
G01 F2500.00
G01 X70.3192 Y41.4144
G01 X70.3146 Y41.4104
G01 X70.3106 Y41.4058
G01 X70.3071 Y41.4007
G01 X70.3038 Y41.3941
G01 X70.3018 Y41.3883
G01 X70.3005 Y41.3823
G01 X70.3000 Y41.3762
G01 X70.3000 Y39.9250
G01 X70.3005 Y39.9177
G01 X70.3025 Y39.9093
G01 X70.3053 Y39.9025
G01 X70.3091 Y39.8962
G01 X70.3138 Y39.8905
G01 X70.3192 Y39.8856
G01 X70.3254 Y39.8815
G01 X70.3320 Y39.8784
G01 X70.3390 Y39.8762
G01 X70.3463 Y39.8751
G01 X70.8000 Y39.8750
G01 X70.8073 Y39.8755
G01 X70.8157 Y39.8775
G01 X70.8225 Y39.8803
G01 X70.8298 Y39.8848
G01 X70.8354 Y39.8896
G01 X70.8409 Y39.8962
G01 X70.8447 Y39.9025
G01 X70.8475 Y39.9093
G01 X70.8495 Y39.9177
G01 X70.8500 Y39.9250
G01 X70.8500 Y41.3762
G01 X70.8493 Y41.3835
G01 X70.8478 Y41.3895
G01 X70.8457 Y41.3953
G01 X70.8429 Y41.4007
G01 X70.8394 Y41.4058
G01 X70.8354 Y41.4104
G01 X70.8308 Y41.4144
G01 X70.8251 Y41.4182
G01 X70.8251 Y45.8041
G01 X70.8307 Y45.8046
G01 X70.9156 Y45.8173
G01 X71.0036 Y45.8395
G01 X71.0844 Y45.8685
G01 X71.1621 Y45.9052
G01 X71.2400 Y45.9517
G01 X71.3128 Y46.0059
G01 X71.3764 Y46.0636
G01 X71.4341 Y46.1272
G01 X71.4883 Y46.2000
G01 X71.5337 Y46.2757
G01 X71.5715 Y46.3556
G01 X71.6012 Y46.4387
G01 X71.6227 Y46.5244
G01 X71.6358 Y46.6142
G01 X71.6400 Y46.7000
G01 X71.6354 Y46.7907
G01 X71.6222 Y46.8780
G01 X71.6012 Y46.9613
G01 X71.5737 Y47.0385
G01 X72.1493 Y47.6142
G01 X72.1722 Y47.6398
G01 X72.1911 Y47.6655
G01 X72.2076 Y47.6928
G01 X72.2235 Y47.7260
G01 X72.2354 Y47.7595
G01 X72.2434 Y47.7917
G01 X72.2482 Y47.8232
G01 X72.2501 Y47.8588
G01 X72.2501 Y48.9500
G01 X72.2762 Y48.9500
G01 X72.3179 Y48.9522
G01 X72.3579 Y48.9582
G01 X72.3972 Y48.9680
G01 X72.4399 Y48.9833
G01 X72.4753 Y49.0002
G01 X72.5121 Y49.0223
G01 X72.5446 Y49.0465
G01 X72.5755 Y49.0745
G01 X72.6035 Y49.1054
G01 X72.6270 Y49.1369
G01 X72.6509 Y49.1768
G01 X72.6676 Y49.2124
G01 X72.6817 Y49.2516
G01 X72.6918 Y49.2921
G01 X72.6977 Y49.3309
G01 X72.7000 Y49.3750
G01 X72.7000 Y50.6250
G01 X72.6980 Y50.6667
G01 X72.6921 Y50.7067
G01 X72.6809 Y50.7507
G01 X72.6676 Y50.7876
G01 X72.6498 Y50.8253
G01 X72.6270 Y50.8631
G01 X72.6035 Y50.8946
G01 X72.5755 Y50.9255
G01 X72.5446 Y50.9535
G01 X72.5131 Y50.9770
G01 X72.4753 Y50.9998
G01 X72.4376 Y51.0176
G01 X72.4007 Y51.0309
G01 X72.3579 Y51.0418
G01 X72.3167 Y51.0480
G01 X72.2750 Y51.0500
G01 X71.5250 Y51.0500
G01 X71.4833 Y51.0480
G01 X71.4445 Y51.0423
G01 X71.4016 Y51.0317
G01 X71.3624 Y51.0176
G01 X71.3247 Y50.9998
G01 X71.2889 Y50.9784
G01 X71.2554 Y50.9535
G01 X71.2245 Y50.9255
G01 X71.1965 Y50.8946
G01 X71.1703 Y50.8590
G01 X71.1502 Y50.8253
G01 X71.1333 Y50.7899
G01 X71.1183 Y50.7484
G01 X71.1077 Y50.7055
G01 X71.1020 Y50.6667
G01 X71.1001 Y50.6275
G01 X71.1000 Y49.3750
G01 X71.1022 Y49.3321
G01 X71.1082 Y49.2921
G01 X71.1183 Y49.2516
G01 X71.1324 Y49.2124
G01 X71.1502 Y49.1747
G01 X71.1716 Y49.1389
G01 X71.1965 Y49.1054
G01 X71.2245 Y49.0745
G01 X71.2544 Y49.0473
G01 X71.2889 Y49.0216
G01 X71.3247 Y49.0002
G01 X71.3624 Y48.9824
G01 X71.4005 Y48.9687
G01 X71.4421 Y48.9582
G01 X71.4821 Y48.9522
G01 X71.5238 Y48.9500
G01 X71.5498 Y48.9500
G01 X71.5499 Y48.0050
G01 X71.0785 Y47.5337
G01 X71.0013 Y47.5612
G01 X70.9180 Y47.5822
G01 X70.8307 Y47.5954
G01 X70.7400 Y47.6000
G01 X70.6518 Y47.5957
G01 X70.5644 Y47.5827
G01 X70.4764 Y47.5605
G01 X70.3956 Y47.5315
G01 X70.3179 Y47.4948
G01 X70.2400 Y47.4483
G01 X70.1690 Y47.3957
G01 X70.1036 Y47.3364
G01 X70.0443 Y47.2710
G01 X69.9917 Y47.2000
G01 X69.9463 Y47.1243
G01 X69.9085 Y47.0444
G01 X69.8788 Y46.9613
G01 X69.8573 Y46.8756
G01 X69.8443 Y46.7882
G01 X69.8401 Y46.7025
G01 X69.8446 Y46.6093
G01 X69.8573 Y46.5244
G01 X69.8788 Y46.4387
G01 X69.9085 Y46.3556
G01 X69.9452 Y46.2779
G01 X69.9931 Y46.1980
G01 X70.0443 Y46.1290
G01 X70.1036 Y46.0636
G01 X70.1690 Y46.0043
G01 X70.2380 Y45.9531
G01 X70.3136 Y45.9075
G01 X70.3249 Y45.9019
G01 X70.3249 Y41.4182
G00 Z1.0000
G00 X70.3249 Y41.4232
G01 F400.00
G01 Z-0.0400
G01 F2500.00
G01 X70.3249 Y41.4182
G01 X70.3208 Y41.4154
G01 X70.3249 Y41.4182
G00 Z1.0000
G00 X70.9749 Y41.4182
G01 F400.00
G01 Z-0.0400
G01 F2500.00
G01 X70.9692 Y41.4144
G01 X70.9646 Y41.4104
G01 X70.9606 Y41.4058
G01 X70.9571 Y41.4007
G01 X70.9538 Y41.3941
G01 X70.9518 Y41.3883
G01 X70.9505 Y41.3823
G01 X70.9500 Y41.3762
G01 X70.9500 Y39.9250
G01 X70.9505 Y39.9177
G01 X70.9525 Y39.9093
G01 X70.9553 Y39.9025
G01 X70.9591 Y39.8962
G01 X70.9638 Y39.8905
G01 X70.9692 Y39.8856
G01 X70.9754 Y39.8815
G01 X70.9820 Y39.8784
G01 X70.9890 Y39.8762
G01 X70.9963 Y39.8751
G01 X71.4500 Y39.8750
G01 X71.4573 Y39.8755
G01 X71.4657 Y39.8775
G01 X71.4725 Y39.8803
G01 X71.4798 Y39.8848
G01 X71.4854 Y39.8896
G01 X71.4909 Y39.8962
G01 X71.4947 Y39.9025
G01 X71.4975 Y39.9093
G01 X71.4995 Y39.9177
G01 X71.5000 Y39.9250
G01 X71.5000 Y41.3762
G01 X71.4993 Y41.3835
G01 X71.4978 Y41.3895
G01 X71.4957 Y41.3953
G01 X71.4929 Y41.4007
G01 X71.4894 Y41.4058
G01 X71.4854 Y41.4104
G01 X71.4808 Y41.4144
G01 X71.4751 Y41.4182
G01 X71.4751 Y43.1214
G01 X73.4568 Y45.1032
G01 X73.4748 Y45.1233
G01 X73.4880 Y45.1411
G01 X73.4994 Y45.1600
G01 X73.5111 Y45.1843
G01 X73.5193 Y45.2074
G01 X73.5248 Y45.2288
G01 X73.5290 Y45.2567
G01 X73.5301 Y45.2800
G01 X73.5301 Y45.8359
G01 X73.5436 Y45.8395
G01 X73.6244 Y45.8685
G01 X73.7064 Y45.9075
G01 X73.7800 Y45.9517
G01 X73.8490 Y46.0028
G01 X73.9164 Y46.0636
G01 X73.9757 Y46.1290
G01 X74.0296 Y46.2021
G01 X74.0737 Y46.2757
G01 X74.1105 Y46.3533
G01 X74.1409 Y46.4376
G01 X74.1627 Y46.5244
G01 X74.1754 Y46.6093
G01 X74.1799 Y46.7025
G01 X74.1757 Y46.7882
G01 X74.1627 Y46.8756
G01 X74.1412 Y46.9613
G01 X74.1137 Y47.0385
G01 X75.1476 Y48.0724
G01 X75.1707 Y48.0979
G01 X75.1897 Y48.1235
G01 X75.2094 Y48.1560
G01 X75.2235 Y48.1860
G01 X75.2351 Y48.2184
G01 X75.2434 Y48.2517
G01 X75.2486 Y48.2881
G01 X75.2501 Y48.3200
G01 X75.2501 Y48.9500
G01 X75.2762 Y48.9500
G01 X75.3179 Y48.9522
G01 X75.3579 Y48.9582
G01 X75.3995 Y48.9687
G01 X75.4376 Y48.9824
G01 X75.4753 Y49.0002
G01 X75.5111 Y49.0216
G01 X75.5456 Y49.0473
G01 X75.5755 Y49.0745
G01 X75.6035 Y49.1054
G01 X75.6284 Y49.1389
G01 X75.6498 Y49.1747
G01 X75.6676 Y49.2124
G01 X75.6817 Y49.2516
G01 X75.6918 Y49.2921
G01 X75.6981 Y49.3346
G01 X75.7000 Y49.3750
G01 X75.7000 Y50.6250
G01 X75.6980 Y50.6667
G01 X75.6923 Y50.7055
G01 X75.6817 Y50.7484
G01 X75.6667 Y50.7899
G01 X75.6498 Y50.8253
G01 X75.6297 Y50.8590
G01 X75.6035 Y50.8946
G01 X75.5755 Y50.9255
G01 X75.5427 Y50.9550
G01 X75.5090 Y50.9797
G01 X75.4753 Y50.9998
G01 X75.4399 Y51.0167
G01 X75.3984 Y51.0317
G01 X75.3579 Y51.0418
G01 X75.3167 Y51.0480
G01 X75.2762 Y51.0500
G01 X74.5250 Y51.0500
G01 X74.4833 Y51.0480
G01 X74.4433 Y51.0421
G01 X74.4016 Y51.0317
G01 X74.3601 Y51.0167
G01 X74.3247 Y50.9998
G01 X74.2910 Y50.9797
G01 X74.2554 Y50.9535
G01 X74.2245 Y50.9255
G01 X74.1950 Y50.8927
G01 X74.1703 Y50.8590
G01 X74.1502 Y50.8253
G01 X74.1333 Y50.7899
G01 X74.1183 Y50.7484
G01 X74.1082 Y50.7079
G01 X74.1020 Y50.6667
G01 X74.1000 Y50.6262
G01 X74.1000 Y49.3750
G01 X74.1020 Y49.3333
G01 X74.1079 Y49.2933
G01 X74.1183 Y49.2516
G01 X74.1324 Y49.2124
G01 X74.1502 Y49.1747
G01 X74.1703 Y49.1410
G01 X74.1981 Y49.1035
G01 X74.2245 Y49.0745
G01 X74.2563 Y49.0457
G01 X74.2889 Y49.0216
G01 X74.3247 Y49.0002
G01 X74.3624 Y48.9824
G01 X74.4005 Y48.9687
G01 X74.4421 Y48.9582
G01 X74.4821 Y48.9522
G01 X74.5238 Y48.9500
G01 X74.5498 Y48.9500
G01 X74.5499 Y48.4650
G01 X73.6185 Y47.5337
G01 X73.5413 Y47.5612
G01 X73.4556 Y47.5827
G01 X73.3682 Y47.5957
G01 X73.2800 Y47.6000
G01 X73.1918 Y47.5957
G01 X73.1044 Y47.5827
G01 X73.0187 Y47.5612
G01 X72.9379 Y47.5324
G01 X72.8557 Y47.4937
G01 X72.7821 Y47.4496
G01 X72.7072 Y47.3941
G01 X72.6436 Y47.3364
G01 X72.5843 Y47.2710
G01 X72.5317 Y47.2000
G01 X72.4857 Y47.1232
G01 X72.4485 Y47.0444
G01 X72.4188 Y46.9613
G01 X72.3973 Y46.8756
G01 X72.3843 Y46.7882
G01 X72.3800 Y46.7000
G01 X72.3843 Y46.6118
G01 X72.3973 Y46.5244
G01 X72.4188 Y46.4387
G01 X72.4495 Y46.3533
G01 X72.4863 Y46.2757
G01 X72.5304 Y46.2021
G01 X72.5843 Y46.1290
G01 X72.6436 Y46.0636
G01 X72.7110 Y46.0028
G01 X72.7800 Y45.9517
G01 X72.8536 Y45.9075
G01 X72.9356 Y45.8685
G01 X73.0164 Y45.8395
G01 X73.0299 Y45.8359
G01 X73.0299 Y45.3836
G01 X71.0482 Y43.4018
G01 X71.0317 Y43.3837
G01 X71.0185 Y43.3660
G01 X71.0039 Y43.3418
G01 X70.9931 Y43.3184
G01 X70.9857 Y43.2976
G01 X70.9802 Y43.2762
G01 X70.9761 Y43.2495
G01 X70.9749 Y43.2262
G01 X70.9749 Y41.4182
G00 Z1.0000
G00 X70.9749 Y41.4232
G01 F400.00
G01 Z-0.0400
G01 F2500.00
G01 X70.9749 Y41.4182
G01 X70.9708 Y41.4154
G01 X70.9749 Y41.4182
G00 Z1.0000
G00 X71.6249 Y41.4182
G01 F400.00
G01 Z-0.0400
G01 F2500.00
G01 X71.6192 Y41.4144
G01 X71.6146 Y41.4104
G01 X71.6106 Y41.4058
G01 X71.6071 Y41.4007
G01 X71.6038 Y41.3941
G01 X71.6018 Y41.3883
G01 X71.6005 Y41.3823
G01 X71.6000 Y41.3762
G01 X71.6000 Y39.9250
G01 X71.6005 Y39.9177
G01 X71.6025 Y39.9093
G01 X71.6053 Y39.9025
G01 X71.6091 Y39.8962
G01 X71.6138 Y39.8905
G01 X71.6192 Y39.8856
G01 X71.6254 Y39.8815
G01 X71.6320 Y39.8784
G01 X71.6390 Y39.8762
G01 X71.6463 Y39.8751
G01 X72.1000 Y39.8750
G01 X72.1073 Y39.8755
G01 X72.1157 Y39.8775
G01 X72.1225 Y39.8803
G01 X72.1298 Y39.8848
G01 X72.1354 Y39.8896
G01 X72.1409 Y39.8962
G01 X72.1447 Y39.9025
G01 X72.1475 Y39.9093
G01 X72.1495 Y39.9177
G01 X72.1500 Y39.9250
G01 X72.1500 Y41.3750
G01 X72.1496 Y41.3811
G01 X72.1485 Y41.3871
G01 X72.1466 Y41.3930
G01 X72.1435 Y41.3996
G01 X72.1394 Y41.4058
G01 X72.1354 Y41.4104
G01 X72.1308 Y41.4144
G01 X72.1251 Y41.4182
G01 X72.1251 Y42.6714
G01 X73.2287 Y43.7750
G01 X73.2390 Y43.7800
G01 X73.2600 Y43.7927
G01 X73.2787 Y43.8067
G01 X73.2968 Y43.8232
G01 X75.3858 Y45.9121
G01 X75.3979 Y45.9052
G01 X75.4779 Y45.8676
G01 X75.5587 Y45.8388
G01 X75.6468 Y45.8169
G01 X75.7318 Y45.8043
G01 X75.8200 Y45.8000
G01 X75.9082 Y45.8043
G01 X75.9956 Y45.8173
G01 X76.0813 Y45.8388
G01 X76.1644 Y45.8685
G01 X76.2443 Y45.9063
G01 X76.3179 Y45.9504
G01 X76.3928 Y46.0059
G01 X76.4564 Y46.0636
G01 X76.5165 Y46.1300
G01 X76.5683 Y46.2000
G01 X76.6137 Y46.2757
G01 X76.6515 Y46.3556
G01 X76.6805 Y46.4364
G01 X76.7031 Y46.5268
G01 X76.7157 Y46.6118
G01 X76.7200 Y46.7012
G01 X76.7157 Y46.7882
G01 X76.7027 Y46.8756
G01 X76.6812 Y46.9613
G01 X76.6519 Y47.0433
G01 X76.6137 Y47.1243
G01 X76.5690 Y47.1990
G01 X76.5165 Y47.2700
G01 X76.4922 Y47.2970
G01 X78.1452 Y48.9500
G01 X78.2762 Y48.9500
G01 X78.3167 Y48.9520
G01 X78.3555 Y48.9577
G01 X78.4007 Y48.9691
G01 X78.4376 Y48.9824
G01 X78.4743 Y48.9996
G01 X78.5111 Y49.0216
G01 X78.5427 Y49.0450
G01 X78.5772 Y49.0763
G01 X78.6035 Y49.1054
G01 X78.6284 Y49.1389
G01 X78.6498 Y49.1747
G01 X78.6676 Y49.2124
G01 X78.6817 Y49.2516
G01 X78.6918 Y49.2921
G01 X78.6980 Y49.3333
G01 X78.7000 Y49.3738
G01 X78.7000 Y50.6250
G01 X78.6980 Y50.6667
G01 X78.6918 Y50.7079
G01 X78.6817 Y50.7484
G01 X78.6676 Y50.7876
G01 X78.6486 Y50.8275
G01 X78.6270 Y50.8631
G01 X78.6035 Y50.8946
G01 X78.5772 Y50.9237
G01 X78.5446 Y50.9535
G01 X78.5121 Y50.9777
G01 X78.4732 Y51.0009
G01 X78.4376 Y51.0176
G01 X78.4007 Y51.0309
G01 X78.3579 Y51.0418
G01 X78.3154 Y51.0481
G01 X78.2750 Y51.0500
G01 X77.5250 Y51.0500
G01 X77.4833 Y51.0480
G01 X77.4421 Y51.0418
G01 X77.4016 Y51.0317
G01 X77.3624 Y51.0176
G01 X77.3225 Y50.9986
G01 X77.2869 Y50.9770
G01 X77.2554 Y50.9535
G01 X77.2263 Y50.9272
G01 X77.1965 Y50.8946
G01 X77.1723 Y50.8621
G01 X77.1491 Y50.8232
G01 X77.1324 Y50.7876
G01 X77.1183 Y50.7484
G01 X77.1077 Y50.7055
G01 X77.1020 Y50.6667
G01 X77.1001 Y50.6275
G01 X77.1001 Y49.3725
G01 X77.1020 Y49.3333
G01 X77.1082 Y49.2921
G01 X77.1183 Y49.2516
G01 X77.1333 Y49.2101
G01 X77.1502 Y49.1747
G01 X77.1730 Y49.1369
G01 X77.1981 Y49.1035
G01 X77.2245 Y49.0745
G01 X77.2532 Y49.0484
G01 X75.8041 Y47.5993
G01 X75.7318 Y47.5957
G01 X75.6444 Y47.5827
G01 X75.5587 Y47.5612
G01 X75.4756 Y47.5315
G01 X75.3957 Y47.4937
G01 X75.3200 Y47.4483
G01 X75.2490 Y47.3957
G01 X75.1819 Y47.3346
G01 X75.1243 Y47.2710
G01 X75.0731 Y47.2020
G01 X75.0252 Y47.1221
G01 X74.9885 Y47.0444
G01 X74.9588 Y46.9613
G01 X74.9373 Y46.8756
G01 X74.9246 Y46.7907
G01 X74.9201 Y46.6975
G01 X74.9243 Y46.6118
G01 X74.9373 Y46.5244
G01 X74.9588 Y46.4387
G01 X74.9876 Y46.3579
G01 X75.0252 Y46.2779
G01 X75.0321 Y46.2658
G01 X72.9913 Y44.2250
G01 X72.9810 Y44.2200
G01 X72.9600 Y44.2073
G01 X72.9413 Y44.1933
G01 X72.9232 Y44.1768
G01 X71.6982 Y42.9518
G01 X71.6817 Y42.9337
G01 X71.6685 Y42.9160
G01 X71.6533 Y42.8907
G01 X71.6439 Y42.8707
G01 X71.6357 Y42.8476
G01 X71.6293 Y42.8214
G01 X71.6261 Y42.7995
G01 X71.6249 Y42.7762
G01 X71.6249 Y41.4182
G00 Z1.0000
G00 X71.6249 Y41.4232
G01 F400.00
G01 Z-0.0400
G01 F2500.00
G01 X71.6249 Y41.4182
G01 X71.6208 Y41.4154
G01 X71.6249 Y41.4182
G00 Z1.0000
G00 X72.2749 Y41.4182
G01 F400.00
G01 Z-0.0400
G01 F2500.00
G01 X72.2692 Y41.4144
G01 X72.2646 Y41.4104
G01 X72.2606 Y41.4058
G01 X72.2571 Y41.4007
G01 X72.2538 Y41.3941
G01 X72.2518 Y41.3883
G01 X72.2505 Y41.3823
G01 X72.2500 Y41.3762
G01 X72.2500 Y39.9250
G01 X72.2505 Y39.9177
G01 X72.2525 Y39.9093
G01 X72.2553 Y39.9025
G01 X72.2591 Y39.8962
G01 X72.2638 Y39.8905
G01 X72.2692 Y39.8856
G01 X72.2754 Y39.8815
G01 X72.2820 Y39.8784
G01 X72.2890 Y39.8762
G01 X72.2963 Y39.8751
G01 X72.7500 Y39.8750
G01 X72.7573 Y39.8755
G01 X72.7657 Y39.8775
G01 X72.7725 Y39.8803
G01 X72.7798 Y39.8848
G01 X72.7854 Y39.8896
G01 X72.7909 Y39.8962
G01 X72.7947 Y39.9025
G01 X72.7975 Y39.9093
G01 X72.7995 Y39.9177
G01 X72.8000 Y39.9250
G01 X72.8000 Y41.3750
G01 X72.7996 Y41.3811
G01 X72.7985 Y41.3871
G01 X72.7966 Y41.3930
G01 X72.7935 Y41.3996
G01 X72.7894 Y41.4058
G01 X72.7854 Y41.4104
G01 X72.7808 Y41.4144
G01 X72.7751 Y41.4182
G01 X72.7751 Y42.0699
G01 X75.5551 Y44.8499
G01 X76.7600 Y44.8499
G01 X76.7845 Y44.8511
G01 X76.8064 Y44.8543
G01 X76.8349 Y44.8614
G01 X76.8580 Y44.8699
G01 X76.8779 Y44.8794
G01 X76.8969 Y44.8907
G01 X76.9187 Y44.9067
G01 X76.9360 Y44.9223
G01 X77.9258 Y45.9121
G01 X77.9379 Y45.9052
G01 X78.0179 Y45.8676
G01 X78.0987 Y45.8388
G01 X78.1844 Y45.8173
G01 X78.2718 Y45.8043
G01 X78.3575 Y45.8001
G01 X78.4507 Y45.8046
G01 X78.5356 Y45.8173
G01 X78.6213 Y45.8388
G01 X78.7044 Y45.8685
G01 X78.7821 Y45.9052
G01 X78.8620 Y45.9531
G01 X78.9310 Y46.0043
G01 X78.9964 Y46.0636
G01 X79.0557 Y46.1290
G01 X79.1083 Y46.2000
G01 X79.1537 Y46.2757
G01 X79.1905 Y46.3533
G01 X79.2219 Y46.4411
G01 X79.2427 Y46.5244
G01 X79.2558 Y46.6130
G01 X79.2600 Y46.7000
G01 X79.2557 Y46.7882
G01 X79.2427 Y46.8756
G01 X79.2216 Y46.9601
G01 X79.1915 Y47.0444
G01 X79.1543 Y47.1232
G01 X79.1090 Y47.1990
G01 X79.0943 Y47.2191
G01 X80.8252 Y48.9500
G01 X81.2762 Y48.9500
G01 X81.3191 Y48.9523
G01 X81.3579 Y48.9582
G01 X81.3972 Y48.9680
G01 X81.4376 Y48.9824
G01 X81.4753 Y49.0002
G01 X81.5111 Y49.0216
G01 X81.5446 Y49.0465
G01 X81.5755 Y49.0745
G01 X81.6035 Y49.1054
G01 X81.6284 Y49.1389
G01 X81.6498 Y49.1747
G01 X81.6676 Y49.2124
G01 X81.6824 Y49.2540
G01 X81.6918 Y49.2921
G01 X81.6977 Y49.3309
G01 X81.7000 Y49.3738
G01 X81.6999 Y50.6275
G01 X81.6980 Y50.6667
G01 X81.6918 Y50.7079
G01 X81.6817 Y50.7484
G01 X81.6676 Y50.7876
G01 X81.6498 Y50.8253
G01 X81.6284 Y50.8611
G01 X81.6035 Y50.8946
G01 X81.5755 Y50.9255
G01 X81.5446 Y50.9535
G01 X81.5111 Y50.9784
G01 X81.4753 Y50.9998
G01 X81.4376 Y51.0176
G01 X81.3984 Y51.0317
G01 X81.3579 Y51.0418
G01 X81.3167 Y51.0480
G01 X81.2750 Y51.0500
G01 X80.5250 Y51.0500
G01 X80.4821 Y51.0478
G01 X80.4421 Y51.0418
G01 X80.4016 Y51.0317
G01 X80.3624 Y51.0176
G01 X80.3268 Y51.0009
G01 X80.2869 Y50.9770
G01 X80.2554 Y50.9535
G01 X80.2245 Y50.9255
G01 X80.1965 Y50.8946
G01 X80.1716 Y50.8611
G01 X80.1502 Y50.8253
G01 X80.1333 Y50.7899
G01 X80.1176 Y50.7460
G01 X80.1082 Y50.7079
G01 X80.1019 Y50.6642
G01 X80.1000 Y50.6250
G01 X80.1000 Y49.3738
G01 X80.1020 Y49.3333
G01 X80.1079 Y49.2933
G01 X80.1180 Y49.2528
G01 X80.1230 Y49.2382
G01 X78.4764 Y47.5916
G01 X78.4470 Y47.5958
G01 X78.3612 Y47.6000
G01 X78.2706 Y47.5955
G01 X78.1844 Y47.5827
G01 X78.1011 Y47.5619
G01 X78.0167 Y47.5319
G01 X77.9357 Y47.4937
G01 X77.8580 Y47.4469
G01 X77.7872 Y47.3941
G01 X77.7236 Y47.3364
G01 X77.6659 Y47.2728
G01 X77.6104 Y47.1979
G01 X77.5663 Y47.1243
G01 X77.5285 Y47.0444
G01 X77.4981 Y46.9589
G01 X77.4773 Y46.8756
G01 X77.4643 Y46.7882
G01 X77.4600 Y46.7000
G01 X77.4642 Y46.6142
G01 X77.4773 Y46.5244
G01 X77.4988 Y46.4387
G01 X77.5276 Y46.3579
G01 X77.5652 Y46.2779
G01 X77.5721 Y46.2658
G01 X76.6564 Y45.3501
G01 X75.4515 Y45.3501
G01 X75.4294 Y45.3491
G01 X75.4027 Y45.3453
G01 X75.3812 Y45.3400
G01 X75.3535 Y45.3301
G01 X75.3336 Y45.3206
G01 X75.3125 Y45.3080
G01 X75.2928 Y45.2933
G01 X75.2746 Y45.2768
G01 X72.3482 Y42.3504
G01 X72.3309 Y42.3312
G01 X72.3170 Y42.3125
G01 X72.3056 Y42.2936
G01 X72.2939 Y42.2693
G01 X72.2857 Y42.2461
G01 X72.2802 Y42.2247
G01 X72.2759 Y42.1956
G01 X72.2749 Y42.1735
G01 X72.2749 Y41.4182
G00 Z1.0000
G00 X72.2749 Y41.4232
G01 F400.00
G01 Z-0.0400
G01 F2500.00
G01 X72.2749 Y41.4182
G01 X72.2708 Y41.4154
G01 X72.2749 Y41.4182
G00 Z1.0000
G00 X72.9499 Y41.4250
G01 F400.00
G01 Z-0.0400
G01 F2500.00
G01 X72.9402 Y41.4240
G01 X72.9309 Y41.4212
G01 X72.9222 Y41.4166
G01 X72.9146 Y41.4104
G01 X72.9091 Y41.4038
G01 X72.9043 Y41.3953
G01 X72.9012 Y41.3860
G01 X72.9000 Y41.3762
G01 X72.9000 Y39.9250
G01 X72.9005 Y39.9177
G01 X72.9022 Y39.9105
G01 X72.9048 Y39.9036
G01 X72.9084 Y39.8972
G01 X72.9138 Y39.8905
G01 X72.9192 Y39.8856
G01 X72.9254 Y39.8815
G01 X72.9320 Y39.8784
G01 X72.9390 Y39.8762
G01 X72.9463 Y39.8751
G01 X73.4000 Y39.8750
G01 X73.4073 Y39.8755
G01 X73.4145 Y39.8772
G01 X73.4225 Y39.8803
G01 X73.4288 Y39.8841
G01 X73.4354 Y39.8896
G01 X73.4402 Y39.8952
G01 X73.4441 Y39.9014
G01 X73.4471 Y39.9082
G01 X73.4493 Y39.9165
G01 X73.4500 Y39.9238
G01 X73.4501 Y41.8964
G01 X75.2036 Y43.6499
G01 X79.5012 Y43.6499
G01 X79.5245 Y43.6511
G01 X79.5488 Y43.6547
G01 X79.5726 Y43.6607
G01 X79.5934 Y43.6681
G01 X79.6200 Y43.6806
G01 X79.6389 Y43.6920
G01 X79.6587 Y43.7067
G01 X79.6768 Y43.7232
G01 X81.0768 Y45.1232
G01 X81.0933 Y45.1413
G01 X81.1073 Y45.1600
G01 X81.1217 Y45.1843
G01 X81.1311 Y45.2043
G01 X81.1386 Y45.2251
G01 X81.1453 Y45.2512
G01 X81.1490 Y45.2767
G01 X81.1501 Y45.3000
G01 X81.1501 Y45.8000
G01 X81.7512 Y45.8000
G01 X81.7573 Y45.8005
G01 X81.7633 Y45.8018
G01 X81.7691 Y45.8038
G01 X81.7746 Y45.8065
G01 X81.7798 Y45.8098
G01 X81.7845 Y45.8138
G01 X81.7887 Y45.8183
G01 X81.7922 Y45.8233
G01 X81.7957 Y45.8297
G01 X81.7982 Y45.8367
G01 X81.7996 Y45.8439
G01 X81.8000 Y45.8500
G01 X81.8000 Y47.1048
G01 X83.6452 Y48.9500
G01 X84.2750 Y48.9500
G01 X84.3167 Y48.9520
G01 X84.3579 Y48.9582
G01 X84.3984 Y48.9683
G01 X84.4376 Y48.9824
G01 X84.4753 Y49.0002
G01 X84.5111 Y49.0216
G01 X84.5446 Y49.0465
G01 X84.5755 Y49.0745
G01 X84.6035 Y49.1054
G01 X84.6277 Y49.1379
G01 X84.6509 Y49.1768
G01 X84.6676 Y49.2124
G01 X84.6817 Y49.2516
G01 X84.6923 Y49.2945
G01 X84.6980 Y49.3333
G01 X84.6999 Y49.3725
G01 X84.7000 Y50.6262
G01 X84.6980 Y50.6667
G01 X84.6918 Y50.7079
G01 X84.6817 Y50.7484
G01 X84.6685 Y50.7854
G01 X84.6486 Y50.8275
G01 X84.6284 Y50.8611
G01 X84.6035 Y50.8946
G01 X84.5755 Y50.9255
G01 X84.5446 Y50.9535
G01 X84.5111 Y50.9784
G01 X84.4753 Y50.9998
G01 X84.4376 Y51.0176
G01 X84.3984 Y51.0317
G01 X84.3579 Y51.0418
G01 X84.3154 Y51.0481
G01 X84.2750 Y51.0500
G01 X83.5250 Y51.0500
G01 X83.4846 Y51.0481
G01 X83.4421 Y51.0418
G01 X83.3993 Y51.0309
G01 X83.3624 Y51.0176
G01 X83.3268 Y51.0009
G01 X83.2879 Y50.9777
G01 X83.2554 Y50.9535
G01 X83.2245 Y50.9255
G01 X83.1965 Y50.8946
G01 X83.1703 Y50.8590
G01 X83.1502 Y50.8253
G01 X83.1333 Y50.7899
G01 X83.1191 Y50.7507
G01 X83.1082 Y50.7079
G01 X83.1022 Y50.6679
G01 X83.1000 Y50.6250
G01 X83.1000 Y49.3952
G01 X81.3048 Y47.6000
G01 X80.0488 Y47.6000
G01 X80.0439 Y47.5996
G01 X80.0379 Y47.5985
G01 X80.0320 Y47.5966
G01 X80.0275 Y47.5947
G01 X80.0222 Y47.5916
G01 X80.0183 Y47.5887
G01 X80.0138 Y47.5845
G01 X80.0106 Y47.5808
G01 X80.0065 Y47.5746
G01 X80.0029 Y47.5668
G01 X80.0007 Y47.5585
G01 X80.0000 Y47.5500
G01 X80.0000 Y45.8500
G01 X80.0005 Y45.8427
G01 X80.0022 Y45.8355
G01 X80.0048 Y45.8286
G01 X80.0084 Y45.8222
G01 X80.0130 Y45.8164
G01 X80.0192 Y45.8106
G01 X80.0254 Y45.8065
G01 X80.0320 Y45.8034
G01 X80.0390 Y45.8012
G01 X80.0475 Y45.8001
G01 X80.6499 Y45.8000
G01 X80.6499 Y45.4036
G01 X79.3964 Y44.1501
G01 X75.1000 Y44.1501
G01 X75.0755 Y44.1489
G01 X75.0512 Y44.1453
G01 X75.0274 Y44.1393
G01 X75.0043 Y44.1311
G01 X74.9821 Y44.1206
G01 X74.9611 Y44.1080
G01 X74.9413 Y44.0933
G01 X74.9232 Y44.0768
G01 X73.0232 Y42.1768
G01 X73.0052 Y42.1567
G01 X72.9920 Y42.1389
G01 X72.9806 Y42.1200
G01 X72.9689 Y42.0957
G01 X72.9607 Y42.0726
G01 X72.9552 Y42.0512
G01 X72.9510 Y42.0233
G01 X72.9499 Y42.0000
G01 X72.9499 Y41.4250
G00 Z1.0000
G00 X72.9499 Y41.4300
G01 F400.00
G01 Z-0.0400
G01 F2500.00
G01 X72.9499 Y41.4250
G01 X72.9449 Y41.4245
G01 X72.9499 Y41.4250
G00 Z1.0000
G00 X75.0713 Y41.6008
G01 F400.00
G01 Z-0.0400
G01 F2500.00
G01 X74.4706 Y41.0002
G01 X74.1000 Y41.0001
G01 X74.0999 Y41.3787
G01 X74.0990 Y41.3848
G01 X74.0971 Y41.3918
G01 X74.0947 Y41.3975
G01 X74.0909 Y41.4038
G01 X74.0862 Y41.4095
G01 X74.0817 Y41.4137
G01 X74.0767 Y41.4172
G01 X74.0703 Y41.4207
G01 X74.0610 Y41.4238
G01 X74.0561 Y41.4246
G01 X74.0500 Y41.4250
G01 X73.5988 Y41.4250
G01 X73.5890 Y41.4238
G01 X73.5832 Y41.4221
G01 X73.5786 Y41.4202
G01 X73.5733 Y41.4172
G01 X73.5692 Y41.4144
G01 X73.5621 Y41.4077
G01 X73.5571 Y41.4007
G01 X73.5534 Y41.3930
G01 X73.5507 Y41.3835
G01 X73.5500 Y41.3750
G01 X73.5500 Y39.9250
G01 X73.5510 Y39.9152
G01 X73.5522 Y39.9105
G01 X73.5543 Y39.9047
G01 X73.5571 Y39.8993
G01 X73.5598 Y39.8952
G01 X73.5630 Y39.8914
G01 X73.5673 Y39.8871
G01 X73.5754 Y39.8815
G01 X73.5832 Y39.8779
G01 X73.5915 Y39.8757
G01 X73.6000 Y39.8750
G01 X74.0512 Y39.8750
G01 X74.0585 Y39.8757
G01 X74.0668 Y39.8779
G01 X74.0736 Y39.8809
G01 X74.0808 Y39.8856
G01 X74.0845 Y39.8888
G01 X74.0887 Y39.8933
G01 X74.0916 Y39.8972
G01 X74.0947 Y39.9025
G01 X74.0982 Y39.9117
G01 X74.0995 Y39.9177
G01 X74.0999 Y39.9225
G01 X74.1000 Y40.2998
G01 X74.6157 Y40.2999
G01 X74.6488 Y40.3014
G01 X74.6840 Y40.3066
G01 X74.7197 Y40.3157
G01 X74.7497 Y40.3265
G01 X74.7786 Y40.3401
G01 X74.8102 Y40.3589
G01 X74.8378 Y40.3793
G01 X74.8633 Y40.4024
G01 X75.8476 Y41.3867
G01 X75.8714 Y41.4131
G01 X75.8911 Y41.4398
G01 X75.9032 Y41.4598
G01 X75.9084 Y41.4619
G01 X75.9771 Y41.4945
G01 X76.0465 Y41.5362
G01 X76.1075 Y41.5816
G01 X76.1639 Y41.6326
G01 X76.2176 Y41.6915
G01 X76.2652 Y41.7555
G01 X76.3055 Y41.8229
G01 X76.3391 Y41.8939
G01 X76.3656 Y41.9678
G01 X76.3846 Y42.0439
G01 X76.3961 Y42.1216
G01 X76.4000 Y42.2000
G01 X76.3961 Y42.2784
G01 X76.3846 Y42.3561
G01 X76.3656 Y42.4322
G01 X76.3391 Y42.5061
G01 X76.3055 Y42.5771
G01 X76.2652 Y42.6445
G01 X76.2184 Y42.7075
G01 X76.1657 Y42.7657
G01 X76.1085 Y42.8176
G01 X76.0445 Y42.8652
G01 X75.9771 Y42.9055
G01 X75.9061 Y42.9391
G01 X75.8322 Y42.9656
G01 X75.7561 Y42.9846
G01 X75.6784 Y42.9961
G01 X75.6000 Y43.0000
G01 X75.5216 Y42.9961
G01 X75.4439 Y42.9846
G01 X75.3678 Y42.9656
G01 X75.2939 Y42.9391
G01 X75.2229 Y42.9055
G01 X75.1555 Y42.8652
G01 X75.0925 Y42.8184
G01 X75.0343 Y42.7657
G01 X74.9824 Y42.7085
G01 X74.9348 Y42.6445
G01 X74.8945 Y42.5771
G01 X74.8609 Y42.5061
G01 X74.8344 Y42.4322
G01 X74.8154 Y42.3561
G01 X74.8039 Y42.2784
G01 X74.8000 Y42.2000
G01 X74.8037 Y42.1228
G01 X74.8154 Y42.0439
G01 X74.8344 Y41.9678
G01 X74.8609 Y41.8939
G01 X74.8939 Y41.8240
G01 X74.9348 Y41.7555
G01 X74.9808 Y41.6934
G01 X75.0335 Y41.6352
G01 X75.0713 Y41.6008
G00 Z1.0000
G00 X75.0676 Y41.6041
G01 F400.00
G01 Z-0.0400
G01 F2500.00
G01 X75.0713 Y41.6008
G01 X75.0677 Y41.5972
G01 X75.0713 Y41.6008
G00 Z1.0000
G00 X72.9249 Y35.5182
G01 F400.00
G01 Z-0.0400
G01 F2500.00
G01 X72.9192 Y35.5144
G01 X72.9146 Y35.5104
G01 X72.9106 Y35.5058
G01 X72.9071 Y35.5007
G01 X72.9038 Y35.4941
G01 X72.9018 Y35.4883
G01 X72.9005 Y35.4823
G01 X72.9000 Y35.4762
G01 X72.9000 Y34.0250
G01 X72.9005 Y34.0177
G01 X72.9025 Y34.0093
G01 X72.9053 Y34.0025
G01 X72.9091 Y33.9962
G01 X72.9138 Y33.9905
G01 X72.9192 Y33.9856
G01 X72.9254 Y33.9815
G01 X72.9320 Y33.9784
G01 X72.9390 Y33.9762
G01 X72.9463 Y33.9751
G01 X73.4000 Y33.9750
G01 X73.4073 Y33.9755
G01 X73.4157 Y33.9775
G01 X73.4225 Y33.9803
G01 X73.4298 Y33.9848
G01 X73.4354 Y33.9896
G01 X73.4409 Y33.9962
G01 X73.4447 Y34.0025
G01 X73.4475 Y34.0093
G01 X73.4495 Y34.0177
G01 X73.4500 Y34.0250
G01 X73.4500 Y35.4762
G01 X73.4493 Y35.4835
G01 X73.4478 Y35.4895
G01 X73.4457 Y35.4953
G01 X73.4429 Y35.5007
G01 X73.4394 Y35.5058
G01 X73.4354 Y35.5104
G01 X73.4308 Y35.5144
G01 X73.4251 Y35.5182
G01 X73.4251 Y35.6664
G01 X76.2086 Y38.4499
G01 X77.8500 Y38.4499
G01 X77.8501 Y38.3225
G01 X77.8520 Y38.2833
G01 X77.8577 Y38.2445
G01 X77.8691 Y38.1993
G01 X77.8824 Y38.1624
G01 X77.9008 Y38.1236
G01 X77.9216 Y38.0889
G01 X77.9465 Y38.0554
G01 X77.9745 Y38.0245
G01 X78.0054 Y37.9965
G01 X78.0389 Y37.9716
G01 X78.0747 Y37.9502
G01 X78.1124 Y37.9324
G01 X78.1516 Y37.9183
G01 X78.1921 Y37.9082
G01 X78.2309 Y37.9023
G01 X78.2750 Y37.9000
G01 X79.5250 Y37.9000
G01 X79.5667 Y37.9020
G01 X79.6091 Y37.9084
G01 X79.6484 Y37.9183
G01 X79.6854 Y37.9315
G01 X79.7253 Y37.9502
G01 X79.7631 Y37.9730
G01 X79.7946 Y37.9965
G01 X79.8255 Y38.0245
G01 X79.8535 Y38.0554
G01 X79.8770 Y38.0869
G01 X79.8998 Y38.1247
G01 X79.9185 Y38.1646
G01 X79.9317 Y38.2016
G01 X79.9416 Y38.2409
G01 X79.9480 Y38.2833
G01 X79.9500 Y38.3250
G01 X79.9499 Y39.0775
G01 X79.9477 Y39.1191
G01 X79.9418 Y39.1579
G01 X79.9324 Y39.1960
G01 X79.9176 Y39.2376
G01 X79.8998 Y39.2753
G01 X79.8770 Y39.3131
G01 X79.8535 Y39.3446
G01 X79.8272 Y39.3737
G01 X79.7946 Y39.4035
G01 X79.7611 Y39.4284
G01 X79.7253 Y39.4498
G01 X79.6854 Y39.4685
G01 X79.6484 Y39.4817
G01 X79.6103 Y39.4913
G01 X79.5679 Y39.4978
G01 X79.5250 Y39.5000
G01 X78.2750 Y39.5000
G01 X78.2333 Y39.4980
G01 X78.1921 Y39.4918
G01 X78.1516 Y39.4817
G01 X78.1124 Y39.4676
G01 X78.0725 Y39.4486
G01 X78.0369 Y39.4270
G01 X78.0054 Y39.4035
G01 X77.9763 Y39.3772
G01 X77.9465 Y39.3446
G01 X77.9223 Y39.3121
G01 X77.9002 Y39.2753
G01 X77.8824 Y39.2376
G01 X77.8683 Y39.1984
G01 X77.8582 Y39.1579
G01 X77.8520 Y39.1167
G01 X77.8501 Y39.0775
G01 X77.8500 Y38.9501
G01 X76.1038 Y38.9501
G01 X76.0780 Y38.9486
G01 X76.0562 Y38.9453
G01 X76.0348 Y38.9400
G01 X76.0093 Y38.9311
G01 X75.9871 Y38.9206
G01 X75.9660 Y38.9080
G01 X75.9483 Y38.8948
G01 X75.9282 Y38.8768
G01 X72.9982 Y35.9468
G01 X72.9833 Y35.9305
G01 X72.9657 Y35.9069
G01 X72.9544 Y35.8879
G01 X72.9439 Y35.8657
G01 X72.9350 Y35.8402
G01 X72.9297 Y35.8188
G01 X72.9264 Y35.7970
G01 X72.9249 Y35.7700
G01 X72.9249 Y35.5182
G00 Z1.0000
G00 X72.9249 Y35.5232
G01 F400.00
G01 Z-0.0400
G01 F2500.00
G01 X72.9249 Y35.5182
G01 X72.9208 Y35.5154
G01 X72.9249 Y35.5182
G00 Z1.0000
G00 X71.6249 Y35.5182
G01 F400.00
G01 Z-0.0400
G01 F2500.00
G01 X71.6192 Y35.5144
G01 X71.6146 Y35.5104
G01 X71.6106 Y35.5058
G01 X71.6071 Y35.5007
G01 X71.6038 Y35.4941
G01 X71.6018 Y35.4883
G01 X71.6005 Y35.4823
G01 X71.6000 Y35.4762
G01 X71.6000 Y34.0250
G01 X71.6005 Y34.0177
G01 X71.6025 Y34.0093
G01 X71.6053 Y34.0025
G01 X71.6091 Y33.9962
G01 X71.6138 Y33.9905
G01 X71.6192 Y33.9856
G01 X71.6254 Y33.9815
G01 X71.6320 Y33.9784
G01 X71.6390 Y33.9762
G01 X71.6463 Y33.9751
G01 X72.1000 Y33.9750
G01 X72.1073 Y33.9755
G01 X72.1157 Y33.9775
G01 X72.1225 Y33.9803
G01 X72.1298 Y33.9848
G01 X72.1354 Y33.9896
G01 X72.1409 Y33.9962
G01 X72.1447 Y34.0025
G01 X72.1475 Y34.0093
G01 X72.1495 Y34.0177
G01 X72.1500 Y34.0250
G01 X72.1500 Y35.4762
G01 X72.1493 Y35.4835
G01 X72.1478 Y35.4895
G01 X72.1457 Y35.4953
G01 X72.1429 Y35.5007
G01 X72.1394 Y35.5058
G01 X72.1354 Y35.5104
G01 X72.1308 Y35.5144
G01 X72.1251 Y35.5182
G01 X72.1251 Y35.6229
G01 X78.7521 Y42.2499
G01 X80.6612 Y42.2499
G01 X80.6845 Y42.2511
G01 X80.7088 Y42.2547
G01 X80.7326 Y42.2607
G01 X80.7534 Y42.2681
G01 X80.7800 Y42.2806
G01 X80.7989 Y42.2920
G01 X80.8187 Y42.3067
G01 X80.8368 Y42.3232
G01 X87.4658 Y48.9521
G01 X87.4779 Y48.9452
G01 X87.5579 Y48.9076
G01 X87.6387 Y48.8788
G01 X87.7244 Y48.8573
G01 X87.8118 Y48.8443
G01 X87.8975 Y48.8401
G01 X87.9907 Y48.8446
G01 X88.0756 Y48.8573
G01 X88.1613 Y48.8788
G01 X88.2444 Y48.9085
G01 X88.3221 Y48.9452
G01 X88.4020 Y48.9931
G01 X88.4710 Y49.0443
G01 X88.5373 Y49.1045
G01 X88.5957 Y49.1690
G01 X88.6483 Y49.2400
G01 X88.6937 Y49.3157
G01 X88.7315 Y49.3956
G01 X88.7612 Y49.4787
G01 X88.7827 Y49.5644
G01 X88.7957 Y49.6518
G01 X88.7999 Y49.7375
G01 X88.7954 Y49.8307
G01 X88.7827 Y49.9156
G01 X88.7605 Y50.0036
G01 X88.7315 Y50.0844
G01 X88.6937 Y50.1643
G01 X88.6483 Y50.2400
G01 X88.5949 Y50.3119
G01 X88.5364 Y50.3764
G01 X88.4710 Y50.4357
G01 X88.4000 Y50.4883
G01 X88.3243 Y50.5337
G01 X88.2444 Y50.5715
G01 X88.1613 Y50.6012
G01 X88.0756 Y50.6227
G01 X87.9882 Y50.6357
G01 X87.9000 Y50.6400
G01 X87.8118 Y50.6357
G01 X87.7244 Y50.6227
G01 X87.6387 Y50.6012
G01 X87.5556 Y50.5715
G01 X87.4757 Y50.5337
G01 X87.4000 Y50.4883
G01 X87.3281 Y50.4349
G01 X87.2636 Y50.3764
G01 X87.2043 Y50.3110
G01 X87.1517 Y50.2400
G01 X87.1075 Y50.1664
G01 X87.0676 Y50.0821
G01 X87.0388 Y50.0013
G01 X87.0173 Y49.9156
G01 X87.0043 Y49.8282
G01 X87.0000 Y49.7400
G01 X87.0043 Y49.6518
G01 X87.0169 Y49.5668
G01 X87.0388 Y49.4787
G01 X87.0676 Y49.3979
G01 X87.1052 Y49.3179
G01 X87.1121 Y49.3058
G01 X80.5564 Y42.7501
G01 X78.6473 Y42.7501
G01 X78.6240 Y42.7489
G01 X78.5997 Y42.7453
G01 X78.5759 Y42.7393
G01 X78.5551 Y42.7319
G01 X78.5285 Y42.7194
G01 X78.5096 Y42.7080
G01 X78.4899 Y42.6933
G01 X78.4717 Y42.6768
G01 X71.6973 Y35.9024
G01 X71.6817 Y35.8851
G01 X71.6685 Y35.8674
G01 X71.6544 Y35.8444
G01 X71.6431 Y35.8199
G01 X71.6357 Y35.7991
G01 X71.6297 Y35.7753
G01 X71.6261 Y35.7510
G01 X71.6249 Y35.7277
G01 X71.6249 Y35.5182
G00 Z1.0000
G00 X71.6249 Y35.5232
G01 F400.00
G01 Z-0.0400
G01 F2500.00
G01 X71.6249 Y35.5182
G01 X71.6208 Y35.5154
G01 X71.6249 Y35.5182
G00 Z1.0000
G00 X72.2749 Y33.9818
G01 F400.00
G01 Z-0.0400
G01 F2500.00
G01 X72.2749 Y33.4750
G01 X72.2760 Y33.4517
G01 X72.2802 Y33.4238
G01 X72.2857 Y33.4024
G01 X72.2939 Y33.3793
G01 X72.3044 Y33.3571
G01 X72.3157 Y33.3381
G01 X72.3317 Y33.3163
G01 X72.3482 Y33.2982
G01 X75.1232 Y30.5232
G01 X75.1413 Y30.5067
G01 X75.1590 Y30.4935
G01 X75.1832 Y30.4789
G01 X75.2066 Y30.4681
G01 X75.2274 Y30.4607
G01 X75.2488 Y30.4552
G01 X75.2755 Y30.4511
G01 X75.3000 Y30.4499
G01 X77.8500 Y30.4499
G01 X77.8501 Y30.3225
G01 X77.8520 Y30.2833
G01 X77.8582 Y30.2421
G01 X77.8683 Y30.2016
G01 X77.8824 Y30.1624
G01 X77.9002 Y30.1247
G01 X77.9223 Y30.0879
G01 X77.9465 Y30.0554
G01 X77.9763 Y30.0228
G01 X78.0054 Y29.9965
G01 X78.0369 Y29.9730
G01 X78.0725 Y29.9514
G01 X78.1124 Y29.9324
G01 X78.1516 Y29.9183
G01 X78.1921 Y29.9082
G01 X78.2346 Y29.9019
G01 X78.2750 Y29.9000
G01 X79.5250 Y29.9000
G01 X79.5679 Y29.9022
G01 X79.6103 Y29.9087
G01 X79.6484 Y29.9183
G01 X79.6854 Y29.9315
G01 X79.7253 Y29.9502
G01 X79.7611 Y29.9716
G01 X79.7965 Y29.9981
G01 X79.8255 Y30.0245
G01 X79.8519 Y30.0535
G01 X79.8784 Y30.0889
G01 X79.9004 Y30.1257
G01 X79.9176 Y30.1624
G01 X79.9324 Y30.2040
G01 X79.9418 Y30.2421
G01 X79.9477 Y30.2809
G01 X79.9499 Y30.3225
G01 X79.9500 Y31.0750
G01 X79.9480 Y31.1167
G01 X79.9416 Y31.1591
G01 X79.9317 Y31.1984
G01 X79.9185 Y31.2354
G01 X79.8998 Y31.2753
G01 X79.8770 Y31.3131
G01 X79.8535 Y31.3446
G01 X79.8255 Y31.3755
G01 X79.7946 Y31.4035
G01 X79.7631 Y31.4270
G01 X79.7253 Y31.4498
G01 X79.6876 Y31.4676
G01 X79.6507 Y31.4809
G01 X79.6067 Y31.4921
G01 X79.5667 Y31.4980
G01 X79.5250 Y31.5000
G01 X78.2750 Y31.5000
G01 X78.2309 Y31.4977
G01 X78.1921 Y31.4918
G01 X78.1516 Y31.4817
G01 X78.1124 Y31.4676
G01 X78.0747 Y31.4498
G01 X78.0389 Y31.4284
G01 X78.0054 Y31.4035
G01 X77.9745 Y31.3755
G01 X77.9465 Y31.3446
G01 X77.9216 Y31.3111
G01 X77.9008 Y31.2764
G01 X77.8824 Y31.2376
G01 X77.8691 Y31.2007
G01 X77.8577 Y31.1555
G01 X77.8520 Y31.1167
G01 X77.8501 Y31.0775
G01 X77.8500 Y30.9501
G01 X75.4036 Y30.9501
G01 X72.7751 Y33.5786
G01 X72.7751 Y33.9818
G01 X72.7808 Y33.9856
G01 X72.7854 Y33.9896
G01 X72.7894 Y33.9942
G01 X72.7929 Y33.9993
G01 X72.7962 Y34.0059
G01 X72.7982 Y34.0117
G01 X72.7995 Y34.0177
G01 X72.8000 Y34.0238
G01 X72.8000 Y35.4750
G01 X72.7995 Y35.4823
G01 X72.7975 Y35.4907
G01 X72.7947 Y35.4975
G01 X72.7902 Y35.5048
G01 X72.7854 Y35.5104
G01 X72.7788 Y35.5159
G01 X72.7725 Y35.5197
G01 X72.7657 Y35.5225
G01 X72.7585 Y35.5243
G01 X72.7500 Y35.5250
G01 X72.2963 Y35.5249
G01 X72.2890 Y35.5238
G01 X72.2820 Y35.5216
G01 X72.2754 Y35.5185
G01 X72.2692 Y35.5144
G01 X72.2638 Y35.5095
G01 X72.2591 Y35.5038
G01 X72.2553 Y35.4975
G01 X72.2525 Y35.4907
G01 X72.2505 Y35.4823
G01 X72.2500 Y35.4750
G01 X72.2500 Y34.0238
G01 X72.2507 Y34.0165
G01 X72.2522 Y34.0105
G01 X72.2543 Y34.0047
G01 X72.2571 Y33.9993
G01 X72.2606 Y33.9942
G01 X72.2646 Y33.9896
G01 X72.2692 Y33.9856
G01 X72.2749 Y33.9818
G00 Z1.0000
G00 X72.2708 Y33.9846
G01 F400.00
G01 Z-0.0400
G01 F2500.00
G01 X72.2749 Y33.9818
G01 X72.2749 Y33.9768
G01 X72.2749 Y33.9818
G00 Z1.0000
G00 X74.1654 Y33.5886
G01 F400.00
G01 Z-0.0400
G01 F2500.00
G01 X74.2411 Y33.6152
G01 X74.3174 Y33.6604
G01 X74.3834 Y33.7196
G01 X74.4366 Y33.7905
G01 X74.4749 Y33.8704
G01 X74.4969 Y33.9563
G01 X74.5021 Y34.0516
G01 X74.5002 Y34.3708
G01 X74.4211 Y34.4500
G01 X74.1000 Y34.4500
G01 X74.1000 Y33.6539
G01 X74.1654 Y33.5886
G00 Z1.0000
G00 X74.1618 Y33.5921
G01 F400.00
G01 Z-0.0400
G01 F2500.00
G01 X74.1654 Y33.5886
G01 X74.1701 Y33.5902
G01 X74.1654 Y33.5886
G00 Z1.0000
G00 X70.8487 Y30.3024
G01 F400.00
G01 Z-0.0400
G01 F2500.00
G01 X70.8478 Y30.3179
G01 X70.8416 Y30.3591
G01 X70.8317 Y30.3984
G01 X70.8181 Y30.4365
G01 X70.7998 Y30.4753
G01 X70.7797 Y30.5090
G01 X70.7527 Y30.5456
G01 X70.7255 Y30.5755
G01 X70.6946 Y30.6035
G01 X70.6611 Y30.6284
G01 X70.6275 Y30.6486
G01 X70.5854 Y30.6685
G01 X70.5484 Y30.6817
G01 X70.5079 Y30.6918
G01 X70.4667 Y30.6980
G01 X70.4250 Y30.7000
G01 X69.1738 Y30.7000
G01 X69.1333 Y30.6980
G01 X69.0921 Y30.6918
G01 X69.0516 Y30.6817
G01 X69.0112 Y30.6672
G01 X68.9725 Y30.6486
G01 X68.9389 Y30.6284
G01 X68.9073 Y30.6050
G01 X68.8745 Y30.5755
G01 X68.8465 Y30.5446
G01 X68.8203 Y30.5090
G01 X68.8002 Y30.4753
G01 X68.7833 Y30.4399
G01 X68.7683 Y30.3984
G01 X68.7579 Y30.3567
G01 X68.7520 Y30.3167
G01 X68.7500 Y30.2750
G01 X68.7500 Y29.5238
G01 X68.7520 Y29.4833
G01 X68.7582 Y29.4421
G01 X68.7683 Y29.4016
G01 X68.7828 Y29.3612
G01 X68.8014 Y29.3225
G01 X68.8216 Y29.2889
G01 X68.8450 Y29.2573
G01 X68.8745 Y29.2245
G01 X68.9073 Y29.1950
G01 X68.9389 Y29.1716
G01 X68.9725 Y29.1514
G01 X69.0124 Y29.1324
G01 X69.0540 Y29.1176
G01 X69.0921 Y29.1082
G01 X69.1309 Y29.1023
G01 X69.1750 Y29.1000
G01 X70.4250 Y29.1000
G01 X70.4667 Y29.1020
G01 X70.5103 Y29.1087
G01 X70.5484 Y29.1183
G01 X70.5876 Y29.1324
G01 X70.6253 Y29.1502
G01 X70.6590 Y29.1703
G01 X70.6965 Y29.1981
G01 X70.7255 Y29.2245
G01 X70.7535 Y29.2554
G01 X70.7784 Y29.2889
G01 X70.8009 Y29.3268
G01 X70.8176 Y29.3624
G01 X70.8309 Y29.3993
G01 X70.8413 Y29.4397
G01 X70.8480 Y29.4833
G01 X70.8499 Y29.5225
G01 X70.8500 Y29.6550
G01 X70.8749 Y29.6614
G01 X70.8957 Y29.6689
G01 X70.9157 Y29.6783
G01 X70.9389 Y29.6920
G01 X70.9596 Y29.7075
G01 X70.9768 Y29.7232
G01 X71.2250 Y29.9713
G01 X71.4740 Y29.7223
G01 X71.4913 Y29.7067
G01 X71.5131 Y29.6907
G01 X71.5321 Y29.6794
G01 X71.5543 Y29.6689
G01 X71.5774 Y29.6607
G01 X71.6024 Y29.6545
G01 X71.6255 Y29.6511
G01 X71.6488 Y29.6499
G01 X71.7500 Y29.6499
G01 X71.7501 Y29.5225
G01 X71.7520 Y29.4833
G01 X71.7577 Y29.4445
G01 X71.7691 Y29.3993
G01 X71.7824 Y29.3624
G01 X71.8008 Y29.3236
G01 X71.8216 Y29.2889
G01 X71.8465 Y29.2554
G01 X71.8745 Y29.2245
G01 X71.9054 Y29.1965
G01 X71.9389 Y29.1716
G01 X71.9747 Y29.1502
G01 X72.0124 Y29.1324
G01 X72.0528 Y29.1180
G01 X72.0921 Y29.1082
G01 X72.1309 Y29.1023
G01 X72.1750 Y29.1000
G01 X73.4250 Y29.1000
G01 X73.4654 Y29.1019
G01 X73.5079 Y29.1082
G01 X73.5484 Y29.1183
G01 X73.5876 Y29.1324
G01 X73.6253 Y29.1502
G01 X73.6611 Y29.1716
G01 X73.6946 Y29.1965
G01 X73.7255 Y29.2245
G01 X73.7543 Y29.2563
G01 X73.7784 Y29.2889
G01 X73.7986 Y29.3225
G01 X73.8176 Y29.3624
G01 X73.8324 Y29.4040
G01 X73.8418 Y29.4421
G01 X73.8480 Y29.4833
G01 X73.8500 Y29.5250
G01 X73.8500 Y30.2750
G01 X73.8480 Y30.3167
G01 X73.8418 Y30.3579
G01 X73.8309 Y30.4007
G01 X73.8176 Y30.4376
G01 X73.8009 Y30.4732
G01 X73.7784 Y30.5111
G01 X73.7519 Y30.5465
G01 X73.7255 Y30.5755
G01 X73.6965 Y30.6019
G01 X73.6611 Y30.6284
G01 X73.6243 Y30.6504
G01 X73.5876 Y30.6676
G01 X73.5460 Y30.6824
G01 X73.5079 Y30.6918
G01 X73.4691 Y30.6977
G01 X73.4262 Y30.7000
G01 X72.1738 Y30.7000
G01 X72.1309 Y30.6977
G01 X72.0921 Y30.6918
G01 X72.0528 Y30.6820
G01 X72.0124 Y30.6676
G01 X71.9747 Y30.6498
G01 X71.9389 Y30.6284
G01 X71.9054 Y30.6035
G01 X71.8745 Y30.5755
G01 X71.8465 Y30.5446
G01 X71.8216 Y30.5111
G01 X71.8008 Y30.4764
G01 X71.7824 Y30.4376
G01 X71.7691 Y30.4007
G01 X71.7577 Y30.3555
G01 X71.7520 Y30.3167
G01 X71.7501 Y30.2775
G01 X71.7500 Y30.1537
G01 X71.4751 Y30.4286
G01 X71.4751 Y33.9818
G01 X71.4808 Y33.9856
G01 X71.4854 Y33.9896
G01 X71.4894 Y33.9942
G01 X71.4929 Y33.9993
G01 X71.4962 Y34.0059
G01 X71.4982 Y34.0117
G01 X71.4995 Y34.0177
G01 X71.5000 Y34.0238
G01 X71.5000 Y35.4750
G01 X71.4996 Y35.4811
G01 X71.4985 Y35.4871
G01 X71.4966 Y35.4930
G01 X71.4935 Y35.4996
G01 X71.4894 Y35.5058
G01 X71.4854 Y35.5104
G01 X71.4808 Y35.5144
G01 X71.4751 Y35.5182
G01 X71.4751 Y35.8214
G01 X78.5036 Y42.8499
G01 X80.4012 Y42.8499
G01 X80.4245 Y42.8511
G01 X80.4464 Y42.8543
G01 X80.4749 Y42.8615
G01 X80.4957 Y42.8689
G01 X80.5179 Y42.8794
G01 X80.5390 Y42.8921
G01 X80.5567 Y42.9052
G01 X80.5769 Y42.9232
G01 X86.3768 Y48.7232
G01 X86.3933 Y48.7413
G01 X86.4080 Y48.7611
G01 X86.4206 Y48.7821
G01 X86.4311 Y48.8043
G01 X86.4393 Y48.8274
G01 X86.4453 Y48.8512
G01 X86.4489 Y48.8755
G01 X86.4500 Y48.8975
G01 X86.4501 Y50.4764
G01 X87.4658 Y51.4921
G01 X87.4779 Y51.4852
G01 X87.5579 Y51.4476
G01 X87.6387 Y51.4188
G01 X87.7268 Y51.3969
G01 X87.8118 Y51.3843
G01 X87.9000 Y51.3800
G01 X87.9882 Y51.3843
G01 X88.0756 Y51.3973
G01 X88.1613 Y51.4188
G01 X88.2444 Y51.4485
G01 X88.3243 Y51.4863
G01 X88.3979 Y51.5304
G01 X88.4728 Y51.5859
G01 X88.5364 Y51.6436
G01 X88.5957 Y51.7090
G01 X88.6483 Y51.7800
G01 X88.6937 Y51.8557
G01 X88.7315 Y51.9356
G01 X88.7612 Y52.0187
G01 X88.7827 Y52.1044
G01 X88.7957 Y52.1918
G01 X88.8000 Y52.2800
G01 X88.7957 Y52.3682
G01 X88.7827 Y52.4556
G01 X88.7612 Y52.5413
G01 X88.7315 Y52.6244
G01 X88.6937 Y52.7043
G01 X88.6483 Y52.7800
G01 X88.5957 Y52.8510
G01 X88.5364 Y52.9164
G01 X88.4700 Y52.9765
G01 X88.4000 Y53.0283
G01 X88.3243 Y53.0737
G01 X88.2444 Y53.1115
G01 X88.1613 Y53.1412
G01 X88.0756 Y53.1627
G01 X87.9882 Y53.1757
G01 X87.9000 Y53.1800
G01 X87.8118 Y53.1757
G01 X87.7244 Y53.1627
G01 X87.6387 Y53.1412
G01 X87.5556 Y53.1115
G01 X87.4757 Y53.0737
G01 X87.4000 Y53.0283
G01 X87.3290 Y52.9757
G01 X87.2636 Y52.9164
G01 X87.2051 Y52.8519
G01 X87.1504 Y52.7779
G01 X87.1063 Y52.7043
G01 X87.0685 Y52.6244
G01 X87.0381 Y52.5389
G01 X87.0173 Y52.4556
G01 X87.0043 Y52.3682
G01 X87.0000 Y52.2800
G01 X87.0042 Y52.1942
G01 X87.0173 Y52.1044
G01 X87.0388 Y52.0187
G01 X87.0676 Y51.9379
G01 X87.1052 Y51.8579
G01 X87.1121 Y51.8458
G01 X86.0223 Y50.7560
G01 X86.0067 Y50.7387
G01 X85.9907 Y50.7169
G01 X85.9794 Y50.6979
G01 X85.9699 Y50.6780
G01 X85.9610 Y50.6538
G01 X85.9543 Y50.6264
G01 X85.9511 Y50.6045
G01 X85.9499 Y50.5800
G01 X85.9499 Y49.0036
G01 X80.2964 Y43.3501
G01 X78.3988 Y43.3501
G01 X78.3755 Y43.3489
G01 X78.3536 Y43.3457
G01 X78.3251 Y43.3386
G01 X78.3043 Y43.3311
G01 X78.2821 Y43.3206
G01 X78.2611 Y43.3080
G01 X78.2423 Y43.2941
G01 X78.2232 Y43.2769
G01 X71.0482 Y36.1018
G01 X71.0309 Y36.0827
G01 X71.0170 Y36.0639
G01 X71.0056 Y36.0450
G01 X70.9939 Y36.0207
G01 X70.9850 Y35.9952
G01 X70.9797 Y35.9738
G01 X70.9762 Y35.9507
G01 X70.9749 Y35.9250
G01 X70.9749 Y35.5182
G01 X70.9692 Y35.5144
G01 X70.9646 Y35.5104
G01 X70.9606 Y35.5058
G01 X70.9565 Y35.4996
G01 X70.9538 Y35.4941
G01 X70.9518 Y35.4883
G01 X70.9504 Y35.4811
G01 X70.9500 Y35.4750
G01 X70.9500 Y34.0238
G01 X70.9507 Y34.0165
G01 X70.9522 Y34.0105
G01 X70.9543 Y34.0047
G01 X70.9571 Y33.9993
G01 X70.9606 Y33.9942
G01 X70.9646 Y33.9896
G01 X70.9692 Y33.9856
G01 X70.9749 Y33.9818
G01 X70.9749 Y30.4286
G01 X70.8487 Y30.3024
G00 Z1.0000
G00 X70.8522 Y30.3059
G01 F400.00
G01 Z-0.0400
G01 F2500.00
G01 X70.8487 Y30.3024
G01 X70.8484 Y30.3074
G01 X70.8487 Y30.3024
G00 Z1.0000
G00 X69.0249 Y33.9818
G01 F400.00
G01 Z-0.0400
G01 F2500.00
G01 X69.0249 Y32.7786
G01 X65.4964 Y29.2501
G01 X63.7641 Y29.2501
G01 X63.7605 Y29.2636
G01 X63.7305 Y29.3467
G01 X63.6937 Y29.4243
G01 X63.6469 Y29.5020
G01 X63.5957 Y29.5710
G01 X63.5364 Y29.6364
G01 X63.4710 Y29.6957
G01 X63.3979 Y29.7496
G01 X63.3243 Y29.7937
G01 X63.2444 Y29.8315
G01 X63.1613 Y29.8612
G01 X63.0756 Y29.8827
G01 X62.9882 Y29.8957
G01 X62.9000 Y29.9000
G01 X62.8118 Y29.8957
G01 X62.7220 Y29.8822
G01 X62.6364 Y29.8605
G01 X62.5556 Y29.8315
G01 X62.4779 Y29.7948
G01 X62.4000 Y29.7483
G01 X62.3272 Y29.6941
G01 X62.2636 Y29.6364
G01 X62.2059 Y29.5728
G01 X62.1517 Y29.5000
G01 X62.1052 Y29.4221
G01 X62.0685 Y29.3444
G01 X62.0395 Y29.2636
G01 X62.0173 Y29.1756
G01 X62.0042 Y29.0858
G01 X62.0000 Y29.0000
G01 X62.0042 Y28.9142
G01 X62.0173 Y28.8244
G01 X62.0395 Y28.7364
G01 X62.0685 Y28.6556
G01 X62.1052 Y28.5779
G01 X62.1517 Y28.5000
G01 X62.2043 Y28.4290
G01 X62.2654 Y28.3619
G01 X62.3290 Y28.3043
G01 X62.3980 Y28.2531
G01 X62.4757 Y28.2063
G01 X62.5556 Y28.1685
G01 X62.6411 Y28.1381
G01 X62.7244 Y28.1173
G01 X62.8093 Y28.1046
G01 X62.9000 Y28.1000
G01 X62.9882 Y28.1043
G01 X63.0756 Y28.1173
G01 X63.1589 Y28.1381
G01 X63.2444 Y28.1685
G01 X63.3243 Y28.2063
G01 X63.3979 Y28.2504
G01 X63.4710 Y28.3043
G01 X63.5381 Y28.3654
G01 X63.5957 Y28.4290
G01 X63.6483 Y28.5000
G01 X63.6937 Y28.5757
G01 X63.7305 Y28.6533
G01 X63.7605 Y28.7364
G01 X63.7641 Y28.7499
G01 X65.6012 Y28.7499
G01 X65.6245 Y28.7511
G01 X65.6488 Y28.7547
G01 X65.6726 Y28.7607
G01 X65.6934 Y28.7681
G01 X65.7200 Y28.7806
G01 X65.7389 Y28.7920
G01 X65.7587 Y28.8067
G01 X65.7768 Y28.8232
G01 X69.4518 Y32.4982
G01 X69.4698 Y32.5183
G01 X69.4830 Y32.5361
G01 X69.4950 Y32.5560
G01 X69.5061 Y32.5793
G01 X69.5150 Y32.6048
G01 X69.5203 Y32.6262
G01 X69.5236 Y32.6481
G01 X69.5250 Y32.6725
G01 X69.5251 Y33.9818
G01 X69.5308 Y33.9856
G01 X69.5354 Y33.9896
G01 X69.5402 Y33.9952
G01 X69.5435 Y34.0004
G01 X69.5462 Y34.0059
G01 X69.5482 Y34.0117
G01 X69.5495 Y34.0177
G01 X69.5500 Y34.0250
G01 X69.5500 Y35.4762
G01 X69.5493 Y35.4835
G01 X69.5471 Y35.4918
G01 X69.5441 Y35.4986
G01 X69.5402 Y35.5048
G01 X69.5345 Y35.5112
G01 X69.5288 Y35.5159
G01 X69.5225 Y35.5197
G01 X69.5157 Y35.5225
G01 X69.5085 Y35.5243
G01 X69.5000 Y35.5250
G01 X69.0463 Y35.5249
G01 X69.0390 Y35.5238
G01 X69.0320 Y35.5216
G01 X69.0254 Y35.5185
G01 X69.0192 Y35.5144
G01 X69.0138 Y35.5095
G01 X69.0091 Y35.5038
G01 X69.0053 Y35.4975
G01 X69.0025 Y35.4907
G01 X69.0005 Y35.4823
G01 X69.0000 Y35.4750
G01 X69.0000 Y34.0238
G01 X69.0007 Y34.0165
G01 X69.0022 Y34.0105
G01 X69.0043 Y34.0047
G01 X69.0071 Y33.9993
G01 X69.0106 Y33.9942
G01 X69.0146 Y33.9896
G01 X69.0192 Y33.9856
G01 X69.0249 Y33.9818
G00 Z1.0000
G00 X69.0208 Y33.9846
G01 F400.00
G01 Z-0.0400
G01 F2500.00
G01 X69.0249 Y33.9818
G01 X69.0249 Y33.9768
G01 X69.0249 Y33.9818
G00 Z1.0000
G00 X68.3749 Y33.9818
G01 F400.00
G01 Z-0.0400
G01 F2500.00
G01 X68.3749 Y33.8336
G01 X66.3314 Y31.7901
G01 X63.7641 Y31.7901
G01 X63.7605 Y31.8036
G01 X63.7305 Y31.8867
G01 X63.6937 Y31.9643
G01 X63.6469 Y32.0420
G01 X63.5957 Y32.1110
G01 X63.5364 Y32.1764
G01 X63.4710 Y32.2357
G01 X63.4000 Y32.2883
G01 X63.3243 Y32.3337
G01 X63.2444 Y32.3715
G01 X63.1613 Y32.4012
G01 X63.0780 Y32.4222
G01 X62.9858 Y32.4358
G01 X62.9000 Y32.4400
G01 X62.8093 Y32.4354
G01 X62.7244 Y32.4227
G01 X62.6411 Y32.4019
G01 X62.5579 Y32.3724
G01 X62.4757 Y32.3337
G01 X62.4000 Y32.2883
G01 X62.3290 Y32.2357
G01 X62.2619 Y32.1746
G01 X62.2043 Y32.1110
G01 X62.1531 Y32.0420
G01 X62.1075 Y31.9664
G01 X62.0685 Y31.8844
G01 X62.0388 Y31.8013
G01 X62.0173 Y31.7156
G01 X62.0042 Y31.6258
G01 X62.0000 Y31.5400
G01 X62.0042 Y31.4542
G01 X62.0169 Y31.3668
G01 X62.0388 Y31.2787
G01 X62.0690 Y31.1945
G01 X62.1063 Y31.1157
G01 X62.1504 Y31.0421
G01 X62.2043 Y30.9690
G01 X62.2654 Y30.9019
G01 X62.3290 Y30.8443
G01 X62.4000 Y30.7917
G01 X62.4779 Y30.7452
G01 X62.5556 Y30.7085
G01 X62.6387 Y30.6788
G01 X62.7244 Y30.6573
G01 X62.8093 Y30.6446
G01 X62.9012 Y30.6400
G01 X62.9882 Y30.6443
G01 X63.0732 Y30.6569
G01 X63.1636 Y30.6795
G01 X63.2444 Y30.7085
G01 X63.3243 Y30.7463
G01 X63.4000 Y30.7917
G01 X63.4690 Y30.8428
G01 X63.5381 Y30.9054
G01 X63.5957 Y30.9690
G01 X63.6483 Y31.0400
G01 X63.6937 Y31.1157
G01 X63.7305 Y31.1933
G01 X63.7605 Y31.2764
G01 X63.7641 Y31.2899
G01 X66.4350 Y31.2899
G01 X66.4595 Y31.2911
G01 X66.4838 Y31.2947
G01 X66.5076 Y31.3007
G01 X66.5318 Y31.3094
G01 X66.5529 Y31.3194
G01 X66.5740 Y31.3320
G01 X66.5937 Y31.3467
G01 X66.6118 Y31.3632
G01 X68.8018 Y33.5532
G01 X68.8198 Y33.5733
G01 X68.8330 Y33.5910
G01 X68.8450 Y33.6110
G01 X68.8561 Y33.6343
G01 X68.8643 Y33.6574
G01 X68.8703 Y33.6812
G01 X68.8740 Y33.7067
G01 X68.8751 Y33.7300
G01 X68.8751 Y33.9818
G01 X68.8808 Y33.9856
G01 X68.8854 Y33.9896
G01 X68.8902 Y33.9952
G01 X68.8935 Y34.0004
G01 X68.8962 Y34.0059
G01 X68.8982 Y34.0117
G01 X68.8995 Y34.0177
G01 X68.9000 Y34.0250
G01 X68.9000 Y35.4762
G01 X68.8993 Y35.4835
G01 X68.8971 Y35.4918
G01 X68.8941 Y35.4986
G01 X68.8902 Y35.5048
G01 X68.8845 Y35.5112
G01 X68.8788 Y35.5159
G01 X68.8725 Y35.5197
G01 X68.8657 Y35.5225
G01 X68.8585 Y35.5243
G01 X68.8500 Y35.5250
G01 X68.3963 Y35.5249
G01 X68.3890 Y35.5238
G01 X68.3820 Y35.5216
G01 X68.3754 Y35.5185
G01 X68.3692 Y35.5144
G01 X68.3638 Y35.5095
G01 X68.3591 Y35.5038
G01 X68.3553 Y35.4975
G01 X68.3525 Y35.4907
G01 X68.3505 Y35.4823
G01 X68.3500 Y35.4750
G01 X68.3500 Y34.0238
G01 X68.3507 Y34.0165
G01 X68.3522 Y34.0105
G01 X68.3543 Y34.0047
G01 X68.3571 Y33.9993
G01 X68.3606 Y33.9942
G01 X68.3646 Y33.9896
G01 X68.3692 Y33.9856
G01 X68.3749 Y33.9818
G00 Z1.0000
G00 X68.3708 Y33.9846
G01 F400.00
G01 Z-0.0400
G01 F2500.00
G01 X68.3749 Y33.9818
G01 X68.3749 Y33.9768
G01 X68.3749 Y33.9818
G00 Z1.0000
G00 X65.2600 Y45.3137
G01 F400.00
G01 Z-0.0400
G01 F2500.00
G01 X65.2061 Y45.3391
G01 X65.1322 Y45.3656
G01 X65.0561 Y45.3846
G01 X64.9784 Y45.3961
G01 X64.9000 Y45.4000
G01 X64.8216 Y45.3961
G01 X64.7439 Y45.3846
G01 X64.6678 Y45.3656
G01 X64.5939 Y45.3391
G01 X64.5229 Y45.3055
G01 X64.4555 Y45.2652
G01 X64.3925 Y45.2184
G01 X64.3343 Y45.1657
G01 X64.2816 Y45.1075
G01 X64.2348 Y45.0445
G01 X64.1945 Y44.9771
G01 X64.1609 Y44.9061
G01 X64.1344 Y44.8322
G01 X64.1154 Y44.7561
G01 X64.1039 Y44.6784
G01 X64.1000 Y44.6000
G01 X64.1039 Y44.5216
G01 X64.1154 Y44.4439
G01 X64.1344 Y44.3678
G01 X64.1609 Y44.2939
G01 X64.1945 Y44.2229
G01 X64.2348 Y44.1555
G01 X64.2816 Y44.0925
G01 X64.3343 Y44.0343
G01 X64.3925 Y43.9816
G01 X64.4555 Y43.9348
G01 X64.5229 Y43.8945
G01 X64.5939 Y43.8609
G01 X64.6654 Y43.8352
G01 X64.7463 Y43.8150
G01 X64.8216 Y43.8039
G01 X64.9000 Y43.8000
G01 X64.9784 Y43.8039
G01 X65.0561 Y43.8154
G01 X65.1322 Y43.8344
G01 X65.2061 Y43.8609
G01 X65.2771 Y43.8945
G01 X65.3424 Y43.9335
G01 X65.4094 Y43.9832
G01 X65.4657 Y44.0343
G01 X65.5192 Y44.0934
G01 X65.5652 Y44.1555
G01 X65.6043 Y44.2207
G01 X65.6391 Y44.2939
G01 X65.6656 Y44.3678
G01 X65.6841 Y44.4415
G01 X65.6961 Y44.5216
G01 X65.6999 Y44.6025
G01 X65.6961 Y44.6784
G01 X65.6846 Y44.7561
G01 X65.6648 Y44.8346
G01 X65.6391 Y44.9061
G01 X65.6137 Y44.9600
G01 X65.8368 Y45.1832
G01 X65.8533 Y45.2013
G01 X65.8680 Y45.2211
G01 X65.8817 Y45.2443
G01 X65.8911 Y45.2643
G01 X65.8986 Y45.2851
G01 X65.9050 Y45.3100
G01 X65.9089 Y45.3355
G01 X65.9101 Y45.3600
G01 X65.9101 Y45.8359
G01 X65.9236 Y45.8395
G01 X66.0044 Y45.8685
G01 X66.0864 Y45.9075
G01 X66.1600 Y45.9517
G01 X66.2290 Y46.0028
G01 X66.2964 Y46.0636
G01 X66.3572 Y46.1310
G01 X66.4083 Y46.2000
G01 X66.4525 Y46.2736
G01 X66.4915 Y46.3556
G01 X66.5219 Y46.4411
G01 X66.5427 Y46.5244
G01 X66.5554 Y46.6093
G01 X66.5600 Y46.7000
G01 X66.5554 Y46.7907
G01 X66.5427 Y46.8756
G01 X66.5216 Y46.9601
G01 X66.4905 Y47.0467
G01 X66.4537 Y47.1243
G01 X66.4090 Y47.1990
G01 X66.3541 Y47.2728
G01 X66.2964 Y47.3364
G01 X66.2502 Y47.3784
G01 X66.2501 Y48.9500
G01 X66.2762 Y48.9500
G01 X66.3179 Y48.9522
G01 X66.3579 Y48.9582
G01 X66.3972 Y48.9680
G01 X66.4399 Y48.9833
G01 X66.4753 Y49.0002
G01 X66.5121 Y49.0223
G01 X66.5446 Y49.0465
G01 X66.5755 Y49.0745
G01 X66.6035 Y49.1054
G01 X66.6270 Y49.1369
G01 X66.6509 Y49.1768
G01 X66.6676 Y49.2124
G01 X66.6820 Y49.2528
G01 X66.6918 Y49.2921
G01 X66.6977 Y49.3309
G01 X66.7000 Y49.3738
G01 X66.7000 Y50.6262
G01 X66.6980 Y50.6667
G01 X66.6918 Y50.7079
G01 X66.6817 Y50.7484
G01 X66.6685 Y50.7854
G01 X66.6486 Y50.8275
G01 X66.6284 Y50.8611
G01 X66.6035 Y50.8946
G01 X66.5755 Y50.9255
G01 X66.5465 Y50.9519
G01 X66.5090 Y50.9797
G01 X66.4753 Y50.9998
G01 X66.4376 Y51.0176
G01 X66.3984 Y51.0317
G01 X66.3579 Y51.0418
G01 X66.3167 Y51.0480
G01 X66.2750 Y51.0500
G01 X65.5250 Y51.0500
G01 X65.4809 Y51.0477
G01 X65.4421 Y51.0418
G01 X65.4028 Y51.0320
G01 X65.3601 Y51.0167
G01 X65.3247 Y50.9998
G01 X65.2910 Y50.9797
G01 X65.2554 Y50.9535
G01 X65.2228 Y50.9237
G01 X65.1965 Y50.8946
G01 X65.1730 Y50.8631
G01 X65.1502 Y50.8253
G01 X65.1324 Y50.7876
G01 X65.1191 Y50.7507
G01 X65.1082 Y50.7079
G01 X65.1020 Y50.6667
G01 X65.1000 Y50.6250
G01 X65.1000 Y49.3750
G01 X65.1023 Y49.3309
G01 X65.1082 Y49.2921
G01 X65.1183 Y49.2516
G01 X65.1324 Y49.2124
G01 X65.1502 Y49.1747
G01 X65.1716 Y49.1389
G01 X65.1965 Y49.1054
G01 X65.2245 Y49.0745
G01 X65.2544 Y49.0473
G01 X65.2889 Y49.0216
G01 X65.3247 Y49.0002
G01 X65.3624 Y48.9824
G01 X65.4005 Y48.9687
G01 X65.4421 Y48.9582
G01 X65.4821 Y48.9522
G01 X65.5238 Y48.9500
G01 X65.5498 Y48.9500
G01 X65.5499 Y47.5925
G01 X65.4844 Y47.5827
G01 X65.3987 Y47.5612
G01 X65.3156 Y47.5315
G01 X65.2357 Y47.4937
G01 X65.1600 Y47.4483
G01 X65.0890 Y47.3957
G01 X65.0236 Y47.3364
G01 X64.9651 Y47.2719
G01 X64.9117 Y47.2000
G01 X64.8663 Y47.1243
G01 X64.8285 Y47.0444
G01 X64.7995 Y46.9636
G01 X64.7769 Y46.8732
G01 X64.7643 Y46.7882
G01 X64.7600 Y46.6988
G01 X64.7643 Y46.6118
G01 X64.7769 Y46.5268
G01 X64.7995 Y46.4364
G01 X64.8285 Y46.3556
G01 X64.8663 Y46.2757
G01 X64.9117 Y46.2000
G01 X64.9628 Y46.1310
G01 X65.0254 Y46.0619
G01 X65.0890 Y46.0043
G01 X65.1600 Y45.9517
G01 X65.2357 Y45.9063
G01 X65.3133 Y45.8695
G01 X65.3964 Y45.8395
G01 X65.4099 Y45.8359
G01 X65.4099 Y45.4636
G01 X65.2600 Y45.3137
G00 Z1.0000
G00 X65.2635 Y45.3172
G01 F400.00
G01 Z-0.0400
G01 F2500.00
G01 X65.2600 Y45.3137
G01 X65.2555 Y45.3158
G01 X65.2600 Y45.3137
G00 Z1.0000
G00 X62.7696 Y44.3676
G01 F400.00
G01 Z-0.0400
G01 F2500.00
G01 X62.7751 Y44.3114
G01 X62.7951 Y44.2454
G01 X62.8276 Y44.1846
G01 X62.8713 Y44.1313
G01 X62.8818 Y44.1227
G01 X62.8882 Y44.1169
G01 X63.9869 Y43.0182
G01 X63.9927 Y43.0118
G01 X64.0013 Y43.0013
G01 X64.0546 Y42.9576
G01 X64.1154 Y42.9251
G01 X64.1814 Y42.9051
G01 X64.2500 Y42.8983
G01 X64.2635 Y42.8996
G01 X64.2721 Y42.9000
G01 X65.9279 Y42.9000
G01 X65.9365 Y42.8996
G01 X65.9500 Y42.8983
G01 X66.0102 Y42.9042
G01 X66.0187 Y42.9046
G01 X66.0273 Y42.9042
G01 X66.0383 Y42.9027
G01 X66.0478 Y42.9003
G01 X66.0570 Y42.8970
G01 X66.0659 Y42.8928
G01 X66.0743 Y42.8878
G01 X66.0822 Y42.8819
G01 X66.0895 Y42.8753
G01 X66.0953 Y42.8690
G01 X66.1019 Y42.8602
G01 X66.1070 Y42.8517
G01 X66.1112 Y42.8429
G01 X66.1141 Y42.8348
G01 X66.1168 Y42.8241
G01 X66.1181 Y42.8156
G01 X66.1188 Y42.8058
G01 X66.1185 Y42.7972
G01 X66.1163 Y42.7827
G01 X66.1141 Y42.7744
G01 X66.1107 Y42.7652
G01 X66.1070 Y42.7574
G01 X66.1019 Y42.7490
G01 X66.0961 Y42.7411
G01 X66.0903 Y42.7347
G01 X65.4349 Y42.0793
G01 X65.4276 Y42.0727
G01 X65.4197 Y42.0668
G01 X65.4113 Y42.0618
G01 X65.4024 Y42.0576
G01 X65.3932 Y42.0543
G01 X65.3837 Y42.0519
G01 X65.3740 Y42.0505
G01 X65.3666 Y42.0500
G01 X64.0012 Y42.0500
G01 X63.9914 Y42.0505
G01 X63.9817 Y42.0519
G01 X63.9722 Y42.0543
G01 X63.9629 Y42.0576
G01 X63.9519 Y42.0630
G01 X63.9456 Y42.0668
G01 X63.9387 Y42.0719
G01 X63.9305 Y42.0793
G01 X63.9224 Y42.0885
G01 X63.9180 Y42.0944
G01 X63.9142 Y42.1007
G01 X63.9088 Y42.1117
G01 X63.9048 Y42.1233
G01 X63.9031 Y42.1305
G01 X63.9018 Y42.1390
G01 X63.9012 Y42.1500
G01 X63.9012 Y42.5451
G01 X63.8978 Y42.5794
G01 X63.8892 Y42.6077
G01 X63.8753 Y42.6337
G01 X63.8566 Y42.6566
G01 X63.8337 Y42.6753
G01 X63.8077 Y42.6892
G01 X63.7794 Y42.6978
G01 X63.7451 Y42.7012
G01 X62.0549 Y42.7012
G01 X62.0206 Y42.6978
G01 X61.9923 Y42.6892
G01 X61.9663 Y42.6753
G01 X61.9434 Y42.6566
G01 X61.9247 Y42.6337
G01 X61.9108 Y42.6077
G01 X61.9022 Y42.5794
G01 X61.8988 Y42.5451
G01 X61.8988 Y40.8549
G01 X61.9022 Y40.8206
G01 X61.9108 Y40.7923
G01 X61.9247 Y40.7663
G01 X61.9434 Y40.7434
G01 X61.9663 Y40.7247
G01 X61.9923 Y40.7108
G01 X62.0206 Y40.7022
G01 X62.0549 Y40.6988
G01 X63.7451 Y40.6988
G01 X63.7794 Y40.7022
G01 X63.8077 Y40.7108
G01 X63.8337 Y40.7247
G01 X63.8566 Y40.7434
G01 X63.8753 Y40.7663
G01 X63.8892 Y40.7923
G01 X63.8978 Y40.8206
G01 X63.9012 Y40.8549
G01 X63.9012 Y41.2500
G01 X63.9017 Y41.2598
G01 X63.9029 Y41.2683
G01 X63.9063 Y41.2814
G01 X63.9088 Y41.2883
G01 X63.9130 Y41.2972
G01 X63.9195 Y41.3076
G01 X63.9239 Y41.3135
G01 X63.9305 Y41.3207
G01 X63.9378 Y41.3273
G01 X63.9436 Y41.3318
G01 X63.9551 Y41.3388
G01 X63.9629 Y41.3424
G01 X63.9710 Y41.3453
G01 X63.9841 Y41.3485
G01 X63.9914 Y41.3495
G01 X64.0012 Y41.3500
G01 X65.5285 Y41.3500
G01 X65.5358 Y41.3497
G01 X65.5524 Y41.3482
G01 X65.5649 Y41.3476
G01 X65.5733 Y41.3463
G01 X65.5829 Y41.3439
G01 X65.5921 Y41.3406
G01 X65.6010 Y41.3364
G01 X65.6094 Y41.3313
G01 X65.6163 Y41.3262
G01 X65.6246 Y41.3189
G01 X65.6312 Y41.3116
G01 X65.6370 Y41.3037
G01 X65.6420 Y41.2953
G01 X65.6462 Y41.2864
G01 X65.6496 Y41.2772
G01 X65.6519 Y41.2677
G01 X65.6532 Y41.2592
G01 X65.6539 Y41.2481
G01 X65.6534 Y41.2383
G01 X65.6517 Y41.2274
G01 X65.6488 Y41.2168
G01 X65.6462 Y41.2099
G01 X65.6432 Y41.2032
G01 X65.6383 Y41.1947
G01 X65.6319 Y41.1857
G01 X65.6246 Y41.1774
G01 X63.9864 Y39.5393
G01 X63.9791 Y39.5327
G01 X63.9713 Y39.5268
G01 X63.9628 Y39.5218
G01 X63.9528 Y39.5171
G01 X63.9447 Y39.5143
G01 X63.9376 Y39.5124
G01 X63.9243 Y39.5104
G01 X63.9030 Y39.5100
G01 X63.8944 Y39.5105
G01 X63.8859 Y39.5117
G01 X63.8729 Y39.5151
G01 X63.8660 Y39.5176
G01 X63.8571 Y39.5218
G01 X63.8487 Y39.5268
G01 X63.8427 Y39.5312
G01 X63.8335 Y39.5393
G01 X63.8269 Y39.5465
G01 X63.8225 Y39.5524
G01 X63.8155 Y39.5639
G01 X63.8118 Y39.5717
G01 X63.7862 Y39.6337
G01 X63.6767 Y39.7974
G01 X63.5374 Y39.9367
G01 X63.3737 Y40.0462
G01 X63.1917 Y40.1215
G01 X62.9985 Y40.1600
G01 X62.8015 Y40.1600
G01 X62.6083 Y40.1215
G01 X62.4263 Y40.0462
G01 X62.2626 Y39.9367
G01 X62.1233 Y39.7974
G01 X62.0138 Y39.6337
G01 X61.9385 Y39.4517
G01 X61.9000 Y39.2585
G01 X61.9000 Y39.0615
G01 X61.9385 Y38.8683
G01 X62.0138 Y38.6863
G01 X62.1233 Y38.5226
G01 X62.2626 Y38.3833
G01 X62.4263 Y38.2738
G01 X62.6083 Y38.1985
G01 X62.8015 Y38.1600
G01 X62.9985 Y38.1600
G01 X63.1917 Y38.1985
G01 X63.3737 Y38.2738
G01 X63.5374 Y38.3833
G01 X63.6767 Y38.5226
G01 X63.7862 Y38.6863
G01 X63.8123 Y38.7494
G01 X63.8160 Y38.7572
G01 X63.8204 Y38.7645
G01 X63.8269 Y38.7735
G01 X63.8335 Y38.7807
G01 X63.8417 Y38.7881
G01 X63.8507 Y38.7945
G01 X63.8571 Y38.7982
G01 X63.8637 Y38.8014
G01 X63.8740 Y38.8053
G01 X63.8847 Y38.8081
G01 X63.8957 Y38.8096
G01 X63.9042 Y38.8100
G01 X64.0800 Y38.8100
G01 X64.0886 Y38.8096
G01 X64.1021 Y38.8083
G01 X64.1707 Y38.8151
G01 X64.2367 Y38.8351
G01 X64.2975 Y38.8676
G01 X64.3507 Y38.9113
G01 X64.3594 Y38.9218
G01 X64.3652 Y38.9282
G01 X67.1577 Y41.7207
G01 X67.1670 Y41.7288
G01 X67.1729 Y41.7332
G01 X67.1802 Y41.7376
G01 X67.1902 Y41.7424
G01 X67.2018 Y41.7464
G01 X67.2090 Y41.7481
G01 X67.2162 Y41.7492
G01 X67.2272 Y41.7500
G01 X68.1136 Y41.7500
G01 X68.1234 Y41.7495
G01 X68.1343 Y41.7478
G01 X68.1450 Y41.7449
G01 X68.1519 Y41.7424
G01 X68.1586 Y41.7393
G01 X68.1681 Y41.7338
G01 X68.1761 Y41.7281
G01 X68.1826 Y41.7224
G01 X68.2098 Y41.6952
G01 X68.2155 Y41.6887
G01 X68.2212 Y41.6808
G01 X68.2256 Y41.6734
G01 X68.2303 Y41.6633
G01 X68.2331 Y41.6552
G01 X68.2355 Y41.6457
G01 X68.2369 Y41.6360
G01 X68.2374 Y41.6250
G01 X68.2369 Y41.6164
G01 X68.2355 Y41.6067
G01 X68.2331 Y41.5972
G01 X68.2307 Y41.5902
G01 X68.2250 Y41.5780
G01 X68.2206 Y41.5706
G01 X68.2147 Y41.5628
G01 X68.2081 Y41.5555
G01 X68.2018 Y41.5497
G01 X68.1909 Y41.5417
G01 X68.1845 Y41.5380
G01 X68.1757 Y41.5338
G01 X68.1664 Y41.5305
G01 X68.1569 Y41.5281
G01 X68.1472 Y41.5267
G01 X68.1374 Y41.5262
G01 X67.7549 Y41.5262
G01 X67.7206 Y41.5228
G01 X67.6923 Y41.5142
G01 X67.6663 Y41.5003
G01 X67.6434 Y41.4816
G01 X67.6247 Y41.4587
G01 X67.6108 Y41.4327
G01 X67.6022 Y41.4044
G01 X67.5988 Y41.3701
G01 X67.5988 Y41.3488
G01 X67.5982 Y41.3390
G01 X67.5969 Y41.3305
G01 X67.5952 Y41.3233
G01 X67.5907 Y41.3106
G01 X67.5870 Y41.3028
G01 X67.5820 Y41.2944
G01 X67.5761 Y41.2865
G01 X67.5686 Y41.2784
G01 X67.5622 Y41.2727
G01 X67.5533 Y41.2662
G01 X67.5449 Y41.2612
G01 X67.5348 Y41.2567
G01 X67.5278 Y41.2543
G01 X67.5183 Y41.2519
G01 X67.5086 Y41.2505
G01 X67.5000 Y41.2500
G01 X67.2221 Y41.2500
G01 X67.2135 Y41.2504
G01 X67.2000 Y41.2517
G01 X67.1314 Y41.2449
G01 X67.0654 Y41.2249
G01 X67.0046 Y41.1924
G01 X66.9513 Y41.1487
G01 X66.9427 Y41.1382
G01 X66.9369 Y41.1318
G01 X63.3768 Y37.5717
G01 X63.3695 Y37.5651
G01 X63.3626 Y37.5600
G01 X63.3532 Y37.5542
G01 X63.3443 Y37.5500
G01 X63.3351 Y37.5467
G01 X63.3256 Y37.5443
G01 X63.3158 Y37.5429
G01 X63.3060 Y37.5424
G01 X63.2962 Y37.5429
G01 X63.2877 Y37.5441
G01 X63.2770 Y37.5467
G01 X63.2689 Y37.5496
G01 X63.1917 Y37.5815
G01 X62.9985 Y37.6200
G01 X62.8015 Y37.6200
G01 X62.6083 Y37.5815
G01 X62.4263 Y37.5062
G01 X62.2626 Y37.3967
G01 X62.1233 Y37.2574
G01 X62.0138 Y37.0937
G01 X61.9385 Y36.9117
G01 X61.9000 Y36.7185
G01 X61.9000 Y36.5215
G01 X61.9385 Y36.3283
G01 X62.0138 Y36.1463
G01 X62.1233 Y35.9826
G01 X62.2626 Y35.8433
G01 X62.4263 Y35.7338
G01 X62.6083 Y35.6585
G01 X62.8015 Y35.6200
G01 X62.9985 Y35.6200
G01 X63.1917 Y35.6585
G01 X63.3737 Y35.7338
G01 X63.5374 Y35.8433
G01 X63.6767 Y35.9826
G01 X63.7862 Y36.1463
G01 X63.8615 Y36.3283
G01 X63.9000 Y36.5215
G01 X63.9000 Y36.7185
G01 X63.8615 Y36.9117
G01 X63.8417 Y36.9595
G01 X63.8392 Y36.9664
G01 X63.8361 Y36.9782
G01 X63.8345 Y36.9892
G01 X63.8341 Y36.9978
G01 X63.8346 Y37.0076
G01 X63.8361 Y37.0173
G01 X63.8384 Y37.0268
G01 X63.8417 Y37.0360
G01 X63.8459 Y37.0449
G01 X63.8510 Y37.0533
G01 X63.8568 Y37.0612
G01 X63.8634 Y37.0685
G01 X67.3157 Y40.5207
G01 X67.3229 Y40.5273
G01 X67.3319 Y40.5338
G01 X67.3403 Y40.5388
G01 X67.3504 Y40.5433
G01 X67.3574 Y40.5457
G01 X67.3669 Y40.5481
G01 X67.3766 Y40.5495
G01 X67.3852 Y40.5500
G01 X67.5000 Y40.5500
G01 X67.5086 Y40.5495
G01 X67.5183 Y40.5481
G01 X67.5278 Y40.5457
G01 X67.5382 Y40.5419
G01 X67.5470 Y40.5376
G01 X67.5564 Y40.5318
G01 X67.5622 Y40.5273
G01 X67.5677 Y40.5224
G01 X67.5745 Y40.5153
G01 X67.5813 Y40.5066
G01 X67.5870 Y40.4972
G01 X67.5917 Y40.4871
G01 X67.5952 Y40.4767
G01 X67.5969 Y40.4695
G01 X67.5980 Y40.4622
G01 X67.5988 Y40.4512
G01 X67.5988 Y39.9299
G01 X67.6022 Y39.8956
G01 X67.6108 Y39.8673
G01 X67.6247 Y39.8413
G01 X67.6434 Y39.8184
G01 X67.6663 Y39.7997
G01 X67.6923 Y39.7858
G01 X67.7206 Y39.7772
G01 X67.7549 Y39.7738
G01 X68.1951 Y39.7738
G01 X68.2294 Y39.7772
G01 X68.2590 Y39.7862
G01 X68.2640 Y39.7883
G01 X68.2733 Y39.7914
G01 X68.2805 Y39.7931
G01 X68.2878 Y39.7942
G01 X68.3000 Y39.7950
G01 X68.3122 Y39.7942
G01 X68.3195 Y39.7931
G01 X68.3267 Y39.7914
G01 X68.3360 Y39.7883
G01 X68.3410 Y39.7862
G01 X68.3706 Y39.7772
G01 X68.4049 Y39.7738
G01 X68.8451 Y39.7738
G01 X68.8794 Y39.7772
G01 X68.9090 Y39.7862
G01 X68.9140 Y39.7883
G01 X68.9233 Y39.7914
G01 X68.9305 Y39.7931
G01 X68.9378 Y39.7942
G01 X68.9500 Y39.7950
G01 X68.9622 Y39.7942
G01 X68.9695 Y39.7931
G01 X68.9767 Y39.7914
G01 X68.9860 Y39.7883
G01 X68.9910 Y39.7862
G01 X69.0206 Y39.7772
G01 X69.0549 Y39.7738
G01 X69.4951 Y39.7738
G01 X69.5294 Y39.7772
G01 X69.5590 Y39.7862
G01 X69.5640 Y39.7883
G01 X69.5733 Y39.7914
G01 X69.5805 Y39.7931
G01 X69.5878 Y39.7942
G01 X69.6000 Y39.7950
G01 X69.6122 Y39.7942
G01 X69.6195 Y39.7931
G01 X69.6267 Y39.7914
G01 X69.6360 Y39.7883
G01 X69.6410 Y39.7862
G01 X69.6706 Y39.7772
G01 X69.7049 Y39.7738
G01 X70.1451 Y39.7738
G01 X70.1794 Y39.7772
G01 X70.2090 Y39.7862
G01 X70.2140 Y39.7883
G01 X70.2233 Y39.7914
G01 X70.2305 Y39.7931
G01 X70.2378 Y39.7942
G01 X70.2500 Y39.7950
G01 X70.2622 Y39.7942
G01 X70.2695 Y39.7931
G01 X70.2767 Y39.7914
G01 X70.2860 Y39.7883
G01 X70.2910 Y39.7862
G01 X70.3206 Y39.7772
G01 X70.3549 Y39.7738
G01 X70.7951 Y39.7738
G01 X70.8294 Y39.7772
G01 X70.8590 Y39.7862
G01 X70.8640 Y39.7883
G01 X70.8733 Y39.7914
G01 X70.8805 Y39.7931
G01 X70.8878 Y39.7942
G01 X70.9000 Y39.7950
G01 X70.9122 Y39.7942
G01 X70.9195 Y39.7931
G01 X70.9267 Y39.7914
G01 X70.9360 Y39.7883
G01 X70.9410 Y39.7862
G01 X70.9706 Y39.7772
G01 X71.0049 Y39.7738
G01 X71.4451 Y39.7738
G01 X71.4794 Y39.7772
G01 X71.5090 Y39.7862
G01 X71.5140 Y39.7883
G01 X71.5233 Y39.7914
G01 X71.5305 Y39.7931
G01 X71.5378 Y39.7942
G01 X71.5500 Y39.7950
G01 X71.5622 Y39.7942
G01 X71.5695 Y39.7931
G01 X71.5767 Y39.7914
G01 X71.5860 Y39.7883
G01 X71.5910 Y39.7862
G01 X71.6206 Y39.7772
G01 X71.6549 Y39.7738
G01 X72.0951 Y39.7738
G01 X72.1294 Y39.7772
G01 X72.1590 Y39.7862
G01 X72.1640 Y39.7883
G01 X72.1733 Y39.7914
G01 X72.1805 Y39.7931
G01 X72.1878 Y39.7942
G01 X72.2000 Y39.7950
G01 X72.2122 Y39.7942
G01 X72.2195 Y39.7931
G01 X72.2267 Y39.7914
G01 X72.2360 Y39.7883
G01 X72.2410 Y39.7862
G01 X72.2706 Y39.7772
G01 X72.3049 Y39.7738
G01 X72.7451 Y39.7738
G01 X72.7794 Y39.7772
G01 X72.8090 Y39.7862
G01 X72.8140 Y39.7883
G01 X72.8233 Y39.7914
G01 X72.8305 Y39.7931
G01 X72.8378 Y39.7942
G01 X72.8500 Y39.7950
G01 X72.8622 Y39.7942
G01 X72.8695 Y39.7931
G01 X72.8767 Y39.7914
G01 X72.8860 Y39.7883
G01 X72.8910 Y39.7862
G01 X72.9206 Y39.7772
G01 X72.9549 Y39.7738
G01 X73.3951 Y39.7738
G01 X73.4294 Y39.7772
G01 X73.4590 Y39.7862
G01 X73.4640 Y39.7883
G01 X73.4733 Y39.7914
G01 X73.4805 Y39.7931
G01 X73.4878 Y39.7942
G01 X73.5000 Y39.7950
G01 X73.5122 Y39.7942
G01 X73.5195 Y39.7931
G01 X73.5267 Y39.7914
G01 X73.5360 Y39.7883
G01 X73.5410 Y39.7862
G01 X73.5706 Y39.7772
G01 X73.6049 Y39.7738
G01 X74.0451 Y39.7738
G01 X74.0794 Y39.7772
G01 X74.1077 Y39.7858
G01 X74.1337 Y39.7997
G01 X74.1566 Y39.8184
G01 X74.1753 Y39.8413
G01 X74.1892 Y39.8673
G01 X74.1978 Y39.8956
G01 X74.2012 Y39.9299
G01 X74.2012 Y40.1000
G01 X74.2017 Y40.1098
G01 X74.2034 Y40.1207
G01 X74.2063 Y40.1314
G01 X74.2088 Y40.1383
G01 X74.2119 Y40.1450
G01 X74.2174 Y40.1545
G01 X74.2239 Y40.1635
G01 X74.2323 Y40.1724
G01 X74.2378 Y40.1773
G01 X74.2436 Y40.1818
G01 X74.2530 Y40.1876
G01 X74.2629 Y40.1924
G01 X74.2722 Y40.1957
G01 X74.2817 Y40.1981
G01 X74.2914 Y40.1995
G01 X74.3000 Y40.2000
G01 X74.5887 Y40.2000
G01 X74.5973 Y40.1996
G01 X74.6157 Y40.1978
G01 X74.7039 Y40.2065
G01 X74.7635 Y40.2246
G01 X74.7718 Y40.2267
G01 X74.7851 Y40.2286
G01 X74.7925 Y40.2289
G01 X74.8023 Y40.2284
G01 X74.8120 Y40.2270
G01 X74.8215 Y40.2246
G01 X74.8308 Y40.2213
G01 X74.8396 Y40.2171
G01 X74.8481 Y40.2121
G01 X74.8559 Y40.2062
G01 X74.8632 Y40.1996
G01 X74.8682 Y40.1942
G01 X74.8770 Y40.1824
G01 X74.8813 Y40.1749
G01 X74.8858 Y40.1649
G01 X74.8885 Y40.1567
G01 X74.8908 Y40.1472
G01 X74.8920 Y40.1387
G01 X74.8925 Y40.1277
G01 X74.8920 Y40.1191
G01 X74.8906 Y40.1094
G01 X74.8882 Y40.0998
G01 X74.8849 Y40.0906
G01 X74.8807 Y40.0817
G01 X74.8757 Y40.0733
G01 X74.8698 Y40.0654
G01 X74.8632 Y40.0582
G01 X71.0526 Y36.2476
G01 X71.0454 Y36.2410
G01 X71.0395 Y36.2366
G01 X71.0280 Y36.2295
G01 X71.0202 Y36.2259
G01 X71.0121 Y36.2230
G01 X70.9990 Y36.2198
G01 X70.9893 Y36.2186
G01 X70.9819 Y36.2183
G01 X70.9746 Y36.2186
G01 X70.9636 Y36.2200
G01 X70.9529 Y36.2226
G01 X70.9425 Y36.2264
G01 X70.9326 Y36.2313
G01 X70.9263 Y36.2351
G01 X70.9204 Y36.2395
G01 X70.9121 Y36.2467
G01 X70.9046 Y36.2549
G01 X70.8974 Y36.2648
G01 X70.8937 Y36.2712
G01 X70.8674 Y36.3204
G01 X70.8237 Y36.3737
G01 X70.8132 Y36.3823
G01 X70.8068 Y36.3881
G01 X68.8631 Y38.3318
G01 X68.8573 Y38.3382
G01 X68.8487 Y38.3487
G01 X68.7954 Y38.3924
G01 X68.7346 Y38.4249
G01 X68.6686 Y38.4449
G01 X68.6000 Y38.4517
G01 X68.5865 Y38.4504
G01 X68.5779 Y38.4500
G01 X67.5960 Y38.4500
G01 X67.5862 Y38.4505
G01 X67.5789 Y38.4515
G01 X67.5670 Y38.4543
G01 X67.5577 Y38.4576
G01 X67.5510 Y38.4607
G01 X67.5404 Y38.4668
G01 X67.5307 Y38.4743
G01 X67.5253 Y38.4793
G01 X67.5195 Y38.4856
G01 X67.5128 Y38.4944
G01 X67.5078 Y38.5028
G01 X67.5041 Y38.5106
G01 X67.4975 Y38.5263
G01 X67.3991 Y38.6737
G01 X67.2737 Y38.7991
G01 X67.1263 Y38.8975
G01 X66.9625 Y38.9654
G01 X66.7886 Y39.0000
G01 X66.6114 Y39.0000
G01 X66.4375 Y38.9654
G01 X66.2737 Y38.8975
G01 X66.1263 Y38.7991
G01 X66.0009 Y38.6737
G01 X65.9025 Y38.5263
G01 X65.8346 Y38.3625
G01 X65.8000 Y38.1886
G01 X65.8000 Y38.0114
G01 X65.8346 Y37.8375
G01 X65.9025 Y37.6737
G01 X66.0009 Y37.5263
G01 X66.1263 Y37.4009
G01 X66.2737 Y37.3025
G01 X66.4375 Y37.2346
G01 X66.6114 Y37.2000
G01 X66.7886 Y37.2000
G01 X66.9625 Y37.2346
G01 X67.1263 Y37.3025
G01 X67.2737 Y37.4009
G01 X67.3991 Y37.5263
G01 X67.4975 Y37.6737
G01 X67.5072 Y37.6961
G01 X67.5122 Y37.7045
G01 X67.5172 Y37.7115
G01 X67.5261 Y37.7216
G01 X67.5325 Y37.7273
G01 X67.5394 Y37.7325
G01 X67.5499 Y37.7388
G01 X67.5577 Y37.7424
G01 X67.5646 Y37.7449
G01 X67.5777 Y37.7483
G01 X67.5862 Y37.7495
G01 X67.5960 Y37.7500
G01 X68.4136 Y37.7500
G01 X68.4234 Y37.7495
G01 X68.4319 Y37.7483
G01 X68.4450 Y37.7449
G01 X68.4519 Y37.7424
G01 X68.4608 Y37.7382
G01 X68.4712 Y37.7318
G01 X68.4771 Y37.7273
G01 X68.4835 Y37.7216
G01 X69.2852 Y36.9198
G01 X69.2909 Y36.9135
G01 X69.2954 Y36.9076
G01 X69.3018 Y36.8972
G01 X69.3060 Y36.8883
G01 X69.3086 Y36.8814
G01 X69.3117 Y36.8695
G01 X69.3133 Y36.8574
G01 X69.3136 Y36.8500
G01 X69.3131 Y36.8402
G01 X69.3112 Y36.8281
G01 X69.3093 Y36.8210
G01 X69.3065 Y36.8129
G01 X69.3006 Y36.8007
G01 X69.2968 Y36.7944
G01 X69.2909 Y36.7865
G01 X69.2826 Y36.7776
G01 X69.2771 Y36.7727
G01 X69.2692 Y36.7668
G01 X69.2608 Y36.7618
G01 X69.2541 Y36.7586
G01 X69.2426 Y36.7543
G01 X69.2307 Y36.7515
G01 X69.2234 Y36.7505
G01 X69.2148 Y36.7500
G01 X66.3960 Y36.7500
G01 X66.3850 Y36.7506
G01 X66.3765 Y36.7519
G01 X66.3670 Y36.7543
G01 X66.3577 Y36.7576
G01 X66.3488 Y36.7618
G01 X66.3404 Y36.7668
G01 X66.3325 Y36.7727
G01 X66.3253 Y36.7793
G01 X66.3203 Y36.7847
G01 X66.3135 Y36.7934
G01 X66.3078 Y36.8028
G01 X66.3041 Y36.8106
G01 X66.2975 Y36.8263
G01 X66.1991 Y36.9737
G01 X66.0737 Y37.0991
G01 X65.9263 Y37.1975
G01 X65.7625 Y37.2654
G01 X65.5886 Y37.3000
G01 X65.4114 Y37.3000
G01 X65.2375 Y37.2654
G01 X65.0737 Y37.1975
G01 X64.9263 Y37.0991
G01 X64.8009 Y36.9737
G01 X64.7025 Y36.8263
G01 X64.6346 Y36.6625
G01 X64.6000 Y36.4886
G01 X64.6000 Y36.3114
G01 X64.6346 Y36.1375
G01 X64.7025 Y35.9737
G01 X64.8009 Y35.8263
G01 X64.9263 Y35.7009
G01 X65.0737 Y35.6025
G01 X65.2375 Y35.5346
G01 X65.4114 Y35.5000
G01 X65.5886 Y35.5000
G01 X65.7625 Y35.5346
G01 X65.9263 Y35.6025
G01 X66.0737 Y35.7009
G01 X66.1991 Y35.8263
G01 X66.2975 Y35.9737
G01 X66.3041 Y35.9894
G01 X66.3078 Y35.9972
G01 X66.3128 Y36.0056
G01 X66.3195 Y36.0144
G01 X66.3253 Y36.0207
G01 X66.3325 Y36.0273
G01 X66.3404 Y36.0332
G01 X66.3478 Y36.0376
G01 X66.3566 Y36.0419
G01 X66.3646 Y36.0449
G01 X66.3789 Y36.0485
G01 X66.3862 Y36.0495
G01 X66.3960 Y36.0500
G01 X69.2136 Y36.0500
G01 X69.2234 Y36.0495
G01 X69.2331 Y36.0481
G01 X69.2426 Y36.0457
G01 X69.2496 Y36.0433
G01 X69.2629 Y36.0370
G01 X69.2702 Y36.0325
G01 X69.2780 Y36.0265
G01 X69.2843 Y36.0207
G01 X69.5081 Y35.7969
G01 X69.5147 Y35.7897
G01 X69.5206 Y35.7818
G01 X69.5244 Y35.7755
G01 X69.5298 Y35.7645
G01 X69.5331 Y35.7552
G01 X69.5350 Y35.7481
G01 X69.5369 Y35.7360
G01 X69.5374 Y35.7238
G01 X69.5369 Y35.7164
G01 X69.5355 Y35.7067
G01 X69.5331 Y35.6972
G01 X69.5307 Y35.6902
G01 X69.5256 Y35.6791
G01 X69.5199 Y35.6696
G01 X69.5131 Y35.6609
G01 X69.5081 Y35.6555
G01 X69.5027 Y35.6505
G01 X69.4930 Y35.6430
G01 X69.4835 Y35.6374
G01 X69.4734 Y35.6329
G01 X69.4664 Y35.6305
G01 X69.4593 Y35.6286
G01 X69.4484 Y35.6268
G01 X69.4374 Y35.6262
G01 X69.0549 Y35.6262
G01 X69.0206 Y35.6228
G01 X68.9910 Y35.6138
G01 X68.9860 Y35.6117
G01 X68.9767 Y35.6086
G01 X68.9695 Y35.6069
G01 X68.9622 Y35.6058
G01 X68.9512 Y35.6050
G01 X68.9402 Y35.6055
G01 X68.9281 Y35.6075
G01 X68.9210 Y35.6093
G01 X68.9090 Y35.6138
G01 X68.8794 Y35.6228
G01 X68.8451 Y35.6262
G01 X68.4049 Y35.6262
G01 X68.3706 Y35.6228
G01 X68.3410 Y35.6138
G01 X68.3360 Y35.6117
G01 X68.3267 Y35.6086
G01 X68.3195 Y35.6069
G01 X68.3122 Y35.6058
G01 X68.3000 Y35.6050
G01 X68.2878 Y35.6058
G01 X68.2805 Y35.6069
G01 X68.2733 Y35.6086
G01 X68.2640 Y35.6117
G01 X68.2590 Y35.6138
G01 X68.2294 Y35.6228
G01 X68.1951 Y35.6262
G01 X67.7549 Y35.6262
G01 X67.7206 Y35.6228
G01 X67.6923 Y35.6142
G01 X67.6663 Y35.6003
G01 X67.6434 Y35.5816
G01 X67.6247 Y35.5587
G01 X67.6108 Y35.5327
G01 X67.6022 Y35.5044
G01 X67.5988 Y35.4701
G01 X67.5988 Y35.2000
G01 X67.5983 Y35.1902
G01 X67.5966 Y35.1793
G01 X67.5945 Y35.1710
G01 X67.5917 Y35.1629
G01 X67.5858 Y35.1507
G01 X67.5820 Y35.1444
G01 X67.5761 Y35.1365
G01 X67.5695 Y35.1293
G01 X67.5641 Y35.1243
G01 X67.5533 Y35.1162
G01 X67.5459 Y35.1118
G01 X67.5382 Y35.1081
G01 X67.5255 Y35.1036
G01 X67.5183 Y35.1019
G01 X67.5086 Y35.1005
G01 X67.4988 Y35.1000
G01 X63.5921 Y35.1000
G01 X63.5835 Y35.1004
G01 X63.5700 Y35.1017
G01 X63.5014 Y35.0949
G01 X63.4354 Y35.0749
G01 X63.3746 Y35.0424
G01 X63.3530 Y35.0251
G01 X63.3415 Y35.0180
G01 X63.3314 Y35.0135
G01 X63.3245 Y35.0111
G01 X63.3174 Y35.0093
G01 X63.3065 Y35.0074
G01 X63.2967 Y35.0068
G01 X63.2869 Y35.0072
G01 X63.2784 Y35.0083
G01 X63.2653 Y35.0115
G01 X63.2572 Y35.0144
G01 X63.1917 Y35.0415
G01 X62.9985 Y35.0800
G01 X62.8015 Y35.0800
G01 X62.6083 Y35.0415
G01 X62.4263 Y34.9662
G01 X62.2626 Y34.8567
G01 X62.1233 Y34.7174
G01 X62.0138 Y34.5537
G01 X61.9385 Y34.3717
G01 X61.9000 Y34.1785
G01 X61.9000 Y33.9815
G01 X61.9385 Y33.7883
G01 X62.0138 Y33.6063
G01 X62.1233 Y33.4426
G01 X62.2626 Y33.3033
G01 X62.4263 Y33.1938
G01 X62.6083 Y33.1185
G01 X62.8015 Y33.0800
G01 X62.9985 Y33.0800
G01 X63.1917 Y33.1185
G01 X63.3737 Y33.1938
G01 X63.5374 Y33.3033
G01 X63.6767 Y33.4426
G01 X63.7862 Y33.6063
G01 X63.8615 Y33.7883
G01 X63.9000 Y33.9815
G01 X63.9000 Y34.1785
G01 X63.8797 Y34.2805
G01 X63.8785 Y34.2878
G01 X63.8778 Y34.3012
G01 X63.8782 Y34.3098
G01 X63.8795 Y34.3183
G01 X63.8828 Y34.3314
G01 X63.8854 Y34.3383
G01 X63.8896 Y34.3472
G01 X63.8946 Y34.3556
G01 X63.8997 Y34.3625
G01 X63.9088 Y34.3724
G01 X63.9143 Y34.3773
G01 X63.9222 Y34.3832
G01 X63.9306 Y34.3882
G01 X63.9373 Y34.3914
G01 X63.9499 Y34.3961
G01 X63.9583 Y34.3981
G01 X63.9668 Y34.3994
G01 X63.9778 Y34.4000
G01 X67.4988 Y34.4000
G01 X67.5086 Y34.3995
G01 X67.5159 Y34.3985
G01 X67.5290 Y34.3953
G01 X67.5371 Y34.3924
G01 X67.5438 Y34.3893
G01 X67.5544 Y34.3832
G01 X67.5641 Y34.3757
G01 X67.5695 Y34.3707
G01 X67.5753 Y34.3644
G01 X67.5826 Y34.3545
G01 X67.5870 Y34.3472
G01 X67.5902 Y34.3405
G01 X67.5949 Y34.3279
G01 X67.5969 Y34.3195
G01 X67.5980 Y34.3122
G01 X67.5988 Y34.3012
G01 X67.5988 Y34.0299
G01 X67.6022 Y33.9956
G01 X67.6108 Y33.9673
G01 X67.6247 Y33.9413
G01 X67.6434 Y33.9184
G01 X67.6663 Y33.8997
G01 X67.6923 Y33.8858
G01 X67.7206 Y33.8772
G01 X67.7549 Y33.8738
G01 X68.0336 Y33.8738
G01 X68.0422 Y33.8733
G01 X68.0495 Y33.8723
G01 X68.0614 Y33.8695
G01 X68.0707 Y33.8662
G01 X68.0785 Y33.8626
G01 X68.0900 Y33.8555
G01 X68.0959 Y33.8511
G01 X68.1031 Y33.8445
G01 X68.1097 Y33.8372
G01 X68.1156 Y33.8294
G01 X68.1206 Y33.8209
G01 X68.1243 Y33.8132
G01 X68.1288 Y33.8005
G01 X68.1305 Y33.7933
G01 X68.1319 Y33.7836
G01 X68.1324 Y33.7738
G01 X68.1319 Y33.7640
G01 X68.1305 Y33.7543
G01 X68.1281 Y33.7448
G01 X68.1248 Y33.7355
G01 X68.1217 Y33.7288
G01 X68.1149 Y33.7172
G01 X68.1097 Y33.7103
G01 X68.1031 Y33.7031
G01 X66.3193 Y31.9193
G01 X66.3101 Y31.9112
G01 X66.3042 Y31.9068
G01 X66.2958 Y31.9018
G01 X66.2846 Y31.8967
G01 X66.2776 Y31.8943
G01 X66.2693 Y31.8922
G01 X66.2584 Y31.8905
G01 X66.2486 Y31.8900
G01 X63.9042 Y31.8900
G01 X63.8920 Y31.8908
G01 X63.8847 Y31.8919
G01 X63.8752 Y31.8943
G01 X63.8660 Y31.8976
G01 X63.8571 Y31.9018
G01 X63.8487 Y31.9068
G01 X63.8408 Y31.9127
G01 X63.8335 Y31.9193
G01 X63.8269 Y31.9265
G01 X63.8198 Y31.9365
G01 X63.8160 Y31.9428
G01 X63.8128 Y31.9495
G01 X63.7862 Y32.0137
G01 X63.6767 Y32.1774
G01 X63.5374 Y32.3167
G01 X63.3737 Y32.4262
G01 X63.1917 Y32.5015
G01 X62.9985 Y32.5400
G01 X62.8015 Y32.5400
G01 X62.6083 Y32.5015
G01 X62.4263 Y32.4262
G01 X62.2626 Y32.3167
G01 X62.1233 Y32.1774
G01 X62.0138 Y32.0137
G01 X61.9385 Y31.8317
G01 X61.9000 Y31.6385
G01 X61.9000 Y31.4415
G01 X61.9385 Y31.2483
G01 X62.0138 Y31.0663
G01 X62.1233 Y30.9026
G01 X62.2626 Y30.7633
G01 X62.4263 Y30.6538
G01 X62.6083 Y30.5785
G01 X62.8015 Y30.5400
G01 X62.9985 Y30.5400
G01 X63.1917 Y30.5785
G01 X63.3737 Y30.6538
G01 X63.5374 Y30.7633
G01 X63.6767 Y30.9026
G01 X63.7862 Y31.0663
G01 X63.8128 Y31.1305
G01 X63.8160 Y31.1372
G01 X63.8198 Y31.1435
G01 X63.8269 Y31.1535
G01 X63.8335 Y31.1607
G01 X63.8408 Y31.1673
G01 X63.8487 Y31.1732
G01 X63.8549 Y31.1770
G01 X63.8671 Y31.1829
G01 X63.8752 Y31.1857
G01 X63.8847 Y31.1881
G01 X63.8944 Y31.1895
G01 X63.9042 Y31.1900
G01 X66.4129 Y31.1900
G01 X66.4215 Y31.1896
G01 X66.4350 Y31.1883
G01 X66.5036 Y31.1951
G01 X66.5696 Y31.2151
G01 X66.6304 Y31.2476
G01 X66.6837 Y31.2913
G01 X66.6923 Y31.3018
G01 X66.6981 Y31.3082
G01 X68.7543 Y33.3643
G01 X68.7635 Y33.3724
G01 X68.7694 Y33.3768
G01 X68.7778 Y33.3818
G01 X68.7890 Y33.3869
G01 X68.7960 Y33.3893
G01 X68.8055 Y33.3917
G01 X68.8152 Y33.3931
G01 X68.8250 Y33.3936
G01 X68.8348 Y33.3931
G01 X68.8445 Y33.3917
G01 X68.8540 Y33.3893
G01 X68.8633 Y33.3860
G01 X68.8722 Y33.3818
G01 X68.8806 Y33.3768
G01 X68.8885 Y33.3709
G01 X68.8957 Y33.3643
G01 X68.9023 Y33.3571
G01 X68.9082 Y33.3492
G01 X68.9132 Y33.3408
G01 X68.9174 Y33.3319
G01 X68.9207 Y33.3226
G01 X68.9231 Y33.3131
G01 X68.9245 Y33.3034
G01 X68.9250 Y33.2936
G01 X68.9250 Y32.8614
G01 X68.9245 Y32.8516
G01 X68.9231 Y32.8419
G01 X68.9207 Y32.8324
G01 X68.9183 Y32.8254
G01 X68.9138 Y32.8153
G01 X68.9088 Y32.8069
G01 X68.9023 Y32.7979
G01 X68.8957 Y32.7907
G01 X65.4843 Y29.3793
G01 X65.4771 Y29.3727
G01 X65.4692 Y29.3668
G01 X65.4608 Y29.3618
G01 X65.4541 Y29.3586
G01 X65.4438 Y29.3547
G01 X65.4343 Y29.3522
G01 X65.4234 Y29.3505
G01 X65.4136 Y29.3500
G01 X63.9042 Y29.3500
G01 X63.8920 Y29.3508
G01 X63.8847 Y29.3519
G01 X63.8776 Y29.3536
G01 X63.8637 Y29.3586
G01 X63.8560 Y29.3624
G01 X63.8477 Y29.3675
G01 X63.8408 Y29.3727
G01 X63.8335 Y29.3793
G01 X63.8269 Y29.3865
G01 X63.8218 Y29.3934
G01 X63.8160 Y29.4028
G01 X63.8123 Y29.4106
G01 X63.7862 Y29.4737
G01 X63.6767 Y29.6374
G01 X63.5374 Y29.7767
G01 X63.3737 Y29.8862
G01 X63.1917 Y29.9615
G01 X62.9985 Y30.0000
G01 X62.8015 Y30.0000
G01 X62.6083 Y29.9615
G01 X62.4263 Y29.8862
G01 X62.2626 Y29.7767
G01 X62.1233 Y29.6374
G01 X62.0138 Y29.4737
G01 X61.9385 Y29.2917
G01 X61.9000 Y29.0985
G01 X61.9000 Y28.9015
G01 X61.9385 Y28.7083
G01 X62.0138 Y28.5263
G01 X62.1233 Y28.3626
G01 X62.2626 Y28.2233
G01 X62.4263 Y28.1138
G01 X62.6083 Y28.0385
G01 X62.8015 Y28.0000
G01 X62.9985 Y28.0000
G01 X63.1917 Y28.0385
G01 X63.3737 Y28.1138
G01 X63.5374 Y28.2233
G01 X63.6767 Y28.3626
G01 X63.7862 Y28.5263
G01 X63.8123 Y28.5894
G01 X63.8160 Y28.5972
G01 X63.8218 Y28.6066
G01 X63.8269 Y28.6135
G01 X63.8335 Y28.6207
G01 X63.8408 Y28.6273
G01 X63.8477 Y28.6325
G01 X63.8560 Y28.6376
G01 X63.8637 Y28.6414
G01 X63.8776 Y28.6464
G01 X63.8847 Y28.6481
G01 X63.8920 Y28.6492
G01 X63.9042 Y28.6500
G01 X65.5779 Y28.6500
G01 X65.5865 Y28.6496
G01 X65.6000 Y28.6483
G01 X65.6686 Y28.6551
G01 X65.7346 Y28.6751
G01 X65.7954 Y28.7076
G01 X65.8487 Y28.7513
G01 X65.8573 Y28.7618
G01 X65.8631 Y28.7682
G01 X69.5068 Y32.4119
G01 X69.5132 Y32.4177
G01 X69.5237 Y32.4263
G01 X69.5674 Y32.4796
G01 X69.5999 Y32.5404
G01 X69.6199 Y32.6064
G01 X69.6267 Y32.6750
G01 X69.6254 Y32.6885
G01 X69.6250 Y32.6971
G01 X69.6250 Y33.7738
G01 X69.6255 Y33.7836
G01 X69.6269 Y33.7933
G01 X69.6293 Y33.8028
G01 X69.6326 Y33.8121
G01 X69.6357 Y33.8188
G01 X69.6425 Y33.8304
G01 X69.6477 Y33.8372
G01 X69.6543 Y33.8445
G01 X69.6615 Y33.8511
G01 X69.6694 Y33.8570
G01 X69.6778 Y33.8620
G01 X69.6845 Y33.8652
G01 X69.6971 Y33.8699
G01 X69.7055 Y33.8719
G01 X69.7152 Y33.8733
G01 X69.7250 Y33.8738
G01 X70.1451 Y33.8738
G01 X70.1794 Y33.8772
G01 X70.2090 Y33.8862
G01 X70.2140 Y33.8883
G01 X70.2233 Y33.8914
G01 X70.2305 Y33.8931
G01 X70.2378 Y33.8942
G01 X70.2500 Y33.8950
G01 X70.2622 Y33.8942
G01 X70.2695 Y33.8931
G01 X70.2767 Y33.8914
G01 X70.2860 Y33.8883
G01 X70.2910 Y33.8862
G01 X70.3206 Y33.8772
G01 X70.3549 Y33.8738
G01 X70.7750 Y33.8738
G01 X70.7824 Y33.8735
G01 X70.7945 Y33.8719
G01 X70.8064 Y33.8687
G01 X70.8133 Y33.8662
G01 X70.8211 Y33.8626
G01 X70.8326 Y33.8555
G01 X70.8385 Y33.8511
G01 X70.8448 Y33.8454
G01 X70.8531 Y33.8363
G01 X70.8582 Y33.8294
G01 X70.8620 Y33.8231
G01 X70.8679 Y33.8109
G01 X70.8707 Y33.8028
G01 X70.8731 Y33.7933
G01 X70.8745 Y33.7836
G01 X70.8750 Y33.7738
G01 X70.8750 Y30.7940
G01 X70.8745 Y30.7841
G01 X70.8735 Y30.7769
G01 X70.8699 Y30.7626
G01 X70.8669 Y30.7545
G01 X70.8626 Y30.7457
G01 X70.8582 Y30.7384
G01 X70.8523 Y30.7305
G01 X70.8457 Y30.7232
G01 X70.8385 Y30.7166
G01 X70.8306 Y30.7108
G01 X70.8222 Y30.7057
G01 X70.8133 Y30.7015
G01 X70.8064 Y30.6990
G01 X70.7921 Y30.6954
G01 X70.7836 Y30.6943
G01 X70.7738 Y30.6939
G01 X70.7652 Y30.6944
G01 X70.7555 Y30.6959
G01 X70.7460 Y30.6982
G01 X70.7356 Y30.7020
G01 X70.7278 Y30.7057
G01 X70.7191 Y30.7110
G01 X70.6262 Y30.7607
G01 X70.5276 Y30.7906
G01 X70.4201 Y30.8012
G01 X69.1799 Y30.8012
G01 X69.0724 Y30.7906
G01 X68.9738 Y30.7607
G01 X68.8829 Y30.7121
G01 X68.8033 Y30.6467
G01 X68.7379 Y30.5671
G01 X68.6893 Y30.4762
G01 X68.6594 Y30.3776
G01 X68.6488 Y30.2701
G01 X68.6488 Y29.5299
G01 X68.6594 Y29.4224
G01 X68.6893 Y29.3238
G01 X68.7379 Y29.2329
G01 X68.8033 Y29.1533
G01 X68.8829 Y29.0879
G01 X68.9738 Y29.0393
G01 X69.0724 Y29.0094
G01 X69.1799 Y28.9988
G01 X70.4201 Y28.9988
G01 X70.5276 Y29.0094
G01 X70.6262 Y29.0393
G01 X70.7171 Y29.0879
G01 X70.7967 Y29.1533
G01 X70.8621 Y29.2329
G01 X70.9107 Y29.3238
G01 X70.9406 Y29.4224
G01 X70.9516 Y29.5338
G01 X70.9533 Y29.5447
G01 X70.9562 Y29.5554
G01 X70.9587 Y29.5623
G01 X70.9618 Y29.5690
G01 X70.9673 Y29.5786
G01 X70.9731 Y29.5866
G01 X70.9805 Y29.5948
G01 X70.9868 Y29.6006
G01 X71.0487 Y29.6513
G01 X71.0573 Y29.6618
G01 X71.0631 Y29.6682
G01 X71.1543 Y29.7593
G01 X71.1615 Y29.7659
G01 X71.1694 Y29.7718
G01 X71.1768 Y29.7762
G01 X71.1890 Y29.7819
G01 X71.1960 Y29.7843
G01 X71.2055 Y29.7867
G01 X71.2152 Y29.7881
G01 X71.2225 Y29.7886
G01 X71.2372 Y29.7878
G01 X71.2457 Y29.7865
G01 X71.2552 Y29.7840
G01 X71.2633 Y29.7810
G01 X71.2722 Y29.7768
G01 X71.2806 Y29.7718
G01 X71.2875 Y29.7667
G01 X71.2957 Y29.7593
G01 X71.3869 Y29.6682
G01 X71.3927 Y29.6618
G01 X71.4013 Y29.6513
G01 X71.4546 Y29.6076
G01 X71.5154 Y29.5751
G01 X71.5844 Y29.5542
G01 X71.5947 Y29.5504
G01 X71.6025 Y29.5467
G01 X71.6109 Y29.5416
G01 X71.6188 Y29.5358
G01 X71.6243 Y29.5309
G01 X71.6327 Y29.5219
G01 X71.6392 Y29.5130
G01 X71.6436 Y29.5056
G01 X71.6468 Y29.4990
G01 X71.6511 Y29.4875
G01 X71.6534 Y29.4780
G01 X71.6548 Y29.4695
G01 X71.6594 Y29.4224
G01 X71.6893 Y29.3238
G01 X71.7379 Y29.2329
G01 X71.8033 Y29.1533
G01 X71.8829 Y29.0879
G01 X71.9738 Y29.0393
G01 X72.0724 Y29.0094
G01 X72.1799 Y28.9988
G01 X73.4201 Y28.9988
G01 X73.5276 Y29.0094
G01 X73.6262 Y29.0393
G01 X73.7171 Y29.0879
G01 X73.7967 Y29.1533
G01 X73.8621 Y29.2329
G01 X73.9107 Y29.3238
G01 X73.9406 Y29.4224
G01 X73.9512 Y29.5299
G01 X73.9512 Y30.2701
G01 X73.9406 Y30.3776
G01 X73.9107 Y30.4762
G01 X73.8621 Y30.5671
G01 X73.7967 Y30.6467
G01 X73.7171 Y30.7121
G01 X73.6262 Y30.7607
G01 X73.5276 Y30.7906
G01 X73.4201 Y30.8012
G01 X72.1799 Y30.8012
G01 X72.0724 Y30.7906
G01 X71.9738 Y30.7607
G01 X71.8829 Y30.7121
G01 X71.8033 Y30.6467
G01 X71.7515 Y30.5837
G01 X71.7457 Y30.5774
G01 X71.7403 Y30.5724
G01 X71.7316 Y30.5656
G01 X71.7232 Y30.5605
G01 X71.7133 Y30.5557
G01 X71.7052 Y30.5527
G01 X71.6957 Y30.5502
G01 X71.6872 Y30.5489
G01 X71.6725 Y30.5481
G01 X71.6652 Y30.5485
G01 X71.6555 Y30.5500
G01 X71.6460 Y30.5524
G01 X71.6367 Y30.5557
G01 X71.6278 Y30.5599
G01 X71.6194 Y30.5649
G01 X71.6115 Y30.5708
G01 X71.6051 Y30.5765
G01 X71.5985 Y30.5837
G01 X71.5932 Y30.5905
G01 X71.5857 Y30.6031
G01 X71.5826 Y30.6098
G01 X71.5801 Y30.6167
G01 X71.5774 Y30.6262
G01 X71.5756 Y30.6371
G01 X71.5750 Y30.6481
G01 X71.5750 Y33.7750
G01 X71.5755 Y33.7836
G01 X71.5769 Y33.7933
G01 X71.5793 Y33.8028
G01 X71.5826 Y33.8121
G01 X71.5868 Y33.8209
G01 X71.5918 Y33.8294
G01 X71.5977 Y33.8372
G01 X71.6026 Y33.8427
G01 X71.6106 Y33.8503
G01 X71.6174 Y33.8555
G01 X71.6300 Y33.8631
G01 X71.6379 Y33.8667
G01 X71.6471 Y33.8699
G01 X71.6555 Y33.8719
G01 X71.6664 Y33.8734
G01 X71.6750 Y33.8738
G01 X72.0750 Y33.8738
G01 X72.0824 Y33.8735
G01 X72.0969 Y33.8714
G01 X72.1052 Y33.8691
G01 X72.1144 Y33.8657
G01 X72.1222 Y33.8620
G01 X72.1306 Y33.8570
G01 X72.1385 Y33.8511
G01 X72.1457 Y33.8445
G01 X72.1523 Y33.8372
G01 X72.1582 Y33.8294
G01 X72.1632 Y33.8209
G01 X72.1664 Y33.8143
G01 X72.1714 Y33.8005
G01 X72.1733 Y33.7921
G01 X72.1746 Y33.7824
G01 X72.1750 Y33.7738
G01 X72.1750 Y33.4971
G01 X72.1746 Y33.4885
G01 X72.1733 Y33.4750
G01 X72.1801 Y33.4064
G01 X72.2001 Y33.3404
G01 X72.2326 Y33.2796
G01 X72.2763 Y33.2263
G01 X72.2868 Y33.2177
G01 X72.2932 Y33.2119
G01 X75.0369 Y30.4682
G01 X75.0427 Y30.4618
G01 X75.0513 Y30.4513
G01 X75.1046 Y30.4076
G01 X75.1654 Y30.3751
G01 X75.2314 Y30.3551
G01 X75.3000 Y30.3483
G01 X75.3135 Y30.3496
G01 X75.3221 Y30.3500
G01 X77.6562 Y30.3500
G01 X77.6672 Y30.3494
G01 X77.6781 Y30.3476
G01 X77.6852 Y30.3457
G01 X77.6922 Y30.3433
G01 X77.7022 Y30.3388
G01 X77.7117 Y30.3332
G01 X77.7206 Y30.3265
G01 X77.7286 Y30.3190
G01 X77.7335 Y30.3135
G01 X77.7379 Y30.3076
G01 X77.7432 Y30.2993
G01 X77.7490 Y30.2871
G01 X77.7519 Y30.2790
G01 X77.7543 Y30.2695
G01 X77.7557 Y30.2598
G01 X77.7594 Y30.2224
G01 X77.7893 Y30.1238
G01 X77.8379 Y30.0329
G01 X77.9033 Y29.9533
G01 X77.9829 Y29.8879
G01 X78.0738 Y29.8393
G01 X78.1724 Y29.8094
G01 X78.2799 Y29.7988
G01 X79.5201 Y29.7988
G01 X79.6276 Y29.8094
G01 X79.7262 Y29.8393
G01 X79.8171 Y29.8879
G01 X79.8967 Y29.9533
G01 X79.9621 Y30.0329
G01 X80.0107 Y30.1238
G01 X80.0406 Y30.2224
G01 X80.0512 Y30.3299
G01 X80.0512 Y31.0701
G01 X80.0406 Y31.1776
