(G-CODE GENERATED BY FLATCAM v8.992 - www.flatcam.org - Version Date: 2020/05/03)

(Name: MSP430G2553_array.drl_07_cnc)
(Type: G-code from Excellon)
(Units: MM)

(Created on Monday, 01 June 2020 at 16:32)

(This preprocessor is the default preprocessor used by FlatCAM.)
(It is made to work with MACH3 compatible motion controllers.)


(TOOLS DIAMETER: )
(Tool: 1 -> Dia: 0.7)
(Tool: 2 -> Dia: 1.0)
(Tool: 3 -> Dia: 0.7)
(Tool: 4 -> Dia: 0.9)

(FEEDRATE Z: )
(Tool: 1 -> Feedrate: 140.0)
(Tool: 2 -> Feedrate: 140.0)
(Tool: 3 -> Feedrate: 140.0)
(Tool: 4 -> Feedrate: 140.0)

(FEEDRATE RAPIDS: )
(Tool: 1 -> Feedrate Rapids: 1500)
(Tool: 2 -> Feedrate Rapids: 1500)
(Tool: 3 -> Feedrate Rapids: 1500)
(Tool: 4 -> Feedrate Rapids: 1500)

(Z_CUT: )
(Tool: 1 -> Z_Cut: -2.4)
(Tool: 2 -> Z_Cut: -2.4)
(Tool: 3 -> Z_Cut: -2.4)
(Tool: 4 -> Z_Cut: -2.4)

(Tools Offset: )
(Tool: 3 -> Offset Z: -0.0)

(Z_MOVE: )
(Tool: 1 -> Z_Move: 1.0)
(Tool: 2 -> Z_Move: 1.0)
(Tool: 3 -> Z_Move: 1.0)
(Tool: 4 -> Z_Move: 1.0)

(Z Start: None mm)
(Z End: 2.0 mm)
(Steps per circle: 64)
(Preprocessor Excellon: default)

(X range:   62.4000 ...   89.3500  mm)
(Y range:   28.5000 ...   87.3200  mm)

(Spindle Speed: 10000.0 RPM)
G21
G90
G94



G00 Z1.0000

G01 F140.00
M03 S10000
G4 P2.0
G00 X65.4000 Y84.1000
G01 Z-2.4000
G01 Z0
G00 Z1.0000
G00 X74.0000 Y74.8000
G01 Z-2.4000
G01 Z0
G00 Z1.0000
G00 X83.4040 Y76.2890
G01 Z-2.4000
G01 Z0
G00 Z1.0000
G00 X85.9000 Y76.6000
G01 Z-2.4000
G01 Z0
G00 Z1.0000
G00 X89.0000 Y76.3000
G01 Z-2.4000
G01 Z0
G00 Z1.0000
G00 X84.1000 Y70.1000
G01 Z-2.4000
G01 Z0
G00 Z1.0000
G00 X85.3000 Y68.4000
G01 Z-2.4000
G01 Z0
G00 Z1.0000
G00 X83.4040 Y44.2890
G01 Z-2.4000
G01 Z0
G00 Z1.0000
G00 X85.9000 Y44.6000
G01 Z-2.4000
G01 Z0
G00 Z1.0000
G00 X89.0000 Y44.3000
G01 Z-2.4000
G01 Z0
G00 Z1.0000
G00 X85.3000 Y36.4000
G01 Z-2.4000
G01 Z0
G00 Z1.0000
G00 X84.1000 Y38.1000
G01 Z-2.4000
G01 Z0
G00 Z1.0000
G00 X75.3000 Y34.8000
G01 Z-2.4000
G01 Z0
G00 Z1.0000
G00 X66.6000 Y37.1000
G01 Z-2.4000
G01 Z0
G00 Z1.0000
G00 X69.3000 Y40.7000
G01 Z-2.4000
G01 Z0
G00 Z1.0000
G00 X74.0000 Y42.8000
G01 Z-2.4000
G01 Z0
G00 Z1.0000
G00 X65.4000 Y52.1000
G01 Z-2.4000
G01 Z0
G00 Z1.0000
G00 X75.3000 Y66.8000
G01 Z-2.4000
G01 Z0
G00 Z1.0000
G00 X66.6000 Y69.1000
G01 Z-2.4000
G01 Z0
G00 Z1.0000
G00 X69.3000 Y72.7000
G01 Z-2.4000
G01 Z0
G00 Z1.0000
G01 F140.00
M03 S10000
G4 P2.0
G00 X78.9000 Y50.1750
G01 Z-2.4000
G01 Z0
G00 Z1.0000
G00 X78.9000 Y49.8250
G01 Z-2.4000
G01 Z0
G00 Z1.0000
G00 X81.1750 Y29.9000
G01 Z-2.4000
G01 Z0
G00 Z1.0000
G00 X80.8250 Y29.9000
G01 Z-2.4000
G01 Z0
G00 Z1.0000
G00 X81.9000 Y49.8250
G01 Z-2.4000
G01 Z0
G00 Z1.0000
G00 X81.9000 Y50.1750
G01 Z-2.4000
G01 Z0
G00 Z1.0000
G00 X84.9000 Y49.8250
G01 Z-2.4000
G01 Z0
G00 Z1.0000
G00 X84.9000 Y50.1750
G01 Z-2.4000
G01 Z0
G00 Z1.0000
G00 X87.9000 Y49.8250
G01 Z-2.4000
G01 Z0
G00 Z1.0000
G00 X87.9000 Y50.1750
G01 Z-2.4000
G01 Z0
G00 Z1.0000
G00 X81.1750 Y61.9000
G01 Z-2.4000
G01 Z0
G00 Z1.0000
G00 X80.8250 Y61.9000
G01 Z-2.4000
G01 Z0
G00 Z1.0000
G00 X87.9000 Y82.1750
G01 Z-2.4000
G01 Z0
G00 Z1.0000
G00 X87.9000 Y81.8250
G01 Z-2.4000
G01 Z0
G00 Z1.0000
G00 X84.9000 Y82.1750
G01 Z-2.4000
G01 Z0
G00 Z1.0000
G00 X84.9000 Y81.8250
G01 Z-2.4000
G01 Z0
G00 Z1.0000
G00 X81.9000 Y81.8250
G01 Z-2.4000
G01 Z0
G00 Z1.0000
G00 X81.9000 Y82.1750
G01 Z-2.4000
G01 Z0
G00 Z1.0000
G00 X78.9000 Y81.8250
G01 Z-2.4000
G01 Z0
G00 Z1.0000
G00 X78.9000 Y82.1750
G01 Z-2.4000
G01 Z0
G00 Z1.0000
G00 X75.9000 Y81.8250
G01 Z-2.4000
G01 Z0
G00 Z1.0000
G00 X75.9000 Y82.1750
G01 Z-2.4000
G01 Z0
G00 Z1.0000
G00 X72.9000 Y81.8250
G01 Z-2.4000
G01 Z0
G00 Z1.0000
G00 X72.9000 Y82.1750
G01 Z-2.4000
G01 Z0
G00 Z1.0000
G00 X69.9000 Y81.8250
G01 Z-2.4000
G01 Z0
G00 Z1.0000
G00 X69.9000 Y82.1750
G01 Z-2.4000
G01 Z0
G00 Z1.0000
G00 X66.9000 Y82.1750
G01 Z-2.4000
G01 Z0
G00 Z1.0000
G00 X66.9000 Y81.8250
G01 Z-2.4000
G01 Z0
G00 Z1.0000
G00 X66.9000 Y50.1750
G01 Z-2.4000
G01 Z0
G00 Z1.0000
G00 X66.9000 Y49.8250
G01 Z-2.4000
G01 Z0
G00 Z1.0000
G00 X69.9000 Y50.1750
G01 Z-2.4000
G01 Z0
G00 Z1.0000
G00 X69.9000 Y49.8250
G01 Z-2.4000
G01 Z0
G00 Z1.0000
G00 X72.9000 Y50.1750
G01 Z-2.4000
G01 Z0
G00 Z1.0000
G00 X72.9000 Y49.8250
G01 Z-2.4000
G01 Z0
G00 Z1.0000
G00 X75.9000 Y50.1750
G01 Z-2.4000
G01 Z0
G00 Z1.0000
G00 X75.9000 Y49.8250
G01 Z-2.4000
G01 Z0
G00 Z1.0000
M05
G00 Z2.00

