(G-CODE GENERATED BY FLATCAM v8.992 - www.flatcam.org - Version Date: 2020/05/03)

(Name: MSP430G2553_array.drl_07_cnc)
(Type: G-code from Excellon)
(Units: MM)

(Created on Sunday, 31 May 2020 at 17:19)

(This preprocessor is the default preprocessor used by FlatCAM.)
(It is made to work with MACH3 compatible motion controllers.)


(TOOLS DIAMETER: )
(Tool: 1 -> Dia: 0.7)
(Tool: 2 -> Dia: 1.0)
(Tool: 3 -> Dia: 1.1)
(Tool: 4 -> Dia: 0.7)
(Tool: 5 -> Dia: 0.9)

(FEEDRATE Z: )
(Tool: 1 -> Feedrate: 140.0)
(Tool: 2 -> Feedrate: 140.0)
(Tool: 3 -> Feedrate: 140.0)
(Tool: 4 -> Feedrate: 140.0)
(Tool: 5 -> Feedrate: 140.0)

(FEEDRATE RAPIDS: )
(Tool: 1 -> Feedrate Rapids: 1500)
(Tool: 2 -> Feedrate Rapids: 1500)
(Tool: 3 -> Feedrate Rapids: 1500)
(Tool: 4 -> Feedrate Rapids: 1500)
(Tool: 5 -> Feedrate Rapids: 1500)

(Z_CUT: )
(Tool: 1 -> Z_Cut: -2.2)
(Tool: 2 -> Z_Cut: -2.2)
(Tool: 3 -> Z_Cut: -2.2)
(Tool: 4 -> Z_Cut: -2.2)
(Tool: 5 -> Z_Cut: -2.2)

(Tools Offset: )
(Tool: 4 -> Offset Z: -0.0)

(Z_MOVE: )
(Tool: 1 -> Z_Move: 1.0)
(Tool: 2 -> Z_Move: 1.0)
(Tool: 3 -> Z_Move: 1.0)
(Tool: 4 -> Z_Move: 1.0)
(Tool: 5 -> Z_Move: 1.0)

(Z Start: None mm)
(Z End: 2.0 mm)
(Steps per circle: 64)
(Preprocessor Excellon: default)

(X range:   61.2500 ...   88.6500  mm)
(Y range:   28.5000 ...   87.3200  mm)

(Spindle Speed: 10000.0 RPM)
G21
G90
G94



G00 Z1.0000

G01 F140.00
M03 S10000
G4 P2.0
G00 X85.4000 Y84.1000
G01 Z-2.2000
G01 Z0
G00 Z1.0000
G00 X73.4000 Y83.9000
G01 Z-2.2000
G01 Z0
G00 Z1.0000
G00 X61.6000 Y84.0000
G01 Z-2.2000
G01 Z0
G00 Z1.0000
G00 X61.8000 Y76.3000
G01 Z-2.2000
G01 Z0
G00 Z1.0000
G00 X64.9000 Y76.6000
G01 Z-2.2000
G01 Z0
G00 Z1.0000
G00 X67.3960 Y76.2890
G01 Z-2.2000
G01 Z0
G00 Z1.0000
G00 X66.7000 Y70.1000
G01 Z-2.2000
G01 Z0
G00 Z1.0000
G00 X65.5000 Y68.4000
G01 Z-2.2000
G01 Z0
G00 Z1.0000
G00 X61.6000 Y52.0000
G01 Z-2.2000
G01 Z0
G00 Z1.0000
G00 X61.8000 Y44.3000
G01 Z-2.2000
G01 Z0
G00 Z1.0000
G00 X64.9000 Y44.6000
G01 Z-2.2000
G01 Z0
G00 Z1.0000
G00 X67.3960 Y44.2890
G01 Z-2.2000
G01 Z0
G00 Z1.0000
G00 X66.7000 Y38.1000
G01 Z-2.2000
G01 Z0
G00 Z1.0000
G00 X65.5000 Y36.4000
G01 Z-2.2000
G01 Z0
G00 Z1.0000
G00 X75.5000 Y34.8000
G01 Z-2.2000
G01 Z0
G00 Z1.0000
G00 X81.2000 Y29.9000
G01 Z-2.2000
G01 Z0
G00 Z1.0000
G00 X85.1000 Y39.7000
G01 Z-2.2000
G01 Z0
G00 Z1.0000
G00 X79.7000 Y41.1000
G01 Z-2.2000
G01 Z0
G00 Z1.0000
G00 X75.6000 Y42.2000
G01 Z-2.2000
G01 Z0
G00 Z1.0000
G00 X73.4000 Y51.9000
G01 Z-2.2000
G01 Z0
G00 Z1.0000
G00 X85.4000 Y52.1000
G01 Z-2.2000
G01 Z0
G00 Z1.0000
G00 X81.2000 Y61.9000
G01 Z-2.2000
G01 Z0
G00 Z1.0000
G00 X75.5000 Y66.8000
G01 Z-2.2000
G01 Z0
G00 Z1.0000
G00 X75.6000 Y74.2000
G01 Z-2.2000
G01 Z0
G00 Z1.0000
G00 X79.7000 Y73.1000
G01 Z-2.2000
G01 Z0
G00 Z1.0000
G00 X85.1000 Y71.7000
G01 Z-2.2000
G01 Z0
G00 Z1.0000
G01 F140.00
M03 S10000
G4 P2.0
G00 X77.9000 Y82.1750
G01 Z-2.2000
G01 Z0
G00 Z1.0000
G00 X77.9000 Y81.8250
G01 Z-2.2000
G01 Z0
G00 Z1.0000
G00 X80.9000 Y81.8250
G01 Z-2.2000
G01 Z0
G00 Z1.0000
G00 X80.9000 Y82.1750
G01 Z-2.2000
G01 Z0
G00 Z1.0000
G00 X83.9000 Y81.8250
G01 Z-2.2000
G01 Z0
G00 Z1.0000
G00 X83.9000 Y82.1750
G01 Z-2.2000
G01 Z0
G00 Z1.0000
G00 X83.9000 Y49.8250
G01 Z-2.2000
G01 Z0
G00 Z1.0000
G00 X83.9000 Y50.1750
G01 Z-2.2000
G01 Z0
G00 Z1.0000
G00 X80.9000 Y49.8250
G01 Z-2.2000
G01 Z0
G00 Z1.0000
G00 X80.9000 Y50.1750
G01 Z-2.2000
G01 Z0
G00 Z1.0000
G00 X77.9000 Y49.8250
G01 Z-2.2000
G01 Z0
G00 Z1.0000
G00 X77.9000 Y50.1750
G01 Z-2.2000
G01 Z0
G00 Z1.0000
G00 X74.9000 Y49.8250
G01 Z-2.2000
G01 Z0
G00 Z1.0000
G00 X74.9000 Y50.1750
G01 Z-2.2000
G01 Z0
G00 Z1.0000
G00 X71.9000 Y49.8250
G01 Z-2.2000
G01 Z0
G00 Z1.0000
G00 X71.9000 Y50.1750
G01 Z-2.2000
G01 Z0
G00 Z1.0000
G00 X69.6250 Y29.9000
G01 Z-2.2000
G01 Z0
G00 Z1.0000
G00 X69.9750 Y29.9000
G01 Z-2.2000
G01 Z0
G00 Z1.0000
G00 X62.9000 Y50.1750
G01 Z-2.2000
G01 Z0
G00 Z1.0000
G00 X62.9000 Y49.8250
G01 Z-2.2000
G01 Z0
G00 Z1.0000
G00 X65.9000 Y50.1750
G01 Z-2.2000
G01 Z0
G00 Z1.0000
G00 X65.9000 Y49.8250
G01 Z-2.2000
G01 Z0
G00 Z1.0000
G00 X68.9000 Y49.8250
G01 Z-2.2000
G01 Z0
G00 Z1.0000
G00 X68.9000 Y50.1750
G01 Z-2.2000
G01 Z0
G00 Z1.0000
G00 X69.9750 Y61.9000
G01 Z-2.2000
G01 Z0
G00 Z1.0000
G00 X69.6250 Y61.9000
G01 Z-2.2000
G01 Z0
G00 Z1.0000
G00 X62.9000 Y82.1750
G01 Z-2.2000
G01 Z0
G00 Z1.0000
G00 X62.9000 Y81.8250
G01 Z-2.2000
G01 Z0
G00 Z1.0000
G00 X65.9000 Y82.1750
G01 Z-2.2000
G01 Z0
G00 Z1.0000
G00 X65.9000 Y81.8250
G01 Z-2.2000
G01 Z0
G00 Z1.0000
G00 X68.9000 Y82.1750
G01 Z-2.2000
G01 Z0
G00 Z1.0000
G00 X68.9000 Y81.8250
G01 Z-2.2000
G01 Z0
G00 Z1.0000
G00 X71.9000 Y82.1750
G01 Z-2.2000
G01 Z0
G00 Z1.0000
G00 X71.9000 Y81.8250
G01 Z-2.2000
G01 Z0
G00 Z1.0000
G00 X74.9000 Y82.1750
G01 Z-2.2000
G01 Z0
G00 Z1.0000
G00 X74.9000 Y81.8250
G01 Z-2.2000
G01 Z0
G00 Z1.0000
M05
G00 Z2.00

