(G-CODE GENERATED BY FLATCAM v8.992 - www.flatcam.org - Version Date: 2020/05/03)

(Name: MSP430G2553_array-F_Cu.gbr_iso_cnc)
(Type: G-code from Geometry)
(Units: MM)

(Created on Monday, 01 June 2020 at 16:18)

(This preprocessor is the default preprocessor used by FlatCAM.)
(It is made to work with MACH3 compatible motion controllers.)

(TOOL DIAMETER: 0.1 mm)
(Feedrate_XY: 2500.0 mm/min)
(Feedrate_Z: 400.0 mm/min)
(Feedrate rapids 1500.0 mm/min)

(Z_Cut: -0.05 mm)
(Z_Move: 1.0 mm)
(Z Start: None mm)
(Z End: 15.0 mm)
(Steps per circle: 64)
(Preprocessor Geometry: default)

(X range:   60.4750 ...   90.3250  mm)
(Y range:   27.1750 ...   89.0250  mm)

(Spindle Speed: None RPM)
G21
G90
G94



G01 F2500.00
G00 Z1.0000

M03
G00 X62.0526 Y39.8600
G01 F400.00
G01 Z-0.0500
G01 F2500.00
G01 X61.7197 Y39.8600
G01 X61.6711 Y39.7453
G01 X61.7502 Y39.5544
G01 X61.8906 Y39.3415
G01 X62.0697 Y39.1604
G01 X62.2807 Y39.0176
G01 X62.4859 Y38.9311
G01 X62.6000 Y38.9786
G01 X62.6000 Y39.3126
G01 X62.5545 Y39.3290
G01 X62.4768 Y39.3657
G01 X62.4010 Y39.4110
G01 X62.3290 Y39.4643
G01 X62.2636 Y39.5236
G01 X62.2043 Y39.5890
G01 X62.1510 Y39.6610
G01 X62.1057 Y39.7368
G01 X62.0690 Y39.8145
G01 X62.0526 Y39.8600
G00 Z1.0000
G00 X62.0543 Y39.8553
G01 F400.00
G01 Z-0.0500
G01 F2500.00
G01 X62.0526 Y39.8600
G01 X62.0476 Y39.8600
G01 X62.0526 Y39.8600
G00 Z1.0000
G00 X62.6000 Y41.0074
G01 F400.00
G01 Z-0.0500
G01 F2500.00
G01 X62.6000 Y41.3414
G01 X62.4859 Y41.3889
G01 X62.2807 Y41.3024
G01 X62.0697 Y41.1596
G01 X61.8906 Y40.9785
G01 X61.7502 Y40.7656
G01 X61.6711 Y40.5747
G01 X61.7197 Y40.4600
G01 X62.0526 Y40.4600
G01 X62.0690 Y40.5055
G01 X62.1057 Y40.5832
G01 X62.1510 Y40.6590
G01 X62.2043 Y40.7310
G01 X62.2636 Y40.7964
G01 X62.3290 Y40.8557
G01 X62.4010 Y40.9090
G01 X62.4768 Y40.9543
G01 X62.5545 Y40.9910
G01 X62.6000 Y41.0074
G00 Z1.0000
G00 X62.5953 Y41.0057
G01 F400.00
G01 Z-0.0500
G01 F2500.00
G01 X62.6000 Y41.0074
G01 X62.6000 Y41.0124
G01 X62.6000 Y41.0074
G00 Z1.0000
G00 X63.2000 Y41.0074
G01 F400.00
G01 Z-0.0500
G01 F2500.00
G01 X63.2455 Y40.9910
G01 X63.3232 Y40.9543
G01 X63.3990 Y40.9090
G01 X63.4710 Y40.8557
G01 X63.5364 Y40.7964
G01 X63.5957 Y40.7310
G01 X63.6490 Y40.6590
G01 X63.6943 Y40.5832
G01 X63.7310 Y40.5055
G01 X63.7474 Y40.4600
G01 X64.0803 Y40.4600
G01 X64.1289 Y40.5747
G01 X64.0498 Y40.7656
G01 X63.9094 Y40.9785
G01 X63.7303 Y41.1596
G01 X63.5193 Y41.3024
G01 X63.3141 Y41.3889
G01 X63.2000 Y41.3414
G01 X63.2000 Y41.0074
G00 Z1.0000
G00 X63.2000 Y41.0124
G01 F400.00
G01 Z-0.0500
G01 F2500.00
G01 X63.2000 Y41.0074
G01 X63.2047 Y41.0057
G01 X63.2000 Y41.0074
G00 Z1.0000
G00 X63.7474 Y39.8600
G01 F400.00
G01 Z-0.0500
G01 F2500.00
G01 X63.7310 Y39.8145
G01 X63.6943 Y39.7368
G01 X63.6490 Y39.6610
G01 X63.5957 Y39.5890
G01 X63.5364 Y39.5236
G01 X63.4710 Y39.4643
G01 X63.3990 Y39.4110
G01 X63.3232 Y39.3657
G01 X63.2455 Y39.3290
G01 X63.2000 Y39.3126
G01 X63.2000 Y38.9786
G01 X63.3141 Y38.9311
G01 X63.5193 Y39.0176
G01 X63.7303 Y39.1604
G01 X63.9094 Y39.3415
G01 X64.0498 Y39.5544
G01 X64.1289 Y39.7453
G01 X64.0803 Y39.8600
G01 X63.7474 Y39.8600
G00 Z1.0000
G00 X63.7524 Y39.8600
G01 F400.00
G01 Z-0.0500
G01 F2500.00
G01 X63.7474 Y39.8600
G01 X63.7457 Y39.8553
G01 X63.7474 Y39.8600
G00 Z1.0000
G00 X65.3500 Y39.6000
G01 F400.00
G01 Z-0.0500
G01 F2500.00
G01 X65.0289 Y39.6000
G01 X64.9498 Y39.5208
G01 X64.9474 Y39.1546
G01 X64.9565 Y39.0618
G01 X64.9823 Y38.9770
G01 X65.0240 Y38.8988
G01 X65.0803 Y38.8303
G01 X65.1488 Y38.7740
G01 X65.2270 Y38.7323
G01 X65.3118 Y38.7065
G01 X65.4047 Y38.6974
G01 X66.0209 Y38.6999
G01 X66.1000 Y38.7789
G01 X66.1000 Y39.1000
G01 X65.7750 Y39.1000
G01 X65.7321 Y39.1022
G01 X65.6897 Y39.1087
G01 X65.6516 Y39.1183
G01 X65.6146 Y39.1315
G01 X65.5747 Y39.1502
G01 X65.5389 Y39.1716
G01 X65.5054 Y39.1965
G01 X65.4763 Y39.2228
G01 X65.4465 Y39.2554
G01 X65.4203 Y39.2910
G01 X65.4002 Y39.3247
G01 X65.3828 Y39.3612
G01 X65.3676 Y39.4040
G01 X65.3582 Y39.4421
G01 X65.3523 Y39.4809
G01 X65.3500 Y39.5238
G01 X65.3500 Y39.6000
G00 Z1.0000
G00 X65.3500 Y39.5950
G01 F400.00
G01 Z-0.0500
G01 F2500.00
G01 X65.3500 Y39.6000
G01 X65.3450 Y39.6000
G01 X65.3500 Y39.6000
G00 Z1.0000
G00 X65.3500 Y40.2000
G01 F400.00
G01 Z-0.0500
G01 F2500.00
G01 X65.3500 Y40.2762
G01 X65.3523 Y40.3191
G01 X65.3582 Y40.3579
G01 X65.3676 Y40.3960
G01 X65.3828 Y40.4388
G01 X65.4002 Y40.4753
G01 X65.4203 Y40.5090
G01 X65.4465 Y40.5446
G01 X65.4763 Y40.5772
G01 X65.5054 Y40.6035
G01 X65.5389 Y40.6284
G01 X65.5747 Y40.6498
G01 X65.6146 Y40.6685
G01 X65.6516 Y40.6817
G01 X65.6897 Y40.6913
G01 X65.7321 Y40.6978
G01 X65.7750 Y40.7000
G01 X66.1000 Y40.7000
G01 X66.1000 Y41.0211
G01 X66.0209 Y41.1001
G01 X65.4047 Y41.1026
G01 X65.3118 Y41.0935
G01 X65.2270 Y41.0677
G01 X65.1488 Y41.0260
G01 X65.0803 Y40.9697
G01 X65.0240 Y40.9012
G01 X64.9823 Y40.8230
G01 X64.9565 Y40.7382
G01 X64.9474 Y40.6454
G01 X64.9498 Y40.2792
G01 X65.0289 Y40.2000
G01 X65.3500 Y40.2000
G00 Z1.0000
G00 X65.3450 Y40.2000
G01 F400.00
G01 Z-0.0500
G01 F2500.00
G01 X65.3500 Y40.2000
G01 X65.3500 Y40.2050
G01 X65.3500 Y40.2000
G00 Z1.0000
G00 X67.4500 Y40.2000
G01 F400.00
G01 Z-0.0500
G01 F2500.00
G01 X67.7711 Y40.2000
G01 X67.8502 Y40.2792
G01 X67.8526 Y40.6454
G01 X67.8435 Y40.7382
G01 X67.8177 Y40.8230
G01 X67.7760 Y40.9012
G01 X67.7197 Y40.9697
G01 X67.6512 Y41.0260
G01 X67.5730 Y41.0677
G01 X67.4882 Y41.0935
G01 X67.3953 Y41.1026
G01 X66.7791 Y41.1001
G01 X66.7000 Y41.0211
G01 X66.7000 Y40.7000
G01 X67.0250 Y40.7000
G01 X67.0679 Y40.6978
G01 X67.1103 Y40.6913
G01 X67.1484 Y40.6817
G01 X67.1854 Y40.6685
G01 X67.2253 Y40.6498
G01 X67.2611 Y40.6284
G01 X67.2946 Y40.6035
G01 X67.3237 Y40.5772
G01 X67.3535 Y40.5446
G01 X67.3797 Y40.5090
G01 X67.3998 Y40.4753
G01 X67.4172 Y40.4388
G01 X67.4324 Y40.3960
G01 X67.4418 Y40.3579
G01 X67.4477 Y40.3191
G01 X67.4500 Y40.2762
G01 X67.4500 Y40.2000
G00 Z1.0000
G00 X67.4500 Y40.2050
G01 F400.00
G01 Z-0.0500
G01 F2500.00
G01 X67.4500 Y40.2000
G01 X67.4550 Y40.2000
G01 X67.4500 Y40.2000
G00 Z1.0000
G00 X67.4500 Y39.6000
G01 F400.00
G01 Z-0.0500
G01 F2500.00
G01 X67.4500 Y39.5238
G01 X67.4477 Y39.4809
G01 X67.4418 Y39.4421
G01 X67.4324 Y39.4040
G01 X67.4172 Y39.3612
G01 X67.3998 Y39.3247
G01 X67.3797 Y39.2910
G01 X67.3535 Y39.2554
G01 X67.3237 Y39.2228
G01 X67.2946 Y39.1965
G01 X67.2611 Y39.1716
G01 X67.2253 Y39.1502
G01 X67.1854 Y39.1315
G01 X67.1484 Y39.1183
G01 X67.1103 Y39.1087
G01 X67.0679 Y39.1022
G01 X67.0250 Y39.1000
G01 X66.7000 Y39.1000
G01 X66.7000 Y38.7789
G01 X66.7791 Y38.6999
G01 X67.3953 Y38.6974
G01 X67.4882 Y38.7065
G01 X67.5730 Y38.7323
G01 X67.6512 Y38.7740
G01 X67.7197 Y38.8303
G01 X67.7760 Y38.8988
G01 X67.8177 Y38.9770
G01 X67.8435 Y39.0618
G01 X67.8526 Y39.1546
G01 X67.8502 Y39.5208
G01 X67.7711 Y39.6000
G01 X67.4500 Y39.6000
G00 Z1.0000
G00 X67.4550 Y39.6000
G01 F400.00
G01 Z-0.0500
G01 F2500.00
G01 X67.4500 Y39.6000
G01 X67.4500 Y39.5950
G01 X67.4500 Y39.6000
G00 Z1.0000
G00 X67.4500 Y42.4000
G01 F400.00
G01 Z-0.0500
G01 F2500.00
G01 X67.4500 Y42.3238
G01 X67.4477 Y42.2809
G01 X67.4418 Y42.2421
G01 X67.4324 Y42.2040
G01 X67.4172 Y42.1612
G01 X67.3998 Y42.1247
G01 X67.3797 Y42.0910
G01 X67.3535 Y42.0554
G01 X67.3237 Y42.0228
G01 X67.2946 Y41.9965
G01 X67.2611 Y41.9716
G01 X67.2253 Y41.9502
G01 X67.1854 Y41.9315
G01 X67.1484 Y41.9183
G01 X67.1103 Y41.9087
G01 X67.0679 Y41.9022
G01 X67.0250 Y41.9000
G01 X66.7000 Y41.9000
G01 X66.7000 Y41.5789
G01 X66.7791 Y41.4999
G01 X67.3953 Y41.4974
G01 X67.4882 Y41.5065
G01 X67.5730 Y41.5323
G01 X67.6512 Y41.5740
G01 X67.7197 Y41.6303
G01 X67.7760 Y41.6988
G01 X67.8177 Y41.7770
G01 X67.8435 Y41.8618
G01 X67.8526 Y41.9546
G01 X67.8502 Y42.3208
G01 X67.7711 Y42.4000
G01 X67.4500 Y42.4000
G00 Z1.0000
G00 X67.4550 Y42.4000
G01 F400.00
G01 Z-0.0500
G01 F2500.00
G01 X67.4500 Y42.4000
G01 X67.4500 Y42.3950
G01 X67.4500 Y42.4000
G00 Z1.0000
G00 X67.4500 Y43.0000
G01 F400.00
G01 Z-0.0500
G01 F2500.00
G01 X67.7711 Y43.0000
G01 X67.8502 Y43.0792
G01 X67.8526 Y43.4454
G01 X67.8435 Y43.5382
G01 X67.8177 Y43.6230
G01 X67.7760 Y43.7012
G01 X67.7197 Y43.7697
G01 X67.6512 Y43.8260
G01 X67.5730 Y43.8677
G01 X67.4882 Y43.8935
G01 X67.3953 Y43.9026
G01 X66.7791 Y43.9001
G01 X66.7000 Y43.8211
G01 X66.7000 Y43.5000
G01 X67.0250 Y43.5000
G01 X67.0679 Y43.4978
G01 X67.1103 Y43.4913
G01 X67.1484 Y43.4817
G01 X67.1854 Y43.4685
G01 X67.2253 Y43.4498
G01 X67.2611 Y43.4284
G01 X67.2946 Y43.4035
G01 X67.3237 Y43.3772
G01 X67.3535 Y43.3446
G01 X67.3797 Y43.3090
G01 X67.3998 Y43.2753
G01 X67.4172 Y43.2388
G01 X67.4324 Y43.1960
G01 X67.4418 Y43.1579
G01 X67.4477 Y43.1191
G01 X67.4500 Y43.0762
G01 X67.4500 Y43.0000
G00 Z1.0000
G00 X67.4500 Y43.0050
G01 F400.00
G01 Z-0.0500
G01 F2500.00
G01 X67.4500 Y43.0000
G01 X67.4550 Y43.0000
G01 X67.4500 Y43.0000
G00 Z1.0000
G00 X65.3500 Y43.0000
G01 F400.00
G01 Z-0.0500
G01 F2500.00
G01 X65.3500 Y43.0762
G01 X65.3523 Y43.1191
G01 X65.3582 Y43.1579
G01 X65.3676 Y43.1960
G01 X65.3828 Y43.2388
G01 X65.4002 Y43.2753
G01 X65.4203 Y43.3090
G01 X65.4465 Y43.3446
G01 X65.4763 Y43.3772
G01 X65.5054 Y43.4035
G01 X65.5389 Y43.4284
G01 X65.5747 Y43.4498
G01 X65.6146 Y43.4685
G01 X65.6516 Y43.4817
G01 X65.6897 Y43.4913
G01 X65.7321 Y43.4978
G01 X65.7750 Y43.5000
G01 X66.1000 Y43.5000
G01 X66.1000 Y43.8211
G01 X66.0209 Y43.9001
G01 X65.4047 Y43.9026
G01 X65.3118 Y43.8935
G01 X65.2270 Y43.8677
G01 X65.1488 Y43.8260
G01 X65.0803 Y43.7697
G01 X65.0240 Y43.7012
G01 X64.9823 Y43.6230
G01 X64.9565 Y43.5382
G01 X64.9474 Y43.4454
G01 X64.9498 Y43.0792
G01 X65.0289 Y43.0000
G01 X65.3500 Y43.0000
G00 Z1.0000
G00 X65.3450 Y43.0000
G01 F400.00
G01 Z-0.0500
G01 F2500.00
G01 X65.3500 Y43.0000
G01 X65.3500 Y43.0050
G01 X65.3500 Y43.0000
G00 Z1.0000
G00 X65.3500 Y42.4000
G01 F400.00
G01 Z-0.0500
G01 F2500.00
G01 X65.0289 Y42.4000
G01 X64.9498 Y42.3208
G01 X64.9474 Y41.9546
G01 X64.9565 Y41.8618
G01 X64.9823 Y41.7770
G01 X65.0240 Y41.6988
G01 X65.0803 Y41.6303
G01 X65.1488 Y41.5740
G01 X65.2270 Y41.5323
G01 X65.3118 Y41.5065
G01 X65.4047 Y41.4974
G01 X66.0209 Y41.4999
G01 X66.1000 Y41.5789
G01 X66.1000 Y41.9000
G01 X65.7750 Y41.9000
G01 X65.7321 Y41.9022
G01 X65.6897 Y41.9087
G01 X65.6516 Y41.9183
G01 X65.6146 Y41.9315
G01 X65.5747 Y41.9502
G01 X65.5389 Y41.9716
G01 X65.5054 Y41.9965
G01 X65.4763 Y42.0228
G01 X65.4465 Y42.0554
G01 X65.4203 Y42.0910
G01 X65.4002 Y42.1247
G01 X65.3828 Y42.1612
G01 X65.3676 Y42.2040
G01 X65.3582 Y42.2421
G01 X65.3523 Y42.2809
G01 X65.3500 Y42.3238
G01 X65.3500 Y42.4000
G00 Z1.0000
G00 X65.3500 Y42.3950
G01 F400.00
G01 Z-0.0500
G01 F2500.00
G01 X65.3500 Y42.4000
G01 X65.3450 Y42.4000
G01 X65.3500 Y42.4000
G00 Z1.0000
G00 X63.9012 Y43.5451
G01 F400.00
G01 Z-0.0500
G01 F2500.00
G01 X63.8978 Y43.5794
G01 X63.8892 Y43.6077
G01 X63.8753 Y43.6337
G01 X63.8566 Y43.6566
G01 X63.8337 Y43.6753
G01 X63.8077 Y43.6892
G01 X63.7794 Y43.6978
G01 X63.7451 Y43.7012
G01 X62.0549 Y43.7012
G01 X62.0206 Y43.6978
G01 X61.9923 Y43.6892
G01 X61.9663 Y43.6753
G01 X61.9434 Y43.6566
G01 X61.9247 Y43.6337
G01 X61.9108 Y43.6077
G01 X61.9022 Y43.5794
G01 X61.8988 Y43.5451
G01 X61.8988 Y41.8549
G01 X61.9022 Y41.8206
G01 X61.9108 Y41.7923
G01 X61.9247 Y41.7663
G01 X61.9434 Y41.7434
G01 X61.9663 Y41.7247
G01 X61.9923 Y41.7108
G01 X62.0206 Y41.7022
G01 X62.0549 Y41.6988
G01 X63.7451 Y41.6988
G01 X63.7794 Y41.7022
G01 X63.8077 Y41.7108
G01 X63.8337 Y41.7247
G01 X63.8566 Y41.7434
G01 X63.8753 Y41.7663
G01 X63.8892 Y41.7923
G01 X63.8978 Y41.8206
G01 X63.9012 Y41.8549
G01 X63.9012 Y43.5451
G00 Z1.0000
G00 X63.9012 Y43.5401
G01 F400.00
G01 Z-0.0500
G01 F2500.00
G01 X63.9012 Y43.5451
G01 X63.9007 Y43.5501
G01 X63.9012 Y43.5451
G00 Z1.0000
G00 X62.0500 Y41.8000
G01 F400.00
G01 Z-0.0500
G01 F2500.00
G01 X63.7500 Y41.8000
G01 X63.7598 Y41.8010
G01 X63.7691 Y41.8038
G01 X63.7736 Y41.8059
G01 X63.7788 Y41.8091
G01 X63.7862 Y41.8155
G01 X63.7922 Y41.8233
G01 X63.7966 Y41.8320
G01 X63.7990 Y41.8402
G01 X63.8000 Y41.8500
G01 X63.8000 Y43.5500
G01 X63.7990 Y43.5598
G01 X63.7962 Y43.5691
G01 X63.7941 Y43.5736
G01 X63.7909 Y43.5788
G01 X63.7845 Y43.5862
G01 X63.7767 Y43.5922
G01 X63.7680 Y43.5966
G01 X63.7598 Y43.5990
G01 X63.7500 Y43.6000
G01 X62.0500 Y43.6000
G01 X62.0402 Y43.5990
G01 X62.0309 Y43.5962
G01 X62.0254 Y43.5935
G01 X62.0212 Y43.5909
G01 X62.0138 Y43.5845
G01 X62.0078 Y43.5767
G01 X62.0038 Y43.5691
G01 X62.0010 Y43.5598
G01 X62.0000 Y43.5500
G01 X62.0000 Y41.8488
G01 X62.0010 Y41.8402
G01 X62.0038 Y41.8309
G01 X62.0084 Y41.8222
G01 X62.0146 Y41.8146
G01 X62.0222 Y41.8084
G01 X62.0309 Y41.8038
G01 X62.0402 Y41.8010
G01 X62.0500 Y41.8000
G00 Z1.0000
G00 X62.0450 Y41.8005
G01 F400.00
G01 Z-0.0500
G01 F2500.00
G01 X62.0500 Y41.8000
G01 X62.0550 Y41.8000
G01 X62.0500 Y41.8000
G00 Z1.0000
G00 X62.0500 Y46.3000
G01 F400.00
G01 Z-0.0500
G01 F2500.00
G01 X63.7500 Y46.3000
G01 X63.7598 Y46.3010
G01 X63.7691 Y46.3038
G01 X63.7736 Y46.3059
G01 X63.7788 Y46.3091
G01 X63.7862 Y46.3155
G01 X63.7922 Y46.3233
G01 X63.7966 Y46.3320
G01 X63.7990 Y46.3402
G01 X63.8000 Y46.3500
G01 X63.8000 Y48.0500
G01 X63.7990 Y48.0598
G01 X63.7962 Y48.0691
G01 X63.7941 Y48.0736
G01 X63.7909 Y48.0788
G01 X63.7845 Y48.0862
G01 X63.7767 Y48.0922
G01 X63.7680 Y48.0966
G01 X63.7598 Y48.0990
G01 X63.7500 Y48.1000
G01 X62.0500 Y48.1000
G01 X62.0402 Y48.0990
G01 X62.0309 Y48.0962
G01 X62.0254 Y48.0935
G01 X62.0212 Y48.0909
G01 X62.0138 Y48.0845
G01 X62.0078 Y48.0767
G01 X62.0038 Y48.0691
G01 X62.0010 Y48.0598
G01 X62.0000 Y48.0500
G01 X62.0000 Y46.3488
G01 X62.0010 Y46.3402
G01 X62.0038 Y46.3309
G01 X62.0084 Y46.3222
G01 X62.0146 Y46.3146
G01 X62.0222 Y46.3084
G01 X62.0309 Y46.3038
G01 X62.0402 Y46.3010
G01 X62.0500 Y46.3000
G00 Z1.0000
G00 X62.0450 Y46.3005
G01 F400.00
G01 Z-0.0500
G01 F2500.00
G01 X62.0500 Y46.3000
G01 X62.0550 Y46.3000
G01 X62.0500 Y46.3000
G00 Z1.0000
G00 X63.9012 Y48.0451
G01 F400.00
G01 Z-0.0500
G01 F2500.00
G01 X63.8978 Y48.0794
G01 X63.8892 Y48.1077
G01 X63.8753 Y48.1337
G01 X63.8566 Y48.1566
G01 X63.8337 Y48.1753
G01 X63.8077 Y48.1892
G01 X63.7794 Y48.1978
G01 X63.7451 Y48.2012
G01 X62.0549 Y48.2012
G01 X62.0206 Y48.1978
G01 X61.9923 Y48.1892
G01 X61.9663 Y48.1753
G01 X61.9434 Y48.1566
G01 X61.9247 Y48.1337
G01 X61.9108 Y48.1077
G01 X61.9022 Y48.0794
G01 X61.8988 Y48.0451
G01 X61.8988 Y46.3549
G01 X61.9022 Y46.3206
G01 X61.9108 Y46.2923
G01 X61.9247 Y46.2663
G01 X61.9434 Y46.2434
G01 X61.9663 Y46.2247
G01 X61.9923 Y46.2108
G01 X62.0206 Y46.2022
G01 X62.0549 Y46.1988
G01 X63.7451 Y46.1988
G01 X63.7794 Y46.2022
G01 X63.8077 Y46.2108
G01 X63.8337 Y46.2247
G01 X63.8566 Y46.2434
G01 X63.8753 Y46.2663
G01 X63.8892 Y46.2923
G01 X63.8978 Y46.3206
G01 X63.9012 Y46.3549
G01 X63.9012 Y48.0451
G00 Z1.0000
G00 X63.9012 Y48.0401
G01 F400.00
G01 Z-0.0500
G01 F2500.00
G01 X63.9012 Y48.0451
G01 X63.9007 Y48.0501
G01 X63.9012 Y48.0451
G00 Z1.0000
G00 X62.9025 Y48.8401
G01 F400.00
G01 Z-0.0500
G01 F2500.00
G01 X62.9882 Y48.8443
G01 X63.0756 Y48.8573
G01 X63.1613 Y48.8788
G01 X63.2444 Y48.9085
G01 X63.3243 Y48.9463
G01 X63.4000 Y48.9917
G01 X63.4710 Y49.0443
G01 X63.5364 Y49.1036
G01 X63.5957 Y49.1690
G01 X63.6483 Y49.2400
G01 X63.6937 Y49.3157
G01 X63.7315 Y49.3956
G01 X63.7612 Y49.4787
G01 X63.7827 Y49.5644
G01 X63.7957 Y49.6518
G01 X63.8000 Y49.7400
G01 X63.7957 Y49.8282
G01 X63.7827 Y49.9156
G01 X63.7612 Y50.0013
G01 X63.7315 Y50.0844
G01 X63.6937 Y50.1643
G01 X63.6483 Y50.2400
G01 X63.5957 Y50.3110
G01 X63.5364 Y50.3764
G01 X63.4710 Y50.4357
G01 X63.4000 Y50.4883
G01 X63.3243 Y50.5337
G01 X63.2444 Y50.5715
G01 X63.1613 Y50.6012
G01 X63.0756 Y50.6227
G01 X62.9882 Y50.6357
G01 X62.9000 Y50.6400
G01 X62.8118 Y50.6357
G01 X62.7244 Y50.6227
G01 X62.6387 Y50.6012
G01 X62.5556 Y50.5715
G01 X62.4757 Y50.5337
G01 X62.4000 Y50.4883
G01 X62.3290 Y50.4357
G01 X62.2636 Y50.3764
G01 X62.2043 Y50.3110
G01 X62.1517 Y50.2400
G01 X62.1063 Y50.1643
G01 X62.0685 Y50.0844
G01 X62.0388 Y50.0013
G01 X62.0173 Y49.9156
G01 X62.0043 Y49.8282
G01 X62.0000 Y49.7400
G01 X62.0043 Y49.6518
G01 X62.0173 Y49.5644
G01 X62.0388 Y49.4787
G01 X62.0685 Y49.3956
G01 X62.1063 Y49.3157
G01 X62.1517 Y49.2400
G01 X62.2043 Y49.1690
G01 X62.2636 Y49.1036
G01 X62.3290 Y49.0443
G01 X62.4000 Y48.9917
G01 X62.4757 Y48.9463
G01 X62.5556 Y48.9085
G01 X62.6387 Y48.8788
G01 X62.7244 Y48.8573
G01 X62.8118 Y48.8443
G01 X62.9025 Y48.8401
G00 Z1.0000
G00 X62.8975 Y48.8403
G01 F400.00
G01 Z-0.0500
G01 F2500.00
G01 X62.9025 Y48.8401
G01 X62.9074 Y48.8403
G01 X62.9025 Y48.8401
G00 Z1.0000
G00 X63.4999 Y50.5418
G01 F400.00
G01 Z-0.0500
G01 F2500.00
G01 X63.3737 Y50.6262
G01 X63.1917 Y50.7015
G01 X62.9985 Y50.7400
G01 X62.8015 Y50.7400
G01 X62.6083 Y50.7015
G01 X62.4263 Y50.6262
G01 X62.2626 Y50.5167
G01 X62.1233 Y50.3774
G01 X62.0138 Y50.2137
G01 X61.9385 Y50.0317
G01 X61.9000 Y49.8385
G01 X61.9000 Y49.6415
G01 X61.9385 Y49.4483
G01 X62.0138 Y49.2663
G01 X62.1233 Y49.1026
G01 X62.2626 Y48.9633
G01 X62.4263 Y48.8538
G01 X62.6083 Y48.7785
G01 X62.8015 Y48.7400
G01 X62.9985 Y48.7400
G01 X63.1917 Y48.7785
G01 X63.3737 Y48.8538
G01 X63.5374 Y48.9633
G01 X63.6767 Y49.1026
G01 X63.7862 Y49.2663
G01 X63.8615 Y49.4483
G01 X63.9000 Y49.6415
G01 X63.9000 Y49.8385
G01 X63.8615 Y50.0317
G01 X63.7862 Y50.2137
G01 X63.6767 Y50.3774
G01 X63.5374 Y50.5167
G01 X63.4999 Y50.5418
G00 Z1.0000
G00 X63.5040 Y50.5391
G01 F400.00
G01 Z-0.0500
G01 F2500.00
G01 X63.4999 Y50.5418
G01 X63.4957 Y50.5446
G01 X63.4999 Y50.5418
G00 Z1.0000
G00 X62.9025 Y51.3801
G01 F400.00
G01 Z-0.0500
G01 F2500.00
G01 X62.9882 Y51.3843
G01 X63.0756 Y51.3973
G01 X63.1613 Y51.4188
G01 X63.2444 Y51.4485
G01 X63.3243 Y51.4863
G01 X63.4000 Y51.5317
G01 X63.4710 Y51.5843
G01 X63.5364 Y51.6436
G01 X63.5957 Y51.7090
G01 X63.6483 Y51.7800
G01 X63.6937 Y51.8557
G01 X63.7315 Y51.9356
G01 X63.7612 Y52.0187
G01 X63.7827 Y52.1044
G01 X63.7957 Y52.1918
G01 X63.8000 Y52.2800
G01 X63.7957 Y52.3682
G01 X63.7827 Y52.4556
G01 X63.7612 Y52.5413
G01 X63.7315 Y52.6244
G01 X63.6937 Y52.7043
G01 X63.6483 Y52.7800
G01 X63.5957 Y52.8510
G01 X63.5364 Y52.9164
G01 X63.4710 Y52.9757
G01 X63.4000 Y53.0283
G01 X63.3243 Y53.0737
G01 X63.2444 Y53.1115
G01 X63.1613 Y53.1412
G01 X63.0756 Y53.1627
G01 X62.9882 Y53.1757
G01 X62.9000 Y53.1800
G01 X62.8118 Y53.1757
G01 X62.7244 Y53.1627
G01 X62.6387 Y53.1412
G01 X62.5556 Y53.1115
G01 X62.4757 Y53.0737
G01 X62.4000 Y53.0283
G01 X62.3290 Y52.9757
G01 X62.2636 Y52.9164
G01 X62.2043 Y52.8510
G01 X62.1517 Y52.7800
G01 X62.1063 Y52.7043
G01 X62.0685 Y52.6244
G01 X62.0388 Y52.5413
G01 X62.0173 Y52.4556
G01 X62.0043 Y52.3682
G01 X62.0000 Y52.2800
G01 X62.0043 Y52.1918
G01 X62.0173 Y52.1044
G01 X62.0388 Y52.0187
G01 X62.0685 Y51.9356
G01 X62.1063 Y51.8557
G01 X62.1517 Y51.7800
G01 X62.2043 Y51.7090
G01 X62.2636 Y51.6436
G01 X62.3290 Y51.5843
G01 X62.4000 Y51.5317
G01 X62.4757 Y51.4863
G01 X62.5556 Y51.4485
G01 X62.6387 Y51.4188
G01 X62.7244 Y51.3973
G01 X62.8118 Y51.3843
G01 X62.9025 Y51.3801
G00 Z1.0000
G00 X62.8975 Y51.3803
G01 F400.00
G01 Z-0.0500
G01 F2500.00
G01 X62.9025 Y51.3801
G01 X62.9074 Y51.3803
G01 X62.9025 Y51.3801
G00 Z1.0000
G00 X61.9000 Y52.3785
G01 F400.00
G01 Z-0.0500
G01 F2500.00
G01 X61.9000 Y52.1815
G01 X61.9385 Y51.9883
G01 X62.0138 Y51.8063
G01 X62.1233 Y51.6426
G01 X62.2626 Y51.5033
G01 X62.4263 Y51.3938
G01 X62.6083 Y51.3185
G01 X62.8015 Y51.2800
G01 X62.9985 Y51.2800
G01 X63.1917 Y51.3185
G01 X63.3737 Y51.3938
G01 X63.5374 Y51.5033
G01 X63.6767 Y51.6426
G01 X63.7862 Y51.8063
G01 X63.8615 Y51.9883
G01 X63.9000 Y52.1815
G01 X63.9000 Y52.3785
G01 X63.8615 Y52.5717
G01 X63.7862 Y52.7537
G01 X63.6767 Y52.9174
G01 X63.5374 Y53.0567
G01 X63.3737 Y53.1662
G01 X63.1917 Y53.2415
G01 X62.9985 Y53.2800
G01 X62.8015 Y53.2800
G01 X62.6083 Y53.2415
G01 X62.4263 Y53.1662
G01 X62.2626 Y53.0567
G01 X62.1233 Y52.9174
G01 X62.0138 Y52.7537
G01 X61.9385 Y52.5717
G01 X61.9000 Y52.3785
G00 Z1.0000
G00 X61.9010 Y52.3834
G01 F400.00
G01 Z-0.0500
G01 F2500.00
G01 X61.9000 Y52.3785
G01 X61.9000 Y52.3735
G01 X61.9000 Y52.3785
G00 Z1.0000
G00 X62.0526 Y54.5200
G01 F400.00
G01 Z-0.0500
G01 F2500.00
G01 X61.7197 Y54.5200
G01 X61.6711 Y54.4053
G01 X61.7502 Y54.2144
G01 X61.8906 Y54.0015
G01 X62.0697 Y53.8204
G01 X62.2807 Y53.6776
G01 X62.4859 Y53.5911
G01 X62.6000 Y53.6386
G01 X62.6000 Y53.9726
G01 X62.5545 Y53.9890
G01 X62.4768 Y54.0257
G01 X62.4010 Y54.0710
G01 X62.3290 Y54.1243
G01 X62.2636 Y54.1836
G01 X62.2043 Y54.2490
G01 X62.1510 Y54.3210
G01 X62.1057 Y54.3968
G01 X62.0690 Y54.4745
G01 X62.0526 Y54.5200
G00 Z1.0000
G00 X62.0543 Y54.5153
G01 F400.00
G01 Z-0.0500
G01 F2500.00
G01 X62.0526 Y54.5200
G01 X62.0476 Y54.5200
G01 X62.0526 Y54.5200
G00 Z1.0000
G00 X62.6000 Y55.6674
G01 F400.00
G01 Z-0.0500
G01 F2500.00
G01 X62.6000 Y56.0014
G01 X62.4859 Y56.0489
G01 X62.2807 Y55.9624
G01 X62.0697 Y55.8196
G01 X61.8906 Y55.6385
G01 X61.7502 Y55.4256
G01 X61.6711 Y55.2347
G01 X61.7197 Y55.1200
G01 X62.0526 Y55.1200
G01 X62.0690 Y55.1655
G01 X62.1057 Y55.2432
G01 X62.1510 Y55.3190
G01 X62.2043 Y55.3910
G01 X62.2636 Y55.4564
G01 X62.3290 Y55.5157
G01 X62.4010 Y55.5690
G01 X62.4768 Y55.6143
G01 X62.5545 Y55.6510
G01 X62.6000 Y55.6674
G00 Z1.0000
G00 X62.5953 Y55.6657
G01 F400.00
G01 Z-0.0500
G01 F2500.00
G01 X62.6000 Y55.6674
G01 X62.6000 Y55.6724
G01 X62.6000 Y55.6674
G00 Z1.0000
G00 X63.2000 Y55.6674
G01 F400.00
G01 Z-0.0500
G01 F2500.00
G01 X63.2455 Y55.6510
G01 X63.3232 Y55.6143
G01 X63.3990 Y55.5690
G01 X63.4710 Y55.5157
G01 X63.5364 Y55.4564
G01 X63.5957 Y55.3910
G01 X63.6490 Y55.3190
G01 X63.6943 Y55.2432
G01 X63.7310 Y55.1655
G01 X63.7474 Y55.1200
G01 X64.0803 Y55.1200
G01 X64.1289 Y55.2347
G01 X64.0498 Y55.4256
G01 X63.9094 Y55.6385
G01 X63.7303 Y55.8196
G01 X63.5193 Y55.9624
G01 X63.3141 Y56.0489
G01 X63.2000 Y56.0014
G01 X63.2000 Y55.6674
G00 Z1.0000
G00 X63.2000 Y55.6724
G01 F400.00
G01 Z-0.0500
G01 F2500.00
G01 X63.2000 Y55.6674
G01 X63.2047 Y55.6657
G01 X63.2000 Y55.6674
G00 Z1.0000
G00 X63.7474 Y54.5200
G01 F400.00
G01 Z-0.0500
G01 F2500.00
G01 X63.7310 Y54.4745
G01 X63.6943 Y54.3968
G01 X63.6490 Y54.3210
G01 X63.5957 Y54.2490
G01 X63.5364 Y54.1836
G01 X63.4710 Y54.1243
G01 X63.3990 Y54.0710
G01 X63.3232 Y54.0257
G01 X63.2455 Y53.9890
G01 X63.2000 Y53.9726
G01 X63.2000 Y53.6386
G01 X63.3141 Y53.5911
G01 X63.5193 Y53.6776
G01 X63.7303 Y53.8204
G01 X63.9094 Y54.0015
G01 X64.0498 Y54.2144
G01 X64.1289 Y54.4053
G01 X64.0803 Y54.5200
G01 X63.7474 Y54.5200
G00 Z1.0000
G00 X63.7524 Y54.5200
G01 F400.00
G01 Z-0.0500
G01 F2500.00
G01 X63.7474 Y54.5200
G01 X63.7457 Y54.5153
G01 X63.7474 Y54.5200
G00 Z1.0000
G00 X66.1500 Y55.4250
G01 F400.00
G01 Z-0.0500
G01 F2500.00
G01 X65.8289 Y55.4250
G01 X65.7496 Y55.3456
G01 X65.7474 Y55.1544
G01 X65.7565 Y55.0618
G01 X65.7823 Y54.9770
G01 X65.8240 Y54.8988
G01 X65.8803 Y54.8303
G01 X65.9488 Y54.7740
G01 X66.0270 Y54.7323
G01 X66.1118 Y54.7065
G01 X66.2045 Y54.6974
G01 X66.5208 Y54.6997
G01 X66.6000 Y54.7789
G01 X66.6000 Y55.1000
G01 X66.4488 Y55.1000
G01 X66.4206 Y55.1014
G01 X66.3927 Y55.1055
G01 X66.3629 Y55.1129
G01 X66.3352 Y55.1228
G01 X66.3086 Y55.1354
G01 X66.2823 Y55.1513
G01 X66.2578 Y55.1697
G01 X66.2379 Y55.1879
G01 X66.2197 Y55.2078
G01 X66.2006 Y55.2333
G01 X66.1843 Y55.2608
G01 X66.1728 Y55.2852
G01 X66.1637 Y55.3106
G01 X66.1558 Y55.3415
G01 X66.1513 Y55.3718
G01 X66.1500 Y55.3988
G01 X66.1500 Y55.4250
G00 Z1.0000
G00 X66.1500 Y55.4200
G01 F400.00
G01 Z-0.0500
G01 F2500.00
G01 X66.1500 Y55.4250
G01 X66.1450 Y55.4250
G01 X66.1500 Y55.4250
G00 Z1.0000
G00 X66.6000 Y56.3500
G01 F400.00
G01 Z-0.0500
G01 F2500.00
G01 X66.6000 Y56.6711
G01 X66.5208 Y56.7503
G01 X66.2045 Y56.7526
G01 X66.1118 Y56.7435
G01 X66.0270 Y56.7177
G01 X65.9488 Y56.6760
G01 X65.8803 Y56.6197
G01 X65.8240 Y56.5512
G01 X65.7823 Y56.4730
G01 X65.7565 Y56.3882
G01 X65.7474 Y56.2956
G01 X65.7496 Y56.1044
G01 X65.8289 Y56.0250
G01 X66.1500 Y56.0250
G01 X66.1500 Y56.0512
G01 X66.1513 Y56.0782
G01 X66.1558 Y56.1085
G01 X66.1637 Y56.1394
G01 X66.1728 Y56.1648
G01 X66.1843 Y56.1892
G01 X66.2006 Y56.2167
G01 X66.2197 Y56.2422
G01 X66.2379 Y56.2621
G01 X66.2578 Y56.2803
G01 X66.2823 Y56.2987
G01 X66.3086 Y56.3146
G01 X66.3352 Y56.3272
G01 X66.3629 Y56.3371
G01 X66.3927 Y56.3445
G01 X66.4206 Y56.3486
G01 X66.4488 Y56.3500
G01 X66.6000 Y56.3500
G00 Z1.0000
G00 X66.5950 Y56.3500
G01 F400.00
G01 Z-0.0500
G01 F2500.00
G01 X66.6000 Y56.3500
G01 X66.6000 Y56.3550
G01 X66.6000 Y56.3500
G00 Z1.0000
G00 X67.2000 Y56.3500
G01 F400.00
G01 Z-0.0500
G01 F2500.00
G01 X67.3512 Y56.3500
G01 X67.3794 Y56.3486
G01 X67.4073 Y56.3445
G01 X67.4371 Y56.3371
G01 X67.4648 Y56.3272
G01 X67.4914 Y56.3146
G01 X67.5177 Y56.2987
G01 X67.5422 Y56.2803
G01 X67.5621 Y56.2621
G01 X67.5803 Y56.2422
G01 X67.5994 Y56.2167
G01 X67.6157 Y56.1892
G01 X67.6272 Y56.1648
G01 X67.6363 Y56.1394
G01 X67.6442 Y56.1085
G01 X67.6487 Y56.0782
G01 X67.6500 Y56.0512
G01 X67.6500 Y56.0250
G01 X67.9711 Y56.0250
G01 X68.0504 Y56.1044
G01 X68.0526 Y56.2956
G01 X68.0435 Y56.3882
G01 X68.0177 Y56.4730
G01 X67.9760 Y56.5512
G01 X67.9197 Y56.6197
G01 X67.8512 Y56.6760
G01 X67.7730 Y56.7177
G01 X67.6882 Y56.7435
G01 X67.5955 Y56.7526
G01 X67.2792 Y56.7503
G01 X67.2000 Y56.6711
G01 X67.2000 Y56.3500
G00 Z1.0000
G00 X67.2000 Y56.3550
G01 F400.00
G01 Z-0.0500
G01 F2500.00
G01 X67.2000 Y56.3500
G01 X67.2050 Y56.3500
G01 X67.2000 Y56.3500
G00 Z1.0000
G00 X67.6500 Y55.4250
G01 F400.00
G01 Z-0.0500
G01 F2500.00
G01 X67.6500 Y55.3988
G01 X67.6487 Y55.3718
G01 X67.6442 Y55.3415
G01 X67.6363 Y55.3106
G01 X67.6272 Y55.2852
G01 X67.6157 Y55.2608
G01 X67.5994 Y55.2333
G01 X67.5803 Y55.2078
G01 X67.5621 Y55.1879
G01 X67.5422 Y55.1697
G01 X67.5177 Y55.1513
G01 X67.4914 Y55.1354
G01 X67.4648 Y55.1228
G01 X67.4371 Y55.1129
G01 X67.4073 Y55.1055
G01 X67.3794 Y55.1014
G01 X67.3512 Y55.1000
G01 X67.2000 Y55.1000
G01 X67.2000 Y54.7789
G01 X67.2792 Y54.6997
G01 X67.5955 Y54.6974
G01 X67.6882 Y54.7065
G01 X67.7730 Y54.7323
G01 X67.8512 Y54.7740
G01 X67.9197 Y54.8303
G01 X67.9760 Y54.8988
G01 X68.0177 Y54.9770
G01 X68.0435 Y55.0618
G01 X68.0526 Y55.1544
G01 X68.0504 Y55.3456
G01 X67.9711 Y55.4250
G01 X67.6500 Y55.4250
G00 Z1.0000
G00 X67.6550 Y55.4250
G01 F400.00
G01 Z-0.0500
G01 F2500.00
G01 X67.6500 Y55.4250
G01 X67.6500 Y55.4200
G01 X67.6500 Y55.4250
G00 Z1.0000
G00 X69.1500 Y55.4250
G01 F400.00
G01 Z-0.0500
G01 F2500.00
G01 X68.8289 Y55.4250
G01 X68.7496 Y55.3456
G01 X68.7474 Y55.1544
G01 X68.7565 Y55.0618
G01 X68.7823 Y54.9770
G01 X68.8240 Y54.8988
G01 X68.8803 Y54.8303
G01 X68.9488 Y54.7740
G01 X69.0270 Y54.7323
G01 X69.1118 Y54.7065
G01 X69.2045 Y54.6974
G01 X69.5208 Y54.6997
G01 X69.6000 Y54.7789
G01 X69.6000 Y55.1000
G01 X69.4488 Y55.1000
G01 X69.4206 Y55.1014
G01 X69.3927 Y55.1055
G01 X69.3629 Y55.1129
G01 X69.3352 Y55.1228
G01 X69.3086 Y55.1354
G01 X69.2823 Y55.1513
G01 X69.2578 Y55.1697
G01 X69.2379 Y55.1879
G01 X69.2197 Y55.2078
G01 X69.2006 Y55.2333
G01 X69.1843 Y55.2608
G01 X69.1728 Y55.2852
G01 X69.1637 Y55.3106
G01 X69.1558 Y55.3415
G01 X69.1513 Y55.3718
G01 X69.1500 Y55.3988
G01 X69.1500 Y55.4250
G00 Z1.0000
G00 X69.1500 Y55.4200
G01 F400.00
G01 Z-0.0500
G01 F2500.00
G01 X69.1500 Y55.4250
G01 X69.1450 Y55.4250
G01 X69.1500 Y55.4250
G00 Z1.0000
G00 X69.6000 Y56.3500
G01 F400.00
G01 Z-0.0500
G01 F2500.00
G01 X69.6000 Y56.6711
G01 X69.5208 Y56.7503
G01 X69.2045 Y56.7526
G01 X69.1118 Y56.7435
G01 X69.0270 Y56.7177
G01 X68.9488 Y56.6760
G01 X68.8803 Y56.6197
G01 X68.8240 Y56.5512
G01 X68.7823 Y56.4730
G01 X68.7565 Y56.3882
G01 X68.7474 Y56.2956
G01 X68.7496 Y56.1044
G01 X68.8289 Y56.0250
G01 X69.1500 Y56.0250
G01 X69.1500 Y56.0512
G01 X69.1513 Y56.0782
G01 X69.1558 Y56.1085
G01 X69.1637 Y56.1394
G01 X69.1728 Y56.1648
G01 X69.1843 Y56.1892
G01 X69.2006 Y56.2167
G01 X69.2197 Y56.2422
G01 X69.2379 Y56.2621
G01 X69.2578 Y56.2803
G01 X69.2823 Y56.2987
G01 X69.3086 Y56.3146
G01 X69.3352 Y56.3272
G01 X69.3629 Y56.3371
G01 X69.3927 Y56.3445
G01 X69.4206 Y56.3486
G01 X69.4488 Y56.3500
G01 X69.6000 Y56.3500
G00 Z1.0000
G00 X69.5950 Y56.3500
G01 F400.00
G01 Z-0.0500
G01 F2500.00
G01 X69.6000 Y56.3500
G01 X69.6000 Y56.3550
G01 X69.6000 Y56.3500
G00 Z1.0000
G00 X70.2000 Y56.3500
G01 F400.00
G01 Z-0.0500
G01 F2500.00
G01 X70.3512 Y56.3500
G01 X70.3794 Y56.3486
G01 X70.4073 Y56.3445
G01 X70.4371 Y56.3371
G01 X70.4648 Y56.3272
G01 X70.4914 Y56.3146
G01 X70.5177 Y56.2987
G01 X70.5422 Y56.2803
G01 X70.5621 Y56.2621
G01 X70.5803 Y56.2422
G01 X70.5994 Y56.2167
G01 X70.6157 Y56.1892
G01 X70.6272 Y56.1648
G01 X70.6363 Y56.1394
G01 X70.6442 Y56.1085
G01 X70.6487 Y56.0782
G01 X70.6500 Y56.0512
G01 X70.6500 Y56.0250
G01 X70.9711 Y56.0250
G01 X71.0504 Y56.1044
G01 X71.0526 Y56.2956
G01 X71.0435 Y56.3882
G01 X71.0177 Y56.4730
G01 X70.9760 Y56.5512
G01 X70.9197 Y56.6197
G01 X70.8512 Y56.6760
G01 X70.7730 Y56.7177
G01 X70.6882 Y56.7435
G01 X70.5955 Y56.7526
G01 X70.2792 Y56.7503
G01 X70.2000 Y56.6711
G01 X70.2000 Y56.3500
G00 Z1.0000
G00 X70.2000 Y56.3550
G01 F400.00
G01 Z-0.0500
G01 F2500.00
G01 X70.2000 Y56.3500
G01 X70.2050 Y56.3500
G01 X70.2000 Y56.3500
G00 Z1.0000
G00 X70.6500 Y55.4250
G01 F400.00
G01 Z-0.0500
G01 F2500.00
G01 X70.6500 Y55.3988
G01 X70.6487 Y55.3718
G01 X70.6442 Y55.3415
G01 X70.6363 Y55.3106
G01 X70.6272 Y55.2852
G01 X70.6157 Y55.2608
G01 X70.5994 Y55.2333
G01 X70.5803 Y55.2078
G01 X70.5621 Y55.1879
G01 X70.5422 Y55.1697
G01 X70.5177 Y55.1513
G01 X70.4914 Y55.1354
G01 X70.4648 Y55.1228
G01 X70.4371 Y55.1129
G01 X70.4073 Y55.1055
G01 X70.3794 Y55.1014
G01 X70.3512 Y55.1000
G01 X70.2000 Y55.1000
G01 X70.2000 Y54.7789
G01 X70.2792 Y54.6997
G01 X70.5955 Y54.6974
G01 X70.6882 Y54.7065
G01 X70.7730 Y54.7323
G01 X70.8512 Y54.7740
G01 X70.9197 Y54.8303
G01 X70.9760 Y54.8988
G01 X71.0177 Y54.9770
G01 X71.0435 Y55.0618
G01 X71.0526 Y55.1544
G01 X71.0504 Y55.3456
G01 X70.9711 Y55.4250
G01 X70.6500 Y55.4250
G00 Z1.0000
G00 X70.6550 Y55.4250
G01 F400.00
G01 Z-0.0500
G01 F2500.00
G01 X70.6500 Y55.4250
G01 X70.6500 Y55.4200
G01 X70.6500 Y55.4250
G00 Z1.0000
G00 X72.1500 Y55.4000
G01 F400.00
G01 Z-0.0500
G01 F2500.00
G01 X71.8289 Y55.4000
G01 X71.7496 Y55.3206
G01 X71.7474 Y55.1294
G01 X71.7565 Y55.0368
G01 X71.7823 Y54.9520
G01 X71.8240 Y54.8738
G01 X71.8803 Y54.8053
G01 X71.9488 Y54.7490
G01 X72.0270 Y54.7073
G01 X72.1118 Y54.6815
G01 X72.2045 Y54.6724
G01 X72.5208 Y54.6747
G01 X72.6000 Y54.7539
G01 X72.6000 Y55.0750
G01 X72.4488 Y55.0750
G01 X72.4206 Y55.0764
G01 X72.3927 Y55.0805
G01 X72.3629 Y55.0879
G01 X72.3352 Y55.0978
G01 X72.3086 Y55.1104
G01 X72.2823 Y55.1263
G01 X72.2578 Y55.1447
G01 X72.2379 Y55.1629
G01 X72.2197 Y55.1828
G01 X72.2006 Y55.2083
G01 X72.1843 Y55.2358
G01 X72.1728 Y55.2602
G01 X72.1637 Y55.2856
G01 X72.1558 Y55.3165
G01 X72.1513 Y55.3468
G01 X72.1500 Y55.3738
G01 X72.1500 Y55.4000
G00 Z1.0000
G00 X72.1500 Y55.3950
G01 F400.00
G01 Z-0.0500
G01 F2500.00
G01 X72.1500 Y55.4000
G01 X72.1450 Y55.4000
G01 X72.1500 Y55.4000
G00 Z1.0000
G00 X72.6000 Y56.3250
G01 F400.00
G01 Z-0.0500
G01 F2500.00
G01 X72.6000 Y56.6461
G01 X72.5208 Y56.7253
G01 X72.2045 Y56.7276
G01 X72.1118 Y56.7185
G01 X72.0270 Y56.6927
G01 X71.9488 Y56.6510
G01 X71.8803 Y56.5947
G01 X71.8240 Y56.5262
G01 X71.7823 Y56.4480
G01 X71.7565 Y56.3632
G01 X71.7474 Y56.2706
G01 X71.7496 Y56.0794
G01 X71.8289 Y56.0000
G01 X72.1500 Y56.0000
G01 X72.1500 Y56.0262
G01 X72.1513 Y56.0532
G01 X72.1558 Y56.0835
G01 X72.1637 Y56.1144
G01 X72.1728 Y56.1398
G01 X72.1843 Y56.1642
G01 X72.2006 Y56.1917
G01 X72.2197 Y56.2172
G01 X72.2379 Y56.2371
G01 X72.2578 Y56.2553
G01 X72.2823 Y56.2737
G01 X72.3086 Y56.2896
G01 X72.3352 Y56.3022
G01 X72.3629 Y56.3121
G01 X72.3927 Y56.3195
G01 X72.4206 Y56.3236
G01 X72.4488 Y56.3250
G01 X72.6000 Y56.3250
G00 Z1.0000
G00 X72.5950 Y56.3250
G01 F400.00
G01 Z-0.0500
G01 F2500.00
G01 X72.6000 Y56.3250
G01 X72.6000 Y56.3300
G01 X72.6000 Y56.3250
G00 Z1.0000
G00 X73.2000 Y56.3250
G01 F400.00
G01 Z-0.0500
G01 F2500.00
G01 X73.3512 Y56.3250
G01 X73.3794 Y56.3236
G01 X73.4073 Y56.3195
G01 X73.4371 Y56.3121
G01 X73.4648 Y56.3022
G01 X73.4914 Y56.2896
G01 X73.5177 Y56.2737
G01 X73.5422 Y56.2553
G01 X73.5621 Y56.2371
G01 X73.5803 Y56.2172
G01 X73.5994 Y56.1917
G01 X73.6157 Y56.1642
G01 X73.6272 Y56.1398
G01 X73.6363 Y56.1144
G01 X73.6442 Y56.0835
G01 X73.6487 Y56.0532
G01 X73.6500 Y56.0262
G01 X73.6500 Y56.0000
G01 X73.9711 Y56.0000
G01 X74.0504 Y56.0794
G01 X74.0526 Y56.2706
G01 X74.0435 Y56.3632
G01 X74.0177 Y56.4480
G01 X73.9760 Y56.5262
G01 X73.9197 Y56.5947
G01 X73.8512 Y56.6510
G01 X73.7730 Y56.6927
G01 X73.6882 Y56.7185
G01 X73.5955 Y56.7276
G01 X73.2792 Y56.7253
G01 X73.2000 Y56.6461
G01 X73.2000 Y56.3250
G00 Z1.0000
G00 X73.2000 Y56.3300
G01 F400.00
G01 Z-0.0500
G01 F2500.00
G01 X73.2000 Y56.3250
G01 X73.2050 Y56.3250
G01 X73.2000 Y56.3250
G00 Z1.0000
G00 X73.6500 Y55.4000
G01 F400.00
G01 Z-0.0500
G01 F2500.00
G01 X73.6500 Y55.3738
G01 X73.6487 Y55.3468
G01 X73.6442 Y55.3165
G01 X73.6363 Y55.2856
G01 X73.6272 Y55.2602
G01 X73.6157 Y55.2358
G01 X73.5994 Y55.2083
G01 X73.5803 Y55.1828
G01 X73.5621 Y55.1629
G01 X73.5422 Y55.1447
G01 X73.5177 Y55.1263
G01 X73.4914 Y55.1104
G01 X73.4648 Y55.0978
G01 X73.4371 Y55.0879
G01 X73.4073 Y55.0805
G01 X73.3794 Y55.0764
G01 X73.3512 Y55.0750
G01 X73.2000 Y55.0750
G01 X73.2000 Y54.7539
G01 X73.2792 Y54.6747
G01 X73.5955 Y54.6724
G01 X73.6882 Y54.6815
G01 X73.7730 Y54.7073
G01 X73.8512 Y54.7490
G01 X73.9197 Y54.8053
G01 X73.9760 Y54.8738
G01 X74.0177 Y54.9520
G01 X74.0435 Y55.0368
G01 X74.0526 Y55.1294
G01 X74.0504 Y55.3206
G01 X73.9711 Y55.4000
G01 X73.6500 Y55.4000
G00 Z1.0000
G00 X73.6550 Y55.4000
G01 F400.00
G01 Z-0.0500
G01 F2500.00
G01 X73.6500 Y55.4000
G01 X73.6500 Y55.3950
G01 X73.6500 Y55.4000
G00 Z1.0000
G00 X75.1500 Y55.4250
G01 F400.00
G01 Z-0.0500
G01 F2500.00
G01 X74.8289 Y55.4250
G01 X74.7496 Y55.3456
G01 X74.7474 Y55.1544
G01 X74.7565 Y55.0618
G01 X74.7823 Y54.9770
G01 X74.8240 Y54.8988
G01 X74.8803 Y54.8303
G01 X74.9488 Y54.7740
G01 X75.0270 Y54.7323
G01 X75.1118 Y54.7065
G01 X75.2045 Y54.6974
G01 X75.5208 Y54.6997
G01 X75.6000 Y54.7789
G01 X75.6000 Y55.1000
G01 X75.4488 Y55.1000
G01 X75.4206 Y55.1014
G01 X75.3927 Y55.1055
G01 X75.3629 Y55.1129
G01 X75.3352 Y55.1228
G01 X75.3086 Y55.1354
G01 X75.2823 Y55.1513
G01 X75.2578 Y55.1697
G01 X75.2379 Y55.1879
G01 X75.2197 Y55.2078
G01 X75.2006 Y55.2333
G01 X75.1843 Y55.2608
G01 X75.1728 Y55.2852
G01 X75.1637 Y55.3106
G01 X75.1558 Y55.3415
G01 X75.1513 Y55.3718
G01 X75.1500 Y55.3988
G01 X75.1500 Y55.4250
G00 Z1.0000
G00 X75.1500 Y55.4200
G01 F400.00
G01 Z-0.0500
G01 F2500.00
G01 X75.1500 Y55.4250
G01 X75.1450 Y55.4250
G01 X75.1500 Y55.4250
G00 Z1.0000
G00 X75.6000 Y56.3500
G01 F400.00
G01 Z-0.0500
G01 F2500.00
G01 X75.6000 Y56.6711
G01 X75.5208 Y56.7503
G01 X75.2045 Y56.7526
G01 X75.1118 Y56.7435
G01 X75.0270 Y56.7177
G01 X74.9488 Y56.6760
G01 X74.8803 Y56.6197
G01 X74.8240 Y56.5512
G01 X74.7823 Y56.4730
G01 X74.7565 Y56.3882
G01 X74.7474 Y56.2956
G01 X74.7496 Y56.1044
G01 X74.8289 Y56.0250
G01 X75.1500 Y56.0250
G01 X75.1500 Y56.0512
G01 X75.1513 Y56.0782
G01 X75.1558 Y56.1085
G01 X75.1637 Y56.1394
G01 X75.1728 Y56.1648
G01 X75.1843 Y56.1892
G01 X75.2006 Y56.2167
G01 X75.2197 Y56.2422
G01 X75.2379 Y56.2621
G01 X75.2578 Y56.2803
G01 X75.2823 Y56.2987
G01 X75.3086 Y56.3146
G01 X75.3352 Y56.3272
G01 X75.3629 Y56.3371
G01 X75.3927 Y56.3445
G01 X75.4206 Y56.3486
G01 X75.4488 Y56.3500
G01 X75.6000 Y56.3500
G00 Z1.0000
G00 X75.5950 Y56.3500
G01 F400.00
G01 Z-0.0500
G01 F2500.00
G01 X75.6000 Y56.3500
G01 X75.6000 Y56.3550
G01 X75.6000 Y56.3500
G00 Z1.0000
G00 X76.2000 Y56.3500
G01 F400.00
G01 Z-0.0500
G01 F2500.00
G01 X76.3512 Y56.3500
G01 X76.3794 Y56.3486
G01 X76.4073 Y56.3445
G01 X76.4371 Y56.3371
G01 X76.4648 Y56.3272
G01 X76.4914 Y56.3146
G01 X76.5177 Y56.2987
G01 X76.5422 Y56.2803
G01 X76.5621 Y56.2621
G01 X76.5803 Y56.2422
G01 X76.5994 Y56.2167
G01 X76.6157 Y56.1892
G01 X76.6272 Y56.1648
G01 X76.6363 Y56.1394
G01 X76.6442 Y56.1085
G01 X76.6487 Y56.0782
G01 X76.6500 Y56.0512
G01 X76.6500 Y56.0250
G01 X76.9711 Y56.0250
G01 X77.0504 Y56.1044
G01 X77.0526 Y56.2956
G01 X77.0435 Y56.3882
G01 X77.0177 Y56.4730
G01 X76.9760 Y56.5512
G01 X76.9197 Y56.6197
G01 X76.8512 Y56.6760
G01 X76.7730 Y56.7177
G01 X76.6882 Y56.7435
G01 X76.5955 Y56.7526
G01 X76.2792 Y56.7503
G01 X76.2000 Y56.6711
G01 X76.2000 Y56.3500
G00 Z1.0000
G00 X76.2000 Y56.3550
G01 F400.00
G01 Z-0.0500
G01 F2500.00
G01 X76.2000 Y56.3500
G01 X76.2050 Y56.3500
G01 X76.2000 Y56.3500
G00 Z1.0000
G00 X76.6500 Y55.4250
G01 F400.00
G01 Z-0.0500
G01 F2500.00
G01 X76.6500 Y55.3988
G01 X76.6487 Y55.3718
G01 X76.6442 Y55.3415
G01 X76.6363 Y55.3106
G01 X76.6272 Y55.2852
G01 X76.6157 Y55.2608
G01 X76.5994 Y55.2333
G01 X76.5803 Y55.2078
G01 X76.5621 Y55.1879
G01 X76.5422 Y55.1697
G01 X76.5177 Y55.1513
G01 X76.4914 Y55.1354
G01 X76.4648 Y55.1228
G01 X76.4371 Y55.1129
G01 X76.4073 Y55.1055
G01 X76.3794 Y55.1014
G01 X76.3512 Y55.1000
G01 X76.2000 Y55.1000
G01 X76.2000 Y54.7789
G01 X76.2792 Y54.6997
G01 X76.5955 Y54.6974
G01 X76.6882 Y54.7065
G01 X76.7730 Y54.7323
G01 X76.8512 Y54.7740
G01 X76.9197 Y54.8303
G01 X76.9760 Y54.8988
G01 X77.0177 Y54.9770
G01 X77.0435 Y55.0618
G01 X77.0526 Y55.1544
G01 X77.0504 Y55.3456
G01 X76.9711 Y55.4250
G01 X76.6500 Y55.4250
G00 Z1.0000
G00 X76.6550 Y55.4250
G01 F400.00
G01 Z-0.0500
G01 F2500.00
G01 X76.6500 Y55.4250
G01 X76.6500 Y55.4200
G01 X76.6500 Y55.4250
G00 Z1.0000
G00 X78.1500 Y55.4250
G01 F400.00
G01 Z-0.0500
G01 F2500.00
G01 X77.8289 Y55.4250
G01 X77.7496 Y55.3456
G01 X77.7474 Y55.1544
G01 X77.7565 Y55.0618
G01 X77.7823 Y54.9770
G01 X77.8240 Y54.8988
G01 X77.8803 Y54.8303
G01 X77.9488 Y54.7740
G01 X78.0270 Y54.7323
G01 X78.1118 Y54.7065
G01 X78.2045 Y54.6974
G01 X78.5208 Y54.6997
G01 X78.6000 Y54.7789
G01 X78.6000 Y55.1000
G01 X78.4488 Y55.1000
G01 X78.4206 Y55.1014
G01 X78.3927 Y55.1055
G01 X78.3629 Y55.1129
G01 X78.3352 Y55.1228
G01 X78.3086 Y55.1354
G01 X78.2823 Y55.1513
G01 X78.2578 Y55.1697
G01 X78.2379 Y55.1879
G01 X78.2197 Y55.2078
G01 X78.2006 Y55.2333
G01 X78.1843 Y55.2608
G01 X78.1728 Y55.2852
G01 X78.1637 Y55.3106
G01 X78.1558 Y55.3415
G01 X78.1513 Y55.3718
G01 X78.1500 Y55.3988
G01 X78.1500 Y55.4250
G00 Z1.0000
G00 X78.1500 Y55.4200
G01 F400.00
G01 Z-0.0500
G01 F2500.00
G01 X78.1500 Y55.4250
G01 X78.1450 Y55.4250
G01 X78.1500 Y55.4250
G00 Z1.0000
G00 X78.6000 Y56.3500
G01 F400.00
G01 Z-0.0500
G01 F2500.00
G01 X78.6000 Y56.6711
G01 X78.5208 Y56.7503
G01 X78.2045 Y56.7526
G01 X78.1118 Y56.7435
G01 X78.0270 Y56.7177
G01 X77.9488 Y56.6760
G01 X77.8803 Y56.6197
G01 X77.8240 Y56.5512
G01 X77.7823 Y56.4730
G01 X77.7565 Y56.3882
G01 X77.7474 Y56.2956
G01 X77.7496 Y56.1044
G01 X77.8289 Y56.0250
G01 X78.1500 Y56.0250
G01 X78.1500 Y56.0512
G01 X78.1513 Y56.0782
G01 X78.1558 Y56.1085
G01 X78.1637 Y56.1394
G01 X78.1728 Y56.1648
G01 X78.1843 Y56.1892
G01 X78.2006 Y56.2167
G01 X78.2197 Y56.2422
G01 X78.2379 Y56.2621
G01 X78.2578 Y56.2803
G01 X78.2823 Y56.2987
G01 X78.3086 Y56.3146
G01 X78.3352 Y56.3272
G01 X78.3629 Y56.3371
G01 X78.3927 Y56.3445
G01 X78.4206 Y56.3486
G01 X78.4488 Y56.3500
G01 X78.6000 Y56.3500
G00 Z1.0000
G00 X78.5950 Y56.3500
G01 F400.00
G01 Z-0.0500
G01 F2500.00
G01 X78.6000 Y56.3500
G01 X78.6000 Y56.3550
G01 X78.6000 Y56.3500
G00 Z1.0000
G00 X79.2000 Y56.3500
G01 F400.00
G01 Z-0.0500
G01 F2500.00
G01 X79.3512 Y56.3500
G01 X79.3794 Y56.3486
G01 X79.4073 Y56.3445
G01 X79.4371 Y56.3371
G01 X79.4648 Y56.3272
G01 X79.4914 Y56.3146
G01 X79.5177 Y56.2987
G01 X79.5422 Y56.2803
G01 X79.5621 Y56.2621
G01 X79.5803 Y56.2422
G01 X79.5994 Y56.2167
G01 X79.6157 Y56.1892
G01 X79.6272 Y56.1648
G01 X79.6363 Y56.1394
G01 X79.6442 Y56.1085
G01 X79.6487 Y56.0782
G01 X79.6500 Y56.0512
G01 X79.6500 Y56.0250
G01 X79.9711 Y56.0250
G01 X80.0504 Y56.1044
G01 X80.0526 Y56.2956
G01 X80.0435 Y56.3882
G01 X80.0177 Y56.4730
G01 X79.9760 Y56.5512
G01 X79.9197 Y56.6197
G01 X79.8512 Y56.6760
G01 X79.7730 Y56.7177
G01 X79.6882 Y56.7435
G01 X79.5955 Y56.7526
G01 X79.2792 Y56.7503
G01 X79.2000 Y56.6711
G01 X79.2000 Y56.3500
G00 Z1.0000
G00 X79.2000 Y56.3550
G01 F400.00
G01 Z-0.0500
G01 F2500.00
G01 X79.2000 Y56.3500
G01 X79.2050 Y56.3500
G01 X79.2000 Y56.3500
G00 Z1.0000
G00 X79.6500 Y55.4250
G01 F400.00
G01 Z-0.0500
G01 F2500.00
G01 X79.6500 Y55.3988
G01 X79.6487 Y55.3718
G01 X79.6442 Y55.3415
G01 X79.6363 Y55.3106
G01 X79.6272 Y55.2852
G01 X79.6157 Y55.2608
G01 X79.5994 Y55.2333
G01 X79.5803 Y55.2078
G01 X79.5621 Y55.1879
G01 X79.5422 Y55.1697
G01 X79.5177 Y55.1513
G01 X79.4914 Y55.1354
G01 X79.4648 Y55.1228
G01 X79.4371 Y55.1129
G01 X79.4073 Y55.1055
G01 X79.3794 Y55.1014
G01 X79.3512 Y55.1000
G01 X79.2000 Y55.1000
G01 X79.2000 Y54.7789
G01 X79.2792 Y54.6997
G01 X79.5955 Y54.6974
G01 X79.6882 Y54.7065
G01 X79.7730 Y54.7323
G01 X79.8512 Y54.7740
G01 X79.9197 Y54.8303
G01 X79.9760 Y54.8988
G01 X80.0177 Y54.9770
G01 X80.0435 Y55.0618
G01 X80.0526 Y55.1544
G01 X80.0504 Y55.3456
G01 X79.9711 Y55.4250
G01 X79.6500 Y55.4250
G00 Z1.0000
G00 X79.6550 Y55.4250
G01 F400.00
G01 Z-0.0500
G01 F2500.00
G01 X79.6500 Y55.4250
G01 X79.6500 Y55.4200
G01 X79.6500 Y55.4250
G00 Z1.0000
G00 X81.1500 Y55.4250
G01 F400.00
G01 Z-0.0500
G01 F2500.00
G01 X80.8289 Y55.4250
G01 X80.7496 Y55.3456
G01 X80.7474 Y55.1544
G01 X80.7565 Y55.0618
G01 X80.7823 Y54.9770
G01 X80.8240 Y54.8988
G01 X80.8803 Y54.8303
G01 X80.9488 Y54.7740
G01 X81.0270 Y54.7323
G01 X81.1118 Y54.7065
G01 X81.2045 Y54.6974
G01 X81.5208 Y54.6997
G01 X81.6000 Y54.7789
G01 X81.6000 Y55.1000
G01 X81.4488 Y55.1000
G01 X81.4206 Y55.1014
G01 X81.3927 Y55.1055
G01 X81.3629 Y55.1129
G01 X81.3352 Y55.1228
G01 X81.3086 Y55.1354
G01 X81.2823 Y55.1513
G01 X81.2578 Y55.1697
G01 X81.2379 Y55.1879
G01 X81.2197 Y55.2078
G01 X81.2006 Y55.2333
G01 X81.1843 Y55.2608
G01 X81.1728 Y55.2852
G01 X81.1637 Y55.3106
G01 X81.1558 Y55.3415
G01 X81.1513 Y55.3718
G01 X81.1500 Y55.3988
G01 X81.1500 Y55.4250
G00 Z1.0000
G00 X81.1500 Y55.4200
G01 F400.00
G01 Z-0.0500
G01 F2500.00
G01 X81.1500 Y55.4250
G01 X81.1450 Y55.4250
G01 X81.1500 Y55.4250
G00 Z1.0000
G00 X81.6000 Y56.3500
G01 F400.00
G01 Z-0.0500
G01 F2500.00
G01 X81.6000 Y56.6711
G01 X81.5208 Y56.7503
G01 X81.2045 Y56.7526
G01 X81.1118 Y56.7435
G01 X81.0270 Y56.7177
G01 X80.9488 Y56.6760
G01 X80.8803 Y56.6197
G01 X80.8240 Y56.5512
G01 X80.7823 Y56.4730
G01 X80.7565 Y56.3882
G01 X80.7474 Y56.2956
G01 X80.7496 Y56.1044
G01 X80.8289 Y56.0250
G01 X81.1500 Y56.0250
G01 X81.1500 Y56.0512
G01 X81.1513 Y56.0782
G01 X81.1558 Y56.1085
G01 X81.1637 Y56.1394
G01 X81.1728 Y56.1648
G01 X81.1843 Y56.1892
G01 X81.2006 Y56.2167
G01 X81.2197 Y56.2422
G01 X81.2379 Y56.2621
G01 X81.2578 Y56.2803
G01 X81.2823 Y56.2987
G01 X81.3086 Y56.3146
G01 X81.3352 Y56.3272
G01 X81.3629 Y56.3371
G01 X81.3927 Y56.3445
G01 X81.4206 Y56.3486
G01 X81.4488 Y56.3500
G01 X81.6000 Y56.3500
G00 Z1.0000
G00 X81.5950 Y56.3500
G01 F400.00
G01 Z-0.0500
G01 F2500.00
G01 X81.6000 Y56.3500
G01 X81.6000 Y56.3550
G01 X81.6000 Y56.3500
G00 Z1.0000
G00 X82.2000 Y56.3500
G01 F400.00
G01 Z-0.0500
G01 F2500.00
G01 X82.3512 Y56.3500
G01 X82.3794 Y56.3486
G01 X82.4073 Y56.3445
G01 X82.4371 Y56.3371
G01 X82.4648 Y56.3272
G01 X82.4914 Y56.3146
G01 X82.5177 Y56.2987
G01 X82.5422 Y56.2803
G01 X82.5621 Y56.2621
G01 X82.5803 Y56.2422
G01 X82.5994 Y56.2167
G01 X82.6157 Y56.1892
G01 X82.6272 Y56.1648
G01 X82.6363 Y56.1394
G01 X82.6442 Y56.1085
G01 X82.6487 Y56.0782
G01 X82.6500 Y56.0512
G01 X82.6500 Y56.0250
G01 X82.9711 Y56.0250
G01 X83.0504 Y56.1044
G01 X83.0526 Y56.2956
G01 X83.0435 Y56.3882
G01 X83.0177 Y56.4730
G01 X82.9760 Y56.5512
G01 X82.9197 Y56.6197
G01 X82.8512 Y56.6760
G01 X82.7730 Y56.7177
G01 X82.6882 Y56.7435
G01 X82.5955 Y56.7526
G01 X82.2792 Y56.7503
G01 X82.2000 Y56.6711
G01 X82.2000 Y56.3500
G00 Z1.0000
G00 X82.2000 Y56.3550
G01 F400.00
G01 Z-0.0500
G01 F2500.00
G01 X82.2000 Y56.3500
G01 X82.2050 Y56.3500
G01 X82.2000 Y56.3500
G00 Z1.0000
G00 X82.6500 Y55.4250
G01 F400.00
G01 Z-0.0500
G01 F2500.00
G01 X82.6500 Y55.3988
G01 X82.6487 Y55.3718
G01 X82.6442 Y55.3415
G01 X82.6363 Y55.3106
G01 X82.6272 Y55.2852
G01 X82.6157 Y55.2608
G01 X82.5994 Y55.2333
G01 X82.5803 Y55.2078
G01 X82.5621 Y55.1879
G01 X82.5422 Y55.1697
G01 X82.5177 Y55.1513
G01 X82.4914 Y55.1354
G01 X82.4648 Y55.1228
G01 X82.4371 Y55.1129
G01 X82.4073 Y55.1055
G01 X82.3794 Y55.1014
G01 X82.3512 Y55.1000
G01 X82.2000 Y55.1000
G01 X82.2000 Y54.7789
G01 X82.2792 Y54.6997
G01 X82.5955 Y54.6974
G01 X82.6882 Y54.7065
G01 X82.7730 Y54.7323
G01 X82.8512 Y54.7740
G01 X82.9197 Y54.8303
G01 X82.9760 Y54.8988
G01 X83.0177 Y54.9770
G01 X83.0435 Y55.0618
G01 X83.0526 Y55.1544
G01 X83.0504 Y55.3456
G01 X82.9711 Y55.4250
G01 X82.6500 Y55.4250
G00 Z1.0000
G00 X82.6550 Y55.4250
G01 F400.00
G01 Z-0.0500
G01 F2500.00
G01 X82.6500 Y55.4250
G01 X82.6500 Y55.4200
G01 X82.6500 Y55.4250
G00 Z1.0000
G00 X84.1500 Y55.4250
G01 F400.00
G01 Z-0.0500
G01 F2500.00
G01 X83.8289 Y55.4250
G01 X83.7496 Y55.3456
G01 X83.7474 Y55.1544
G01 X83.7565 Y55.0618
G01 X83.7823 Y54.9770
G01 X83.8240 Y54.8988
G01 X83.8803 Y54.8303
G01 X83.9488 Y54.7740
G01 X84.0270 Y54.7323
G01 X84.1118 Y54.7065
G01 X84.2045 Y54.6974
G01 X84.5208 Y54.6997
G01 X84.6000 Y54.7789
G01 X84.6000 Y55.1000
G01 X84.4488 Y55.1000
G01 X84.4206 Y55.1014
G01 X84.3927 Y55.1055
G01 X84.3629 Y55.1129
G01 X84.3352 Y55.1228
G01 X84.3086 Y55.1354
G01 X84.2823 Y55.1513
G01 X84.2578 Y55.1697
G01 X84.2379 Y55.1879
G01 X84.2197 Y55.2078
G01 X84.2006 Y55.2333
G01 X84.1843 Y55.2608
G01 X84.1728 Y55.2852
G01 X84.1637 Y55.3106
G01 X84.1558 Y55.3415
G01 X84.1513 Y55.3718
G01 X84.1500 Y55.3988
G01 X84.1500 Y55.4250
G00 Z1.0000
G00 X84.1500 Y55.4200
G01 F400.00
G01 Z-0.0500
G01 F2500.00
G01 X84.1500 Y55.4250
G01 X84.1450 Y55.4250
G01 X84.1500 Y55.4250
G00 Z1.0000
G00 X84.6000 Y56.3500
G01 F400.00
G01 Z-0.0500
G01 F2500.00
G01 X84.6000 Y56.6711
G01 X84.5208 Y56.7503
G01 X84.2045 Y56.7526
G01 X84.1118 Y56.7435
G01 X84.0270 Y56.7177
G01 X83.9488 Y56.6760
G01 X83.8803 Y56.6197
G01 X83.8240 Y56.5512
G01 X83.7823 Y56.4730
G01 X83.7565 Y56.3882
G01 X83.7474 Y56.2956
G01 X83.7496 Y56.1044
G01 X83.8289 Y56.0250
G01 X84.1500 Y56.0250
G01 X84.1500 Y56.0512
G01 X84.1513 Y56.0782
G01 X84.1558 Y56.1085
G01 X84.1637 Y56.1394
G01 X84.1728 Y56.1648
G01 X84.1843 Y56.1892
G01 X84.2006 Y56.2167
G01 X84.2197 Y56.2422
G01 X84.2379 Y56.2621
G01 X84.2578 Y56.2803
G01 X84.2823 Y56.2987
G01 X84.3086 Y56.3146
G01 X84.3352 Y56.3272
G01 X84.3629 Y56.3371
G01 X84.3927 Y56.3445
G01 X84.4206 Y56.3486
G01 X84.4488 Y56.3500
G01 X84.6000 Y56.3500
G00 Z1.0000
G00 X84.5950 Y56.3500
G01 F400.00
G01 Z-0.0500
G01 F2500.00
G01 X84.6000 Y56.3500
G01 X84.6000 Y56.3550
G01 X84.6000 Y56.3500
G00 Z1.0000
G00 X85.2000 Y56.3500
G01 F400.00
G01 Z-0.0500
G01 F2500.00
G01 X85.3512 Y56.3500
G01 X85.3794 Y56.3486
G01 X85.4073 Y56.3445
G01 X85.4371 Y56.3371
G01 X85.4648 Y56.3272
G01 X85.4914 Y56.3146
G01 X85.5177 Y56.2987
G01 X85.5422 Y56.2803
G01 X85.5621 Y56.2621
G01 X85.5803 Y56.2422
G01 X85.5994 Y56.2167
G01 X85.6157 Y56.1892
G01 X85.6272 Y56.1648
G01 X85.6363 Y56.1394
G01 X85.6442 Y56.1085
G01 X85.6487 Y56.0782
G01 X85.6500 Y56.0512
G01 X85.6500 Y56.0250
G01 X85.9711 Y56.0250
G01 X86.0504 Y56.1044
G01 X86.0526 Y56.2956
G01 X86.0435 Y56.3882
G01 X86.0177 Y56.4730
G01 X85.9760 Y56.5512
G01 X85.9197 Y56.6197
G01 X85.8512 Y56.6760
G01 X85.7730 Y56.7177
G01 X85.6882 Y56.7435
G01 X85.5955 Y56.7526
G01 X85.2792 Y56.7503
G01 X85.2000 Y56.6711
G01 X85.2000 Y56.3500
G00 Z1.0000
G00 X85.2000 Y56.3550
G01 F400.00
G01 Z-0.0500
G01 F2500.00
G01 X85.2000 Y56.3500
G01 X85.2050 Y56.3500
G01 X85.2000 Y56.3500
G00 Z1.0000
G00 X85.6500 Y55.4250
G01 F400.00
G01 Z-0.0500
G01 F2500.00
G01 X85.6500 Y55.3988
G01 X85.6487 Y55.3718
G01 X85.6442 Y55.3415
G01 X85.6363 Y55.3106
G01 X85.6272 Y55.2852
G01 X85.6157 Y55.2608
G01 X85.5994 Y55.2333
G01 X85.5803 Y55.2078
G01 X85.5621 Y55.1879
G01 X85.5422 Y55.1697
G01 X85.5177 Y55.1513
G01 X85.4914 Y55.1354
G01 X85.4648 Y55.1228
G01 X85.4371 Y55.1129
G01 X85.4073 Y55.1055
G01 X85.3794 Y55.1014
G01 X85.3512 Y55.1000
G01 X85.2000 Y55.1000
G01 X85.2000 Y54.7789
G01 X85.2792 Y54.6997
G01 X85.5955 Y54.6974
G01 X85.6882 Y54.7065
G01 X85.7730 Y54.7323
G01 X85.8512 Y54.7740
G01 X85.9197 Y54.8303
G01 X85.9760 Y54.8988
G01 X86.0177 Y54.9770
G01 X86.0435 Y55.0618
G01 X86.0526 Y55.1544
G01 X86.0504 Y55.3456
G01 X85.9711 Y55.4250
G01 X85.6500 Y55.4250
G00 Z1.0000
G00 X85.6550 Y55.4250
G01 F400.00
G01 Z-0.0500
G01 F2500.00
G01 X85.6500 Y55.4250
G01 X85.6500 Y55.4200
G01 X85.6500 Y55.4250
G00 Z1.0000
G00 X87.1500 Y55.4250
G01 F400.00
G01 Z-0.0500
G01 F2500.00
G01 X86.8289 Y55.4250
G01 X86.7496 Y55.3456
G01 X86.7474 Y55.1544
G01 X86.7565 Y55.0618
G01 X86.7823 Y54.9770
G01 X86.8240 Y54.8988
G01 X86.8803 Y54.8303
G01 X86.9488 Y54.7740
G01 X87.0270 Y54.7323
G01 X87.1118 Y54.7065
G01 X87.2045 Y54.6974
G01 X87.5208 Y54.6997
G01 X87.6000 Y54.7789
G01 X87.6000 Y55.1000
G01 X87.4488 Y55.1000
G01 X87.4206 Y55.1014
G01 X87.3927 Y55.1055
G01 X87.3629 Y55.1129
G01 X87.3352 Y55.1228
G01 X87.3086 Y55.1354
G01 X87.2823 Y55.1513
G01 X87.2578 Y55.1697
G01 X87.2379 Y55.1879
G01 X87.2197 Y55.2078
G01 X87.2006 Y55.2333
G01 X87.1843 Y55.2608
G01 X87.1728 Y55.2852
G01 X87.1637 Y55.3106
G01 X87.1558 Y55.3415
G01 X87.1513 Y55.3718
G01 X87.1500 Y55.3988
G01 X87.1500 Y55.4250
G00 Z1.0000
G00 X87.1500 Y55.4200
G01 F400.00
G01 Z-0.0500
G01 F2500.00
G01 X87.1500 Y55.4250
G01 X87.1450 Y55.4250
G01 X87.1500 Y55.4250
G00 Z1.0000
G00 X87.6000 Y56.3500
G01 F400.00
G01 Z-0.0500
G01 F2500.00
G01 X87.6000 Y56.6711
G01 X87.5208 Y56.7503
G01 X87.2045 Y56.7526
G01 X87.1118 Y56.7435
G01 X87.0270 Y56.7177
G01 X86.9488 Y56.6760
G01 X86.8803 Y56.6197
G01 X86.8240 Y56.5512
G01 X86.7823 Y56.4730
G01 X86.7565 Y56.3882
G01 X86.7474 Y56.2956
G01 X86.7496 Y56.1044
G01 X86.8289 Y56.0250
G01 X87.1500 Y56.0250
G01 X87.1500 Y56.0512
G01 X87.1513 Y56.0782
G01 X87.1558 Y56.1085
G01 X87.1637 Y56.1394
G01 X87.1728 Y56.1648
G01 X87.1843 Y56.1892
G01 X87.2006 Y56.2167
G01 X87.2197 Y56.2422
G01 X87.2379 Y56.2621
G01 X87.2578 Y56.2803
G01 X87.2823 Y56.2987
G01 X87.3086 Y56.3146
G01 X87.3352 Y56.3272
G01 X87.3629 Y56.3371
G01 X87.3927 Y56.3445
G01 X87.4206 Y56.3486
G01 X87.4488 Y56.3500
G01 X87.6000 Y56.3500
G00 Z1.0000
G00 X87.5950 Y56.3500
G01 F400.00
G01 Z-0.0500
G01 F2500.00
G01 X87.6000 Y56.3500
G01 X87.6000 Y56.3550
G01 X87.6000 Y56.3500
G00 Z1.0000
G00 X88.6500 Y56.0250
G01 F400.00
G01 Z-0.0500
G01 F2500.00
G01 X88.9711 Y56.0250
G01 X89.0504 Y56.1044
G01 X89.0526 Y56.2956
G01 X89.0435 Y56.3882
G01 X89.0177 Y56.4730
G01 X88.9760 Y56.5512
G01 X88.9197 Y56.6197
G01 X88.8512 Y56.6760
G01 X88.7730 Y56.7177
G01 X88.6882 Y56.7435
G01 X88.5955 Y56.7526
G01 X88.2792 Y56.7503
G01 X88.2000 Y56.6711
G01 X88.2000 Y56.3500
G01 X88.3512 Y56.3500
G01 X88.3794 Y56.3486
G01 X88.4073 Y56.3445
G01 X88.4371 Y56.3371
G01 X88.4648 Y56.3272
G01 X88.4914 Y56.3146
G01 X88.5177 Y56.2987
G01 X88.5422 Y56.2803
G01 X88.5621 Y56.2621
G01 X88.5803 Y56.2422
G01 X88.5994 Y56.2167
G01 X88.6157 Y56.1892
G01 X88.6272 Y56.1648
G01 X88.6363 Y56.1394
G01 X88.6442 Y56.1085
G01 X88.6487 Y56.0782
G01 X88.6500 Y56.0512
G01 X88.6500 Y56.0250
G00 Z1.0000
G00 X88.6500 Y56.0300
G01 F400.00
G01 Z-0.0500
G01 F2500.00
G01 X88.6500 Y56.0250
G01 X88.6550 Y56.0250
G01 X88.6500 Y56.0250
G00 Z1.0000
G00 X88.6500 Y55.4250
G01 F400.00
G01 Z-0.0500
G01 F2500.00
G01 X88.6500 Y55.3988
G01 X88.6487 Y55.3718
G01 X88.6442 Y55.3415
G01 X88.6363 Y55.3106
G01 X88.6272 Y55.2852
G01 X88.6157 Y55.2608
G01 X88.5994 Y55.2333
G01 X88.5803 Y55.2078
G01 X88.5621 Y55.1879
G01 X88.5422 Y55.1697
G01 X88.5177 Y55.1513
G01 X88.4914 Y55.1354
G01 X88.4648 Y55.1228
G01 X88.4371 Y55.1129
G01 X88.4073 Y55.1055
G01 X88.3794 Y55.1014
G01 X88.3512 Y55.1000
G01 X88.2000 Y55.1000
G01 X88.2000 Y54.7789
G01 X88.2792 Y54.6997
G01 X88.5955 Y54.6974
G01 X88.6882 Y54.7065
G01 X88.7730 Y54.7323
G01 X88.8512 Y54.7740
G01 X88.9197 Y54.8303
G01 X88.9760 Y54.8988
G01 X89.0177 Y54.9770
G01 X89.0435 Y55.0618
G01 X89.0526 Y55.1544
G01 X89.0504 Y55.3456
G01 X88.9711 Y55.4250
G01 X88.6500 Y55.4250
G00 Z1.0000
G00 X88.6550 Y55.4250
G01 F400.00
G01 Z-0.0500
G01 F2500.00
G01 X88.6500 Y55.4250
G01 X88.6500 Y55.4200
G01 X88.6500 Y55.4250
G00 Z1.0000
G00 X87.5498 Y51.0500
G01 F400.00
G01 Z-0.0500
G01 F2500.00
G01 X87.5238 Y51.0500
G01 X87.4821 Y51.0478
G01 X87.4421 Y51.0418
G01 X87.4005 Y51.0313
G01 X87.3624 Y51.0176
G01 X87.3247 Y50.9998
G01 X87.2889 Y50.9784
G01 X87.2563 Y50.9543
G01 X87.2245 Y50.9255
G01 X87.1981 Y50.8965
G01 X87.1703 Y50.8590
G01 X87.1502 Y50.8253
G01 X87.1324 Y50.7876
G01 X87.1183 Y50.7484
G01 X87.1084 Y50.7091
G01 X87.1020 Y50.6667
G01 X87.1000 Y50.6250
G01 X87.1000 Y49.3738
G01 X87.1020 Y49.3333
G01 X87.1082 Y49.2921
G01 X87.1183 Y49.2516
G01 X87.1328 Y49.2112
G01 X87.1514 Y49.1725
G01 X87.1716 Y49.1389
G01 X87.1950 Y49.1073
G01 X87.2245 Y49.0745
G01 X87.2554 Y49.0465
G01 X87.2910 Y49.0203
G01 X87.3247 Y49.0002
G01 X87.3601 Y48.9833
G01 X87.4016 Y48.9683
G01 X87.4433 Y48.9579
G01 X87.4833 Y48.9520
G01 X87.5250 Y48.9500
G01 X88.2762 Y48.9500
G01 X88.3167 Y48.9520
G01 X88.3579 Y48.9582
G01 X88.3984 Y48.9683
G01 X88.4388 Y48.9828
G01 X88.4775 Y49.0014
G01 X88.5111 Y49.0216
G01 X88.5427 Y49.0450
G01 X88.5755 Y49.0745
G01 X88.6035 Y49.1054
G01 X88.6297 Y49.1410
G01 X88.6498 Y49.1747
G01 X88.6667 Y49.2101
G01 X88.6817 Y49.2516
G01 X88.6923 Y49.2945
G01 X88.6980 Y49.3333
G01 X88.7000 Y49.3750
G01 X88.7000 Y50.6250
G01 X88.6980 Y50.6667
G01 X88.6918 Y50.7079
G01 X88.6817 Y50.7484
G01 X88.6676 Y50.7876
G01 X88.6498 Y50.8253
G01 X88.6284 Y50.8611
G01 X88.6035 Y50.8946
G01 X88.5746 Y50.9264
G01 X88.5446 Y50.9535
G01 X88.5111 Y50.9784
G01 X88.4753 Y50.9998
G01 X88.4365 Y51.0181
G01 X88.3984 Y51.0317
G01 X88.3567 Y51.0421
G01 X88.3154 Y51.0481
G01 X88.2762 Y51.0500
G01 X88.2501 Y51.0500
G01 X88.2502 Y53.0500
G01 X88.3512 Y53.0500
G01 X88.3794 Y53.0514
G01 X88.4085 Y53.0558
G01 X88.4371 Y53.0629
G01 X88.4648 Y53.0728
G01 X88.4914 Y53.0854
G01 X88.5167 Y53.1006
G01 X88.5403 Y53.1181
G01 X88.5638 Y53.1396
G01 X88.5819 Y53.1597
G01 X88.5980 Y53.1813
G01 X88.6134 Y53.2064
G01 X88.6272 Y53.2352
G01 X88.6371 Y53.2629
G01 X88.6442 Y53.2915
G01 X88.6487 Y53.3230
G01 X88.6500 Y53.3500
G01 X88.6500 Y54.0000
G01 X88.6486 Y54.0294
G01 X88.6440 Y54.0597
G01 X88.6371 Y54.0871
G01 X88.6280 Y54.1125
G01 X88.6146 Y54.1414
G01 X88.5980 Y54.1687
G01 X88.5819 Y54.1903
G01 X88.5638 Y54.2104
G01 X88.5403 Y54.2319
G01 X88.5146 Y54.2508
G01 X88.4914 Y54.2646
G01 X88.4670 Y54.2762
G01 X88.4359 Y54.2874
G01 X88.4085 Y54.2942
G01 X88.3818 Y54.2983
G01 X88.3500 Y54.3000
G01 X87.4500 Y54.3000
G01 X87.4206 Y54.2986
G01 X87.3939 Y54.2947
G01 X87.3629 Y54.2871
G01 X87.3330 Y54.2762
G01 X87.3086 Y54.2646
G01 X87.2854 Y54.2508
G01 X87.2578 Y54.2303
G01 X87.2379 Y54.2121
G01 X87.2197 Y54.1922
G01 X87.2006 Y54.1667
G01 X87.1854 Y54.1414
G01 X87.1738 Y54.1170
G01 X87.1626 Y54.0859
G01 X87.1558 Y54.0585
G01 X87.1517 Y54.0318
G01 X87.1500 Y54.0012
G01 X87.1500 Y53.3500
G01 X87.1514 Y53.3206
G01 X87.1558 Y53.2915
G01 X87.1629 Y53.2629
G01 X87.1724 Y53.2363
G01 X87.1854 Y53.2086
G01 X87.1992 Y53.1854
G01 X87.2197 Y53.1578
G01 X87.2379 Y53.1379
G01 X87.2597 Y53.1181
G01 X87.2833 Y53.1006
G01 X87.3097 Y53.0849
G01 X87.3352 Y53.0728
G01 X87.3629 Y53.0629
G01 X87.3915 Y53.0558
G01 X87.4182 Y53.0517
G01 X87.4488 Y53.0500
G01 X87.5499 Y53.0500
G01 X87.5498 Y51.0500
G00 Z1.0000
G00 X87.5498 Y51.0550
G01 F400.00
G01 Z-0.0500
G01 F2500.00
G01 X87.5498 Y51.0500
G01 X87.5448 Y51.0500
G01 X87.5498 Y51.0500
G00 Z1.0000
G00 X86.9988 Y50.6201
G01 F400.00
G01 Z-0.0500
G01 F2500.00
G01 X86.9988 Y49.3799
G01 X87.0094 Y49.2724
G01 X87.0393 Y49.1738
G01 X87.0879 Y49.0829
G01 X87.1533 Y49.0033
G01 X87.2329 Y48.9379
G01 X87.3238 Y48.8893
G01 X87.4224 Y48.8594
G01 X87.5299 Y48.8488
G01 X88.2701 Y48.8488
G01 X88.3776 Y48.8594
G01 X88.4762 Y48.8893
G01 X88.5671 Y48.9379
G01 X88.6467 Y49.0033
G01 X88.7121 Y49.0829
G01 X88.7607 Y49.1738
G01 X88.7906 Y49.2724
G01 X88.8012 Y49.3799
G01 X88.8012 Y50.6201
G01 X88.7906 Y50.7276
G01 X88.7607 Y50.8262
G01 X88.7121 Y50.9171
G01 X88.6467 Y50.9967
G01 X88.5671 Y51.0621
G01 X88.4762 Y51.1107
G01 X88.4210 Y51.1274
G01 X88.4129 Y51.1303
G01 X88.4007 Y51.1361
G01 X88.3944 Y51.1400
G01 X88.3875 Y51.1451
G01 X88.3802 Y51.1516
G01 X88.3743 Y51.1578
G01 X88.3655 Y51.1697
G01 X88.3618 Y51.1760
G01 X88.3576 Y51.1849
G01 X88.3543 Y51.1941
G01 X88.3519 Y51.2036
G01 X88.3505 Y51.2133
G01 X88.3500 Y51.2232
G01 X88.3500 Y52.8603
G01 X88.3508 Y52.8713
G01 X88.3519 Y52.8786
G01 X88.3536 Y52.8858
G01 X88.3571 Y52.8962
G01 X88.3618 Y52.9062
G01 X88.3675 Y52.9157
G01 X88.3743 Y52.9244
G01 X88.3810 Y52.9315
G01 X88.3865 Y52.9364
G01 X88.3924 Y52.9408
G01 X88.4039 Y52.9479
G01 X88.4117 Y52.9515
G01 X88.4186 Y52.9540
G01 X88.5033 Y52.9798
G01 X88.5726 Y53.0168
G01 X88.6333 Y53.0667
G01 X88.6832 Y53.1274
G01 X88.7202 Y53.1967
G01 X88.7430 Y53.2718
G01 X88.7512 Y53.3549
G01 X88.7512 Y53.9951
G01 X88.7430 Y54.0782
G01 X88.7202 Y54.1533
G01 X88.6832 Y54.2226
G01 X88.6333 Y54.2833
G01 X88.5726 Y54.3332
G01 X88.5033 Y54.3702
G01 X88.4282 Y54.3930
G01 X88.3451 Y54.4012
G01 X87.4549 Y54.4012
G01 X87.3718 Y54.3930
G01 X87.2967 Y54.3702
G01 X87.2274 Y54.3332
G01 X87.1667 Y54.2833
G01 X87.1168 Y54.2226
G01 X87.0798 Y54.1533
G01 X87.0570 Y54.0782
G01 X87.0488 Y53.9951
G01 X87.0488 Y53.3549
G01 X87.0570 Y53.2718
G01 X87.0798 Y53.1967
G01 X87.1168 Y53.1274
G01 X87.1667 Y53.0667
G01 X87.2274 Y53.0168
G01 X87.2967 Y52.9798
G01 X87.3814 Y52.9540
G01 X87.3883 Y52.9515
G01 X87.3961 Y52.9479
G01 X87.4066 Y52.9416
G01 X87.4135 Y52.9364
G01 X87.4216 Y52.9289
G01 X87.4281 Y52.9216
G01 X87.4345 Y52.9126
G01 X87.4393 Y52.9041
G01 X87.4424 Y52.8974
G01 X87.4449 Y52.8905
G01 X87.4478 Y52.8798
G01 X87.4494 Y52.8701
G01 X87.4500 Y52.8591
G01 X87.4500 Y51.2219
G01 X87.4495 Y51.2133
G01 X87.4478 Y51.2024
G01 X87.4453 Y51.1929
G01 X87.4414 Y51.1826
G01 X87.4382 Y51.1760
G01 X87.4345 Y51.1697
G01 X87.4288 Y51.1616
G01 X87.4216 Y51.1533
G01 X87.4144 Y51.1466
G01 X87.4035 Y51.1387
G01 X87.3961 Y51.1344
G01 X87.3871 Y51.1303
G01 X87.3790 Y51.1274
G01 X87.3238 Y51.1107
G01 X87.2329 Y51.0621
G01 X87.1533 Y50.9967
G01 X87.0879 Y50.9171
G01 X87.0393 Y50.8262
G01 X87.0094 Y50.7276
G01 X86.9988 Y50.6201
G00 Z1.0000
G00 X86.9993 Y50.6251
G01 F400.00
G01 Z-0.0500
G01 F2500.00
G01 X86.9988 Y50.6201
G01 X86.9988 Y50.6151
G01 X86.9988 Y50.6201
G00 Z1.0000
G00 X84.5498 Y51.0500
G01 F400.00
G01 Z-0.0500
G01 F2500.00
G01 X84.5238 Y51.0500
G01 X84.4821 Y51.0478
G01 X84.4421 Y51.0418
G01 X84.4005 Y51.0313
G01 X84.3624 Y51.0176
G01 X84.3247 Y50.9998
G01 X84.2889 Y50.9784
G01 X84.2563 Y50.9543
G01 X84.2245 Y50.9255
G01 X84.1981 Y50.8965
G01 X84.1703 Y50.8590
G01 X84.1502 Y50.8253
G01 X84.1324 Y50.7876
G01 X84.1183 Y50.7484
G01 X84.1084 Y50.7091
G01 X84.1020 Y50.6667
G01 X84.1000 Y50.6250
G01 X84.1000 Y49.3738
G01 X84.1020 Y49.3333
G01 X84.1082 Y49.2921
G01 X84.1183 Y49.2516
G01 X84.1328 Y49.2112
G01 X84.1514 Y49.1725
G01 X84.1716 Y49.1389
G01 X84.1950 Y49.1073
G01 X84.2245 Y49.0745
G01 X84.2554 Y49.0465
G01 X84.2910 Y49.0203
G01 X84.3247 Y49.0002
G01 X84.3601 Y48.9833
G01 X84.4016 Y48.9683
G01 X84.4433 Y48.9579
G01 X84.4833 Y48.9520
G01 X84.5250 Y48.9500
G01 X85.2762 Y48.9500
G01 X85.3167 Y48.9520
G01 X85.3579 Y48.9582
G01 X85.3984 Y48.9683
G01 X85.4388 Y48.9828
G01 X85.4775 Y49.0014
G01 X85.5111 Y49.0216
G01 X85.5427 Y49.0450
G01 X85.5755 Y49.0745
G01 X85.6035 Y49.1054
G01 X85.6297 Y49.1410
G01 X85.6498 Y49.1747
G01 X85.6667 Y49.2101
G01 X85.6817 Y49.2516
G01 X85.6923 Y49.2945
G01 X85.6980 Y49.3333
G01 X85.7000 Y49.3750
G01 X85.7000 Y50.6250
G01 X85.6980 Y50.6667
G01 X85.6918 Y50.7079
G01 X85.6817 Y50.7484
G01 X85.6676 Y50.7876
G01 X85.6498 Y50.8253
G01 X85.6284 Y50.8611
G01 X85.6035 Y50.8946
G01 X85.5746 Y50.9264
G01 X85.5446 Y50.9535
G01 X85.5111 Y50.9784
G01 X85.4753 Y50.9998
G01 X85.4365 Y51.0181
G01 X85.3984 Y51.0317
G01 X85.3567 Y51.0421
G01 X85.3154 Y51.0481
G01 X85.2762 Y51.0500
G01 X85.2501 Y51.0500
G01 X85.2502 Y53.0500
G01 X85.3512 Y53.0500
G01 X85.3794 Y53.0514
G01 X85.4085 Y53.0558
G01 X85.4371 Y53.0629
G01 X85.4648 Y53.0728
G01 X85.4914 Y53.0854
G01 X85.5167 Y53.1006
G01 X85.5403 Y53.1181
G01 X85.5638 Y53.1396
G01 X85.5819 Y53.1597
G01 X85.5980 Y53.1813
G01 X85.6134 Y53.2064
G01 X85.6272 Y53.2352
G01 X85.6371 Y53.2629
G01 X85.6442 Y53.2915
G01 X85.6487 Y53.3230
G01 X85.6500 Y53.3500
G01 X85.6500 Y54.0000
G01 X85.6486 Y54.0294
G01 X85.6440 Y54.0597
G01 X85.6371 Y54.0871
G01 X85.6280 Y54.1125
G01 X85.6146 Y54.1414
G01 X85.5980 Y54.1687
G01 X85.5819 Y54.1903
G01 X85.5638 Y54.2104
G01 X85.5403 Y54.2319
G01 X85.5146 Y54.2508
G01 X85.4914 Y54.2646
G01 X85.4670 Y54.2762
G01 X85.4359 Y54.2874
G01 X85.4085 Y54.2942
G01 X85.3818 Y54.2983
G01 X85.3500 Y54.3000
G01 X84.4500 Y54.3000
G01 X84.4206 Y54.2986
G01 X84.3939 Y54.2947
G01 X84.3629 Y54.2871
G01 X84.3330 Y54.2762
G01 X84.3086 Y54.2646
G01 X84.2854 Y54.2508
G01 X84.2578 Y54.2303
G01 X84.2379 Y54.2121
G01 X84.2197 Y54.1922
G01 X84.2006 Y54.1667
G01 X84.1854 Y54.1414
G01 X84.1738 Y54.1170
G01 X84.1626 Y54.0859
G01 X84.1558 Y54.0585
G01 X84.1517 Y54.0318
G01 X84.1500 Y54.0012
G01 X84.1500 Y53.3500
G01 X84.1514 Y53.3206
G01 X84.1558 Y53.2915
G01 X84.1629 Y53.2629
G01 X84.1724 Y53.2363
G01 X84.1854 Y53.2086
G01 X84.1992 Y53.1854
G01 X84.2197 Y53.1578
G01 X84.2379 Y53.1379
G01 X84.2597 Y53.1181
G01 X84.2833 Y53.1006
G01 X84.3097 Y53.0849
G01 X84.3352 Y53.0728
G01 X84.3629 Y53.0629
G01 X84.3915 Y53.0558
G01 X84.4182 Y53.0517
G01 X84.4488 Y53.0500
G01 X84.5499 Y53.0500
G01 X84.5498 Y51.0500
G00 Z1.0000
G00 X84.5498 Y51.0550
G01 F400.00
G01 Z-0.0500
G01 F2500.00
G01 X84.5498 Y51.0500
G01 X84.5448 Y51.0500
G01 X84.5498 Y51.0500
G00 Z1.0000
G00 X83.9988 Y50.6201
G01 F400.00
G01 Z-0.0500
G01 F2500.00
G01 X83.9988 Y49.3799
G01 X84.0094 Y49.2724
G01 X84.0393 Y49.1738
G01 X84.0879 Y49.0829
G01 X84.1533 Y49.0033
G01 X84.2329 Y48.9379
G01 X84.3238 Y48.8893
G01 X84.4224 Y48.8594
G01 X84.5299 Y48.8488
G01 X85.2701 Y48.8488
G01 X85.3776 Y48.8594
G01 X85.4762 Y48.8893
G01 X85.5671 Y48.9379
G01 X85.6467 Y49.0033
G01 X85.7121 Y49.0829
G01 X85.7607 Y49.1738
G01 X85.7906 Y49.2724
G01 X85.8012 Y49.3799
G01 X85.8012 Y50.6201
G01 X85.7906 Y50.7276
G01 X85.7607 Y50.8262
G01 X85.7121 Y50.9171
G01 X85.6467 Y50.9967
G01 X85.5671 Y51.0621
G01 X85.4762 Y51.1107
G01 X85.4210 Y51.1274
G01 X85.4129 Y51.1303
G01 X85.4007 Y51.1361
G01 X85.3944 Y51.1400
G01 X85.3875 Y51.1451
G01 X85.3802 Y51.1516
G01 X85.3743 Y51.1578
G01 X85.3655 Y51.1697
G01 X85.3618 Y51.1760
G01 X85.3576 Y51.1849
G01 X85.3543 Y51.1941
G01 X85.3519 Y51.2036
G01 X85.3505 Y51.2133
G01 X85.3500 Y51.2232
G01 X85.3500 Y52.8603
G01 X85.3508 Y52.8713
G01 X85.3519 Y52.8786
G01 X85.3536 Y52.8858
G01 X85.3571 Y52.8962
G01 X85.3618 Y52.9062
G01 X85.3675 Y52.9157
G01 X85.3743 Y52.9244
G01 X85.3793 Y52.9298
G01 X85.3847 Y52.9348
G01 X85.3924 Y52.9408
G01 X85.4039 Y52.9479
G01 X85.4117 Y52.9515
G01 X85.4186 Y52.9540
G01 X85.5033 Y52.9798
G01 X85.5726 Y53.0168
G01 X85.6333 Y53.0667
G01 X85.6832 Y53.1274
G01 X85.7202 Y53.1967
G01 X85.7430 Y53.2718
G01 X85.7512 Y53.3549
G01 X85.7512 Y53.9951
G01 X85.7430 Y54.0782
G01 X85.7202 Y54.1533
G01 X85.6832 Y54.2226
G01 X85.6333 Y54.2833
G01 X85.5726 Y54.3332
G01 X85.5033 Y54.3702
G01 X85.4282 Y54.3930
G01 X85.3451 Y54.4012
G01 X84.4549 Y54.4012
G01 X84.3718 Y54.3930
G01 X84.2967 Y54.3702
G01 X84.2274 Y54.3332
G01 X84.1667 Y54.2833
G01 X84.1168 Y54.2226
G01 X84.0798 Y54.1533
G01 X84.0570 Y54.0782
G01 X84.0488 Y53.9951
G01 X84.0488 Y53.3549
G01 X84.0570 Y53.2718
G01 X84.0798 Y53.1967
G01 X84.1168 Y53.1274
G01 X84.1667 Y53.0667
G01 X84.2274 Y53.0168
G01 X84.2967 Y52.9798
G01 X84.3814 Y52.9540
G01 X84.3883 Y52.9515
G01 X84.3961 Y52.9479
G01 X84.4066 Y52.9416
G01 X84.4135 Y52.9364
G01 X84.4216 Y52.9289
G01 X84.4281 Y52.9216
G01 X84.4345 Y52.9126
G01 X84.4382 Y52.9062
G01 X84.4414 Y52.8996
G01 X84.4449 Y52.8905
G01 X84.4478 Y52.8798
G01 X84.4494 Y52.8701
G01 X84.4500 Y52.8591
G01 X84.4500 Y51.2219
G01 X84.4495 Y51.2133
G01 X84.4478 Y51.2024
G01 X84.4453 Y51.1929
G01 X84.4414 Y51.1826
G01 X84.4382 Y51.1760
G01 X84.4345 Y51.1697
G01 X84.4288 Y51.1616
G01 X84.4216 Y51.1533
G01 X84.4144 Y51.1466
G01 X84.4066 Y51.1407
G01 X84.3993 Y51.1361
G01 X84.3871 Y51.1303
G01 X84.3790 Y51.1274
G01 X84.3238 Y51.1107
G01 X84.2329 Y51.0621
G01 X84.1533 Y50.9967
G01 X84.0879 Y50.9171
G01 X84.0393 Y50.8262
G01 X84.0094 Y50.7276
G01 X83.9988 Y50.6201
G00 Z1.0000
G00 X83.9993 Y50.6251
G01 F400.00
G01 Z-0.0500
G01 F2500.00
G01 X83.9988 Y50.6201
G01 X83.9988 Y50.6151
G01 X83.9988 Y50.6201
G00 Z1.0000
G00 X82.8012 Y50.6201
G01 F400.00
G01 Z-0.0500
G01 F2500.00
G01 X82.7906 Y50.7276
G01 X82.7607 Y50.8262
G01 X82.7121 Y50.9171
G01 X82.6467 Y50.9967
G01 X82.5671 Y51.0621
G01 X82.4762 Y51.1107
G01 X82.4210 Y51.1274
G01 X82.4129 Y51.1303
G01 X82.4039 Y51.1344
G01 X82.3965 Y51.1387
G01 X82.3856 Y51.1466
G01 X82.3784 Y51.1533
G01 X82.3712 Y51.1616
G01 X82.3655 Y51.1697
G01 X82.3618 Y51.1760
G01 X82.3586 Y51.1826
G01 X82.3547 Y51.1929
G01 X82.3522 Y51.2024
G01 X82.3505 Y51.2133
G01 X82.3500 Y51.2219
G01 X82.3500 Y52.8591
G01 X82.3506 Y52.8701
G01 X82.3522 Y52.8798
G01 X82.3551 Y52.8905
G01 X82.3576 Y52.8974
G01 X82.3607 Y52.9041
G01 X82.3655 Y52.9126
G01 X82.3719 Y52.9216
G01 X82.3784 Y52.9289
G01 X82.3865 Y52.9364
G01 X82.3934 Y52.9416
G01 X82.4039 Y52.9479
G01 X82.4117 Y52.9515
G01 X82.4186 Y52.9540
G01 X82.5033 Y52.9798
G01 X82.5726 Y53.0168
G01 X82.6333 Y53.0667
G01 X82.6832 Y53.1274
G01 X82.7202 Y53.1967
G01 X82.7430 Y53.2718
G01 X82.7512 Y53.3549
G01 X82.7512 Y53.9951
G01 X82.7430 Y54.0782
G01 X82.7202 Y54.1533
G01 X82.6832 Y54.2226
G01 X82.6333 Y54.2833
G01 X82.5726 Y54.3332
G01 X82.5033 Y54.3702
G01 X82.4282 Y54.3930
G01 X82.3451 Y54.4012
G01 X81.4549 Y54.4012
G01 X81.3718 Y54.3930
G01 X81.2967 Y54.3702
G01 X81.2274 Y54.3332
G01 X81.1667 Y54.2833
G01 X81.1168 Y54.2226
G01 X81.0798 Y54.1533
G01 X81.0570 Y54.0782
G01 X81.0488 Y53.9951
G01 X81.0488 Y53.3549
G01 X81.0570 Y53.2718
G01 X81.0798 Y53.1967
G01 X81.1168 Y53.1274
G01 X81.1667 Y53.0667
G01 X81.2274 Y53.0168
G01 X81.2967 Y52.9798
G01 X81.3814 Y52.9540
G01 X81.3883 Y52.9515
G01 X81.3961 Y52.9479
G01 X81.4076 Y52.9409
G01 X81.4135 Y52.9364
G01 X81.4190 Y52.9315
G01 X81.4257 Y52.9244
G01 X81.4325 Y52.9157
G01 X81.4382 Y52.9062
G01 X81.4429 Y52.8962
G01 X81.4464 Y52.8858
G01 X81.4481 Y52.8786
G01 X81.4492 Y52.8713
G01 X81.4500 Y52.8603
G01 X81.4500 Y51.2231
G01 X81.4495 Y51.2133
G01 X81.4481 Y51.2036
G01 X81.4457 Y51.1941
G01 X81.4424 Y51.1849
G01 X81.4382 Y51.1760
G01 X81.4345 Y51.1697
G01 X81.4257 Y51.1578
G01 X81.4198 Y51.1516
G01 X81.4125 Y51.1451
G01 X81.4056 Y51.1400
G01 X81.3993 Y51.1361
G01 X81.3871 Y51.1303
G01 X81.3790 Y51.1274
G01 X81.3238 Y51.1107
G01 X81.2329 Y51.0621
G01 X81.1533 Y50.9967
G01 X81.0879 Y50.9171
G01 X81.0393 Y50.8262
G01 X81.0094 Y50.7276
G01 X80.9988 Y50.6201
G01 X80.9988 Y49.3799
G01 X81.0094 Y49.2724
G01 X81.0393 Y49.1738
G01 X81.0879 Y49.0829
G01 X81.1533 Y49.0033
G01 X81.2329 Y48.9379
G01 X81.3238 Y48.8893
G01 X81.4224 Y48.8594
G01 X81.5299 Y48.8488
G01 X82.2701 Y48.8488
G01 X82.3776 Y48.8594
G01 X82.4762 Y48.8893
G01 X82.5671 Y48.9379
G01 X82.6467 Y49.0033
G01 X82.7121 Y49.0829
G01 X82.7607 Y49.1738
G01 X82.7906 Y49.2724
G01 X82.8012 Y49.3799
G01 X82.8012 Y50.6201
G00 Z1.0000
G00 X82.8012 Y50.6151
G01 F400.00
G01 Z-0.0500
G01 F2500.00
G01 X82.8012 Y50.6201
G01 X82.8007 Y50.6251
G01 X82.8012 Y50.6201
G00 Z1.0000
G00 X81.5498 Y51.0500
G01 F400.00
G01 Z-0.0500
G01 F2500.00
G01 X81.5238 Y51.0500
G01 X81.4821 Y51.0478
G01 X81.4421 Y51.0418
G01 X81.4005 Y51.0313
G01 X81.3624 Y51.0176
G01 X81.3247 Y50.9998
G01 X81.2889 Y50.9784
G01 X81.2563 Y50.9543
G01 X81.2245 Y50.9255
G01 X81.1981 Y50.8965
G01 X81.1703 Y50.8590
G01 X81.1502 Y50.8253
G01 X81.1324 Y50.7876
G01 X81.1183 Y50.7484
G01 X81.1084 Y50.7091
G01 X81.1020 Y50.6667
G01 X81.1000 Y50.6250
G01 X81.1000 Y49.3738
G01 X81.1020 Y49.3333
G01 X81.1082 Y49.2921
G01 X81.1183 Y49.2516
G01 X81.1328 Y49.2112
G01 X81.1514 Y49.1725
G01 X81.1716 Y49.1389
G01 X81.1950 Y49.1073
G01 X81.2245 Y49.0745
G01 X81.2554 Y49.0465
G01 X81.2910 Y49.0203
G01 X81.3247 Y49.0002
G01 X81.3601 Y48.9833
G01 X81.4016 Y48.9683
G01 X81.4433 Y48.9579
G01 X81.4833 Y48.9520
G01 X81.5250 Y48.9500
G01 X82.2762 Y48.9500
G01 X82.3167 Y48.9520
G01 X82.3579 Y48.9582
G01 X82.3984 Y48.9683
G01 X82.4388 Y48.9828
G01 X82.4775 Y49.0014
G01 X82.5111 Y49.0216
G01 X82.5427 Y49.0450
G01 X82.5755 Y49.0745
G01 X82.6035 Y49.1054
G01 X82.6297 Y49.1410
G01 X82.6498 Y49.1747
G01 X82.6667 Y49.2101
G01 X82.6817 Y49.2516
G01 X82.6923 Y49.2945
G01 X82.6980 Y49.3333
G01 X82.7000 Y49.3750
G01 X82.7000 Y50.6250
G01 X82.6980 Y50.6667
G01 X82.6918 Y50.7079
G01 X82.6817 Y50.7484
G01 X82.6676 Y50.7876
G01 X82.6498 Y50.8253
G01 X82.6284 Y50.8611
G01 X82.6035 Y50.8946
G01 X82.5746 Y50.9264
G01 X82.5446 Y50.9535
G01 X82.5111 Y50.9784
G01 X82.4753 Y50.9998
G01 X82.4365 Y51.0181
G01 X82.3984 Y51.0317
G01 X82.3567 Y51.0421
G01 X82.3154 Y51.0481
G01 X82.2762 Y51.0500
G01 X82.2501 Y51.0500
G01 X82.2502 Y53.0500
G01 X82.3512 Y53.0500
G01 X82.3794 Y53.0514
G01 X82.4085 Y53.0558
G01 X82.4371 Y53.0629
G01 X82.4648 Y53.0728
G01 X82.4914 Y53.0854
G01 X82.5167 Y53.1006
G01 X82.5403 Y53.1181
G01 X82.5638 Y53.1396
G01 X82.5819 Y53.1597
G01 X82.5980 Y53.1813
G01 X82.6134 Y53.2064
G01 X82.6272 Y53.2352
G01 X82.6371 Y53.2629
G01 X82.6442 Y53.2915
G01 X82.6487 Y53.3230
G01 X82.6500 Y53.3500
G01 X82.6500 Y54.0000
G01 X82.6486 Y54.0294
G01 X82.6440 Y54.0597
G01 X82.6371 Y54.0871
G01 X82.6280 Y54.1125
G01 X82.6146 Y54.1414
G01 X82.5980 Y54.1687
G01 X82.5819 Y54.1903
G01 X82.5638 Y54.2104
G01 X82.5403 Y54.2319
G01 X82.5146 Y54.2508
G01 X82.4914 Y54.2646
G01 X82.4670 Y54.2762
G01 X82.4359 Y54.2874
G01 X82.4085 Y54.2942
G01 X82.3818 Y54.2983
G01 X82.3500 Y54.3000
G01 X81.4500 Y54.3000
G01 X81.4206 Y54.2986
G01 X81.3939 Y54.2947
G01 X81.3629 Y54.2871
G01 X81.3330 Y54.2762
G01 X81.3086 Y54.2646
G01 X81.2854 Y54.2508
G01 X81.2578 Y54.2303
G01 X81.2379 Y54.2121
G01 X81.2197 Y54.1922
G01 X81.2006 Y54.1667
G01 X81.1854 Y54.1414
G01 X81.1738 Y54.1170
G01 X81.1626 Y54.0859
G01 X81.1558 Y54.0585
G01 X81.1517 Y54.0318
G01 X81.1500 Y54.0012
G01 X81.1500 Y53.3500
G01 X81.1514 Y53.3206
G01 X81.1558 Y53.2915
G01 X81.1629 Y53.2629
G01 X81.1724 Y53.2363
G01 X81.1854 Y53.2086
G01 X81.1992 Y53.1854
G01 X81.2197 Y53.1578
G01 X81.2379 Y53.1379
G01 X81.2597 Y53.1181
G01 X81.2833 Y53.1006
G01 X81.3097 Y53.0849
G01 X81.3352 Y53.0728
G01 X81.3629 Y53.0629
G01 X81.3915 Y53.0558
G01 X81.4182 Y53.0517
G01 X81.4488 Y53.0500
G01 X81.5499 Y53.0500
G01 X81.5498 Y51.0500
G00 Z1.0000
G00 X81.5498 Y51.0550
G01 F400.00
G01 Z-0.0500
G01 F2500.00
G01 X81.5498 Y51.0500
G01 X81.5448 Y51.0500
G01 X81.5498 Y51.0500
G00 Z1.0000
G00 X78.5498 Y51.0500
G01 F400.00
G01 Z-0.0500
G01 F2500.00
G01 X78.5238 Y51.0500
G01 X78.4821 Y51.0478
G01 X78.4421 Y51.0418
G01 X78.4005 Y51.0313
G01 X78.3624 Y51.0176
G01 X78.3247 Y50.9998
G01 X78.2889 Y50.9784
G01 X78.2563 Y50.9543
G01 X78.2245 Y50.9255
G01 X78.1981 Y50.8965
G01 X78.1703 Y50.8590
G01 X78.1502 Y50.8253
G01 X78.1324 Y50.7876
G01 X78.1183 Y50.7484
G01 X78.1084 Y50.7091
G01 X78.1020 Y50.6667
G01 X78.1000 Y50.6250
G01 X78.1000 Y49.3738
G01 X78.1020 Y49.3333
G01 X78.1082 Y49.2921
G01 X78.1183 Y49.2516
G01 X78.1328 Y49.2112
G01 X78.1514 Y49.1725
G01 X78.1716 Y49.1389
G01 X78.1950 Y49.1073
G01 X78.2245 Y49.0745
G01 X78.2554 Y49.0465
G01 X78.2910 Y49.0203
G01 X78.3247 Y49.0002
G01 X78.3601 Y48.9833
G01 X78.4016 Y48.9683
G01 X78.4433 Y48.9579
G01 X78.4833 Y48.9520
G01 X78.5250 Y48.9500
G01 X79.2762 Y48.9500
G01 X79.3167 Y48.9520
G01 X79.3579 Y48.9582
G01 X79.3984 Y48.9683
G01 X79.4388 Y48.9828
G01 X79.4775 Y49.0014
G01 X79.5111 Y49.0216
G01 X79.5427 Y49.0450
G01 X79.5755 Y49.0745
G01 X79.6035 Y49.1054
G01 X79.6297 Y49.1410
G01 X79.6498 Y49.1747
G01 X79.6667 Y49.2101
G01 X79.6817 Y49.2516
G01 X79.6923 Y49.2945
G01 X79.6980 Y49.3333
G01 X79.7000 Y49.3750
G01 X79.7000 Y50.6250
G01 X79.6980 Y50.6667
G01 X79.6918 Y50.7079
G01 X79.6817 Y50.7484
G01 X79.6676 Y50.7876
G01 X79.6498 Y50.8253
G01 X79.6284 Y50.8611
G01 X79.6035 Y50.8946
G01 X79.5746 Y50.9264
G01 X79.5446 Y50.9535
G01 X79.5111 Y50.9784
G01 X79.4753 Y50.9998
G01 X79.4365 Y51.0181
G01 X79.3984 Y51.0317
G01 X79.3567 Y51.0421
G01 X79.3154 Y51.0481
G01 X79.2762 Y51.0500
G01 X79.2501 Y51.0500
G01 X79.2502 Y53.0500
G01 X79.3512 Y53.0500
G01 X79.3794 Y53.0514
G01 X79.4085 Y53.0558
G01 X79.4371 Y53.0629
G01 X79.4648 Y53.0728
G01 X79.4914 Y53.0854
G01 X79.5167 Y53.1006
G01 X79.5403 Y53.1181
G01 X79.5638 Y53.1396
G01 X79.5819 Y53.1597
G01 X79.5980 Y53.1813
G01 X79.6134 Y53.2064
G01 X79.6272 Y53.2352
G01 X79.6371 Y53.2629
G01 X79.6442 Y53.2915
G01 X79.6487 Y53.3230
G01 X79.6500 Y53.3500
G01 X79.6500 Y54.0000
G01 X79.6486 Y54.0294
G01 X79.6440 Y54.0597
G01 X79.6371 Y54.0871
G01 X79.6280 Y54.1125
G01 X79.6146 Y54.1414
G01 X79.5980 Y54.1687
G01 X79.5819 Y54.1903
G01 X79.5638 Y54.2104
G01 X79.5403 Y54.2319
G01 X79.5146 Y54.2508
G01 X79.4914 Y54.2646
G01 X79.4670 Y54.2762
G01 X79.4359 Y54.2874
G01 X79.4085 Y54.2942
G01 X79.3818 Y54.2983
G01 X79.3500 Y54.3000
G01 X78.4500 Y54.3000
G01 X78.4206 Y54.2986
G01 X78.3939 Y54.2947
G01 X78.3629 Y54.2871
G01 X78.3330 Y54.2762
G01 X78.3086 Y54.2646
G01 X78.2854 Y54.2508
G01 X78.2578 Y54.2303
G01 X78.2379 Y54.2121
G01 X78.2197 Y54.1922
G01 X78.2006 Y54.1667
G01 X78.1854 Y54.1414
G01 X78.1738 Y54.1170
G01 X78.1626 Y54.0859
G01 X78.1558 Y54.0585
G01 X78.1517 Y54.0318
G01 X78.1500 Y54.0012
G01 X78.1500 Y53.3500
G01 X78.1514 Y53.3206
G01 X78.1558 Y53.2915
G01 X78.1629 Y53.2629
G01 X78.1724 Y53.2363
G01 X78.1854 Y53.2086
G01 X78.1992 Y53.1854
G01 X78.2197 Y53.1578
G01 X78.2379 Y53.1379
G01 X78.2597 Y53.1181
G01 X78.2833 Y53.1006
G01 X78.3097 Y53.0849
G01 X78.3352 Y53.0728
G01 X78.3629 Y53.0629
G01 X78.3915 Y53.0558
G01 X78.4182 Y53.0517
G01 X78.4488 Y53.0500
G01 X78.5499 Y53.0500
G01 X78.5498 Y51.0500
G00 Z1.0000
G00 X78.5498 Y51.0550
G01 F400.00
G01 Z-0.0500
G01 F2500.00
G01 X78.5498 Y51.0500
G01 X78.5448 Y51.0500
G01 X78.5498 Y51.0500
G00 Z1.0000
G00 X77.9988 Y50.6201
G01 F400.00
G01 Z-0.0500
G01 F2500.00
G01 X77.9988 Y49.3799
G01 X78.0094 Y49.2724
G01 X78.0393 Y49.1738
G01 X78.0879 Y49.0829
G01 X78.1533 Y49.0033
G01 X78.2329 Y48.9379
G01 X78.3238 Y48.8893
G01 X78.4224 Y48.8594
G01 X78.5299 Y48.8488
G01 X79.2701 Y48.8488
G01 X79.3776 Y48.8594
G01 X79.4762 Y48.8893
G01 X79.5671 Y48.9379
G01 X79.6467 Y49.0033
G01 X79.7121 Y49.0829
G01 X79.7607 Y49.1738
G01 X79.7906 Y49.2724
G01 X79.8012 Y49.3799
G01 X79.8012 Y50.6201
G01 X79.7906 Y50.7276
G01 X79.7607 Y50.8262
G01 X79.7121 Y50.9171
G01 X79.6467 Y50.9967
G01 X79.5671 Y51.0621
G01 X79.4762 Y51.1107
G01 X79.4210 Y51.1274
G01 X79.4129 Y51.1303
G01 X79.4007 Y51.1361
G01 X79.3944 Y51.1400
G01 X79.3875 Y51.1451
G01 X79.3802 Y51.1516
G01 X79.3743 Y51.1578
G01 X79.3655 Y51.1697
G01 X79.3618 Y51.1760
G01 X79.3576 Y51.1849
G01 X79.3543 Y51.1941
G01 X79.3519 Y51.2036
G01 X79.3505 Y51.2133
G01 X79.3500 Y51.2232
G01 X79.3500 Y52.8603
G01 X79.3508 Y52.8713
G01 X79.3519 Y52.8786
G01 X79.3536 Y52.8858
G01 X79.3571 Y52.8962
G01 X79.3618 Y52.9062
G01 X79.3675 Y52.9157
G01 X79.3743 Y52.9244
G01 X79.3793 Y52.9298
G01 X79.3847 Y52.9348
G01 X79.3924 Y52.9408
G01 X79.4039 Y52.9479
G01 X79.4117 Y52.9515
G01 X79.4186 Y52.9540
G01 X79.5033 Y52.9798
G01 X79.5726 Y53.0168
G01 X79.6333 Y53.0667
G01 X79.6832 Y53.1274
G01 X79.7202 Y53.1967
G01 X79.7430 Y53.2718
G01 X79.7512 Y53.3549
G01 X79.7512 Y53.9951
G01 X79.7430 Y54.0782
G01 X79.7202 Y54.1533
G01 X79.6832 Y54.2226
G01 X79.6333 Y54.2833
G01 X79.5726 Y54.3332
G01 X79.5033 Y54.3702
G01 X79.4282 Y54.3930
G01 X79.3451 Y54.4012
G01 X78.4549 Y54.4012
G01 X78.3718 Y54.3930
G01 X78.2967 Y54.3702
G01 X78.2274 Y54.3332
G01 X78.1667 Y54.2833
G01 X78.1168 Y54.2226
G01 X78.0798 Y54.1533
G01 X78.0570 Y54.0782
G01 X78.0488 Y53.9951
G01 X78.0488 Y53.3549
G01 X78.0570 Y53.2718
G01 X78.0798 Y53.1967
G01 X78.1168 Y53.1274
G01 X78.1667 Y53.0667
G01 X78.2274 Y53.0168
G01 X78.2967 Y52.9798
G01 X78.3814 Y52.9540
G01 X78.3883 Y52.9515
G01 X78.3961 Y52.9479
G01 X78.4066 Y52.9416
G01 X78.4135 Y52.9364
G01 X78.4216 Y52.9289
G01 X78.4281 Y52.9216
G01 X78.4345 Y52.9126
G01 X78.4382 Y52.9062
G01 X78.4414 Y52.8996
G01 X78.4449 Y52.8905
G01 X78.4478 Y52.8798
G01 X78.4494 Y52.8701
G01 X78.4500 Y52.8591
G01 X78.4500 Y51.2219
G01 X78.4495 Y51.2133
G01 X78.4478 Y51.2024
G01 X78.4453 Y51.1929
G01 X78.4414 Y51.1826
G01 X78.4382 Y51.1760
G01 X78.4345 Y51.1697
G01 X78.4288 Y51.1616
G01 X78.4216 Y51.1533
G01 X78.4144 Y51.1466
G01 X78.4066 Y51.1407
G01 X78.3993 Y51.1361
G01 X78.3871 Y51.1303
G01 X78.3790 Y51.1274
G01 X78.3238 Y51.1107
G01 X78.2329 Y51.0621
G01 X78.1533 Y50.9967
G01 X78.0879 Y50.9171
G01 X78.0393 Y50.8262
G01 X78.0094 Y50.7276
G01 X77.9988 Y50.6201
G00 Z1.0000
G00 X77.9993 Y50.6251
G01 F400.00
G01 Z-0.0500
G01 F2500.00
G01 X77.9988 Y50.6201
G01 X77.9988 Y50.6151
G01 X77.9988 Y50.6201
G00 Z1.0000
G00 X76.8012 Y50.6201
G01 F400.00
G01 Z-0.0500
G01 F2500.00
G01 X76.7906 Y50.7276
G01 X76.7607 Y50.8262
G01 X76.7121 Y50.9171
G01 X76.6467 Y50.9967
G01 X76.5671 Y51.0621
G01 X76.4762 Y51.1107
G01 X76.4210 Y51.1274
G01 X76.4129 Y51.1303
G01 X76.4039 Y51.1344
G01 X76.3965 Y51.1387
G01 X76.3856 Y51.1466
G01 X76.3784 Y51.1533
G01 X76.3712 Y51.1616
G01 X76.3655 Y51.1697
G01 X76.3618 Y51.1760
G01 X76.3586 Y51.1826
G01 X76.3547 Y51.1929
G01 X76.3522 Y51.2024
G01 X76.3505 Y51.2133
G01 X76.3500 Y51.2219
G01 X76.3500 Y52.8591
G01 X76.3506 Y52.8701
G01 X76.3522 Y52.8798
G01 X76.3551 Y52.8905
G01 X76.3576 Y52.8974
G01 X76.3607 Y52.9041
G01 X76.3655 Y52.9126
G01 X76.3719 Y52.9216
G01 X76.3784 Y52.9289
G01 X76.3865 Y52.9364
G01 X76.3934 Y52.9416
G01 X76.4039 Y52.9479
G01 X76.4117 Y52.9515
G01 X76.4186 Y52.9540
G01 X76.5033 Y52.9798
G01 X76.5726 Y53.0168
G01 X76.6333 Y53.0667
G01 X76.6832 Y53.1274
G01 X76.7202 Y53.1967
G01 X76.7430 Y53.2718
G01 X76.7512 Y53.3549
G01 X76.7512 Y53.9951
G01 X76.7430 Y54.0782
G01 X76.7202 Y54.1533
G01 X76.6832 Y54.2226
G01 X76.6333 Y54.2833
G01 X76.5726 Y54.3332
G01 X76.5033 Y54.3702
G01 X76.4282 Y54.3930
G01 X76.3451 Y54.4012
G01 X75.4549 Y54.4012
G01 X75.3718 Y54.3930
G01 X75.2967 Y54.3702
G01 X75.2274 Y54.3332
G01 X75.1667 Y54.2833
G01 X75.1168 Y54.2226
G01 X75.0798 Y54.1533
G01 X75.0570 Y54.0782
G01 X75.0488 Y53.9951
G01 X75.0488 Y53.3549
G01 X75.0570 Y53.2718
G01 X75.0798 Y53.1967
G01 X75.1168 Y53.1274
G01 X75.1667 Y53.0667
G01 X75.2274 Y53.0168
G01 X75.2967 Y52.9798
G01 X75.3814 Y52.9540
G01 X75.3883 Y52.9515
G01 X75.3961 Y52.9479
G01 X75.4076 Y52.9409
G01 X75.4135 Y52.9364
G01 X75.4190 Y52.9315
G01 X75.4257 Y52.9244
G01 X75.4325 Y52.9157
G01 X75.4382 Y52.9062
G01 X75.4429 Y52.8962
G01 X75.4464 Y52.8858
G01 X75.4481 Y52.8786
G01 X75.4492 Y52.8713
G01 X75.4500 Y52.8603
G01 X75.4500 Y51.2231
G01 X75.4495 Y51.2133
G01 X75.4481 Y51.2036
G01 X75.4457 Y51.1941
G01 X75.4424 Y51.1849
G01 X75.4382 Y51.1760
G01 X75.4345 Y51.1697
G01 X75.4257 Y51.1578
G01 X75.4198 Y51.1516
G01 X75.4125 Y51.1451
G01 X75.4056 Y51.1400
G01 X75.3993 Y51.1361
G01 X75.3871 Y51.1303
G01 X75.3790 Y51.1274
G01 X75.3238 Y51.1107
G01 X75.2329 Y51.0621
G01 X75.1533 Y50.9967
G01 X75.0879 Y50.9171
G01 X75.0393 Y50.8262
G01 X75.0094 Y50.7276
G01 X74.9988 Y50.6201
G01 X74.9988 Y49.3799
G01 X75.0094 Y49.2724
G01 X75.0393 Y49.1738
G01 X75.0879 Y49.0829
G01 X75.1533 Y49.0033
G01 X75.2329 Y48.9379
G01 X75.3238 Y48.8893
G01 X75.4224 Y48.8594
G01 X75.5299 Y48.8488
G01 X76.2701 Y48.8488
G01 X76.3776 Y48.8594
G01 X76.4762 Y48.8893
G01 X76.5671 Y48.9379
G01 X76.6467 Y49.0033
G01 X76.7121 Y49.0829
G01 X76.7607 Y49.1738
G01 X76.7906 Y49.2724
G01 X76.8012 Y49.3799
G01 X76.8012 Y50.6201
G00 Z1.0000
G00 X76.8012 Y50.6151
G01 F400.00
G01 Z-0.0500
G01 F2500.00
G01 X76.8012 Y50.6201
G01 X76.8007 Y50.6251
G01 X76.8012 Y50.6201
G00 Z1.0000
G00 X75.5498 Y51.0500
G01 F400.00
G01 Z-0.0500
G01 F2500.00
G01 X75.5238 Y51.0500
G01 X75.4821 Y51.0478
G01 X75.4421 Y51.0418
G01 X75.4005 Y51.0313
G01 X75.3624 Y51.0176
G01 X75.3247 Y50.9998
G01 X75.2889 Y50.9784
G01 X75.2563 Y50.9543
G01 X75.2245 Y50.9255
G01 X75.1981 Y50.8965
G01 X75.1703 Y50.8590
G01 X75.1502 Y50.8253
G01 X75.1324 Y50.7876
G01 X75.1183 Y50.7484
G01 X75.1084 Y50.7091
G01 X75.1020 Y50.6667
G01 X75.1000 Y50.6250
G01 X75.1000 Y49.3738
G01 X75.1020 Y49.3333
G01 X75.1082 Y49.2921
G01 X75.1183 Y49.2516
G01 X75.1328 Y49.2112
G01 X75.1514 Y49.1725
G01 X75.1716 Y49.1389
G01 X75.1950 Y49.1073
G01 X75.2245 Y49.0745
G01 X75.2554 Y49.0465
G01 X75.2910 Y49.0203
G01 X75.3247 Y49.0002
G01 X75.3601 Y48.9833
G01 X75.4016 Y48.9683
G01 X75.4433 Y48.9579
G01 X75.4833 Y48.9520
G01 X75.5250 Y48.9500
G01 X76.2762 Y48.9500
G01 X76.3167 Y48.9520
G01 X76.3579 Y48.9582
G01 X76.3984 Y48.9683
G01 X76.4388 Y48.9828
G01 X76.4775 Y49.0014
G01 X76.5111 Y49.0216
G01 X76.5427 Y49.0450
G01 X76.5755 Y49.0745
G01 X76.6035 Y49.1054
G01 X76.6297 Y49.1410
G01 X76.6498 Y49.1747
G01 X76.6667 Y49.2101
G01 X76.6817 Y49.2516
G01 X76.6923 Y49.2945
G01 X76.6980 Y49.3333
G01 X76.7000 Y49.3750
G01 X76.7000 Y50.6250
G01 X76.6980 Y50.6667
G01 X76.6918 Y50.7079
G01 X76.6817 Y50.7484
G01 X76.6676 Y50.7876
G01 X76.6498 Y50.8253
G01 X76.6284 Y50.8611
G01 X76.6035 Y50.8946
G01 X76.5746 Y50.9264
G01 X76.5446 Y50.9535
G01 X76.5111 Y50.9784
G01 X76.4753 Y50.9998
G01 X76.4365 Y51.0181
G01 X76.3984 Y51.0317
G01 X76.3567 Y51.0421
G01 X76.3154 Y51.0481
G01 X76.2762 Y51.0500
G01 X76.2501 Y51.0500
G01 X76.2502 Y53.0500
G01 X76.3512 Y53.0500
G01 X76.3794 Y53.0514
G01 X76.4085 Y53.0558
G01 X76.4371 Y53.0629
G01 X76.4648 Y53.0728
G01 X76.4914 Y53.0854
G01 X76.5167 Y53.1006
G01 X76.5403 Y53.1181
G01 X76.5638 Y53.1396
G01 X76.5819 Y53.1597
G01 X76.5980 Y53.1813
G01 X76.6134 Y53.2064
G01 X76.6272 Y53.2352
G01 X76.6371 Y53.2629
G01 X76.6442 Y53.2915
G01 X76.6487 Y53.3230
G01 X76.6500 Y53.3500
G01 X76.6500 Y54.0000
G01 X76.6486 Y54.0294
G01 X76.6440 Y54.0597
G01 X76.6371 Y54.0871
G01 X76.6280 Y54.1125
G01 X76.6146 Y54.1414
G01 X76.5980 Y54.1687
G01 X76.5819 Y54.1903
G01 X76.5638 Y54.2104
G01 X76.5403 Y54.2319
G01 X76.5146 Y54.2508
G01 X76.4914 Y54.2646
G01 X76.4670 Y54.2762
G01 X76.4359 Y54.2874
G01 X76.4085 Y54.2942
G01 X76.3818 Y54.2983
G01 X76.3500 Y54.3000
G01 X75.4500 Y54.3000
G01 X75.4206 Y54.2986
G01 X75.3939 Y54.2947
G01 X75.3629 Y54.2871
G01 X75.3330 Y54.2762
G01 X75.3086 Y54.2646
G01 X75.2854 Y54.2508
G01 X75.2578 Y54.2303
G01 X75.2379 Y54.2121
G01 X75.2197 Y54.1922
G01 X75.2006 Y54.1667
G01 X75.1854 Y54.1414
G01 X75.1738 Y54.1170
G01 X75.1626 Y54.0859
G01 X75.1558 Y54.0585
G01 X75.1517 Y54.0318
G01 X75.1500 Y54.0012
G01 X75.1500 Y53.3500
G01 X75.1514 Y53.3206
G01 X75.1558 Y53.2915
G01 X75.1629 Y53.2629
G01 X75.1724 Y53.2363
G01 X75.1854 Y53.2086
G01 X75.1992 Y53.1854
G01 X75.2197 Y53.1578
G01 X75.2379 Y53.1379
G01 X75.2597 Y53.1181
G01 X75.2833 Y53.1006
G01 X75.3097 Y53.0849
G01 X75.3352 Y53.0728
G01 X75.3629 Y53.0629
G01 X75.3915 Y53.0558
G01 X75.4182 Y53.0517
G01 X75.4488 Y53.0500
G01 X75.5499 Y53.0500
G01 X75.5498 Y51.0500
G00 Z1.0000
G00 X75.5498 Y51.0550
G01 F400.00
G01 Z-0.0500
G01 F2500.00
G01 X75.5498 Y51.0500
G01 X75.5448 Y51.0500
G01 X75.5498 Y51.0500
G00 Z1.0000
G00 X72.5498 Y51.0500
G01 F400.00
G01 Z-0.0500
G01 F2500.00
G01 X72.5238 Y51.0500
G01 X72.4821 Y51.0478
G01 X72.4421 Y51.0418
G01 X72.4005 Y51.0313
G01 X72.3624 Y51.0176
G01 X72.3247 Y50.9998
G01 X72.2889 Y50.9784
G01 X72.2563 Y50.9543
G01 X72.2245 Y50.9255
G01 X72.1981 Y50.8965
G01 X72.1703 Y50.8590
G01 X72.1502 Y50.8253
G01 X72.1324 Y50.7876
G01 X72.1183 Y50.7484
G01 X72.1084 Y50.7091
G01 X72.1020 Y50.6667
G01 X72.1000 Y50.6250
G01 X72.1000 Y49.3738
G01 X72.1020 Y49.3333
G01 X72.1082 Y49.2921
G01 X72.1183 Y49.2516
G01 X72.1328 Y49.2112
G01 X72.1514 Y49.1725
G01 X72.1716 Y49.1389
G01 X72.1950 Y49.1073
G01 X72.2245 Y49.0745
G01 X72.2554 Y49.0465
G01 X72.2910 Y49.0203
G01 X72.3247 Y49.0002
G01 X72.3601 Y48.9833
G01 X72.4016 Y48.9683
G01 X72.4433 Y48.9579
G01 X72.4833 Y48.9520
G01 X72.5250 Y48.9500
G01 X73.2762 Y48.9500
G01 X73.3167 Y48.9520
G01 X73.3579 Y48.9582
G01 X73.3984 Y48.9683
G01 X73.4388 Y48.9828
G01 X73.4775 Y49.0014
G01 X73.5111 Y49.0216
G01 X73.5427 Y49.0450
G01 X73.5755 Y49.0745
G01 X73.6035 Y49.1054
G01 X73.6297 Y49.1410
G01 X73.6498 Y49.1747
G01 X73.6667 Y49.2101
G01 X73.6817 Y49.2516
G01 X73.6923 Y49.2945
G01 X73.6980 Y49.3333
G01 X73.7000 Y49.3750
G01 X73.7000 Y50.6250
G01 X73.6980 Y50.6667
G01 X73.6918 Y50.7079
G01 X73.6817 Y50.7484
G01 X73.6676 Y50.7876
G01 X73.6498 Y50.8253
G01 X73.6284 Y50.8611
G01 X73.6035 Y50.8946
G01 X73.5746 Y50.9264
G01 X73.5446 Y50.9535
G01 X73.5111 Y50.9784
G01 X73.4753 Y50.9998
G01 X73.4365 Y51.0181
G01 X73.3984 Y51.0317
G01 X73.3567 Y51.0421
G01 X73.3154 Y51.0481
G01 X73.2762 Y51.0500
G01 X73.2501 Y51.0500
G01 X73.2502 Y53.0250
G01 X73.3512 Y53.0250
G01 X73.3794 Y53.0264
G01 X73.4085 Y53.0308
G01 X73.4371 Y53.0379
G01 X73.4648 Y53.0478
G01 X73.4914 Y53.0604
G01 X73.5167 Y53.0756
G01 X73.5403 Y53.0931
G01 X73.5638 Y53.1146
G01 X73.5819 Y53.1347
G01 X73.5980 Y53.1563
G01 X73.6134 Y53.1814
G01 X73.6272 Y53.2102
G01 X73.6371 Y53.2379
G01 X73.6442 Y53.2665
G01 X73.6487 Y53.2980
G01 X73.6500 Y53.3250
G01 X73.6500 Y53.9750
G01 X73.6486 Y54.0044
G01 X73.6440 Y54.0347
G01 X73.6371 Y54.0621
G01 X73.6280 Y54.0875
G01 X73.6146 Y54.1164
G01 X73.5980 Y54.1437
G01 X73.5819 Y54.1653
G01 X73.5638 Y54.1854
G01 X73.5403 Y54.2069
G01 X73.5146 Y54.2258
G01 X73.4914 Y54.2396
G01 X73.4670 Y54.2512
G01 X73.4359 Y54.2624
G01 X73.4085 Y54.2692
G01 X73.3818 Y54.2733
G01 X73.3500 Y54.2750
G01 X72.4500 Y54.2750
G01 X72.4206 Y54.2736
G01 X72.3939 Y54.2697
G01 X72.3629 Y54.2621
G01 X72.3330 Y54.2512
G01 X72.3086 Y54.2396
G01 X72.2854 Y54.2258
G01 X72.2578 Y54.2053
G01 X72.2379 Y54.1871
G01 X72.2197 Y54.1672
G01 X72.2006 Y54.1417
G01 X72.1854 Y54.1164
G01 X72.1738 Y54.0920
G01 X72.1626 Y54.0609
G01 X72.1558 Y54.0335
G01 X72.1517 Y54.0068
G01 X72.1500 Y53.9762
G01 X72.1500 Y53.3250
G01 X72.1514 Y53.2956
G01 X72.1558 Y53.2665
G01 X72.1629 Y53.2379
G01 X72.1724 Y53.2113
G01 X72.1854 Y53.1836
G01 X72.1992 Y53.1604
G01 X72.2197 Y53.1328
G01 X72.2379 Y53.1129
G01 X72.2597 Y53.0931
G01 X72.2833 Y53.0756
G01 X72.3097 Y53.0599
G01 X72.3352 Y53.0478
G01 X72.3629 Y53.0379
G01 X72.3915 Y53.0308
G01 X72.4182 Y53.0267
G01 X72.4488 Y53.0250
G01 X72.5499 Y53.0250
G01 X72.5498 Y51.0500
G00 Z1.0000
G00 X72.5498 Y51.0550
G01 F400.00
G01 Z-0.0500
G01 F2500.00
G01 X72.5498 Y51.0500
G01 X72.5448 Y51.0500
G01 X72.5498 Y51.0500
G00 Z1.0000
G00 X71.9988 Y50.6201
G01 F400.00
G01 Z-0.0500
G01 F2500.00
G01 X71.9988 Y49.3799
G01 X72.0094 Y49.2724
G01 X72.0393 Y49.1738
G01 X72.0879 Y49.0829
G01 X72.1533 Y49.0033
G01 X72.2329 Y48.9379
G01 X72.3238 Y48.8893
G01 X72.4224 Y48.8594
G01 X72.5299 Y48.8488
G01 X73.2701 Y48.8488
G01 X73.3776 Y48.8594
G01 X73.4762 Y48.8893
G01 X73.5671 Y48.9379
G01 X73.6467 Y49.0033
G01 X73.7121 Y49.0829
G01 X73.7607 Y49.1738
G01 X73.7906 Y49.2724
G01 X73.8012 Y49.3799
G01 X73.8012 Y50.6201
G01 X73.7906 Y50.7276
G01 X73.7607 Y50.8262
G01 X73.7121 Y50.9171
G01 X73.6467 Y50.9967
G01 X73.5671 Y51.0621
G01 X73.4762 Y51.1107
G01 X73.4210 Y51.1274
G01 X73.4129 Y51.1303
G01 X73.4007 Y51.1361
G01 X73.3944 Y51.1400
G01 X73.3875 Y51.1451
G01 X73.3802 Y51.1516
G01 X73.3743 Y51.1578
G01 X73.3655 Y51.1697
G01 X73.3618 Y51.1760
G01 X73.3576 Y51.1849
G01 X73.3543 Y51.1941
G01 X73.3519 Y51.2036
G01 X73.3505 Y51.2133
G01 X73.3500 Y51.2232
G01 X73.3500 Y52.8353
G01 X73.3508 Y52.8463
G01 X73.3519 Y52.8536
G01 X73.3536 Y52.8608
G01 X73.3571 Y52.8712
G01 X73.3618 Y52.8812
G01 X73.3675 Y52.8907
G01 X73.3743 Y52.8994
G01 X73.3793 Y52.9048
G01 X73.3847 Y52.9098
G01 X73.3924 Y52.9158
G01 X73.4039 Y52.9229
G01 X73.4117 Y52.9265
G01 X73.4186 Y52.9290
G01 X73.5033 Y52.9548
G01 X73.5726 Y52.9918
G01 X73.6333 Y53.0417
G01 X73.6832 Y53.1024
G01 X73.7202 Y53.1717
G01 X73.7430 Y53.2468
G01 X73.7512 Y53.3299
G01 X73.7512 Y53.9701
G01 X73.7430 Y54.0532
G01 X73.7202 Y54.1283
G01 X73.6832 Y54.1976
G01 X73.6333 Y54.2583
G01 X73.5726 Y54.3082
G01 X73.5033 Y54.3452
G01 X73.4282 Y54.3680
G01 X73.3451 Y54.3762
G01 X72.4549 Y54.3762
G01 X72.3718 Y54.3680
G01 X72.2967 Y54.3452
G01 X72.2274 Y54.3082
G01 X72.1667 Y54.2583
G01 X72.1168 Y54.1976
G01 X72.0798 Y54.1283
G01 X72.0570 Y54.0532
G01 X72.0488 Y53.9701
G01 X72.0488 Y53.3299
G01 X72.0570 Y53.2468
G01 X72.0798 Y53.1717
G01 X72.1168 Y53.1024
G01 X72.1667 Y53.0417
G01 X72.2274 Y52.9918
G01 X72.2967 Y52.9548
G01 X72.3814 Y52.9290
G01 X72.3883 Y52.9265
G01 X72.3961 Y52.9229
G01 X72.4066 Y52.9166
G01 X72.4135 Y52.9114
G01 X72.4216 Y52.9039
G01 X72.4281 Y52.8966
G01 X72.4345 Y52.8876
G01 X72.4393 Y52.8791
G01 X72.4424 Y52.8724
G01 X72.4449 Y52.8655
G01 X72.4478 Y52.8548
G01 X72.4494 Y52.8451
G01 X72.4500 Y52.8341
G01 X72.4500 Y51.2219
G01 X72.4495 Y51.2133
G01 X72.4478 Y51.2024
G01 X72.4453 Y51.1929
G01 X72.4414 Y51.1826
G01 X72.4382 Y51.1760
G01 X72.4345 Y51.1697
G01 X72.4288 Y51.1616
G01 X72.4216 Y51.1533
G01 X72.4144 Y51.1466
G01 X72.4035 Y51.1387
G01 X72.3961 Y51.1344
G01 X72.3871 Y51.1303
G01 X72.3790 Y51.1274
G01 X72.3238 Y51.1107
G01 X72.2329 Y51.0621
G01 X72.1533 Y50.9967
G01 X72.0879 Y50.9171
G01 X72.0393 Y50.8262
G01 X72.0094 Y50.7276
G01 X71.9988 Y50.6201
G00 Z1.0000
G00 X71.9993 Y50.6251
G01 F400.00
G01 Z-0.0500
G01 F2500.00
G01 X71.9988 Y50.6201
G01 X71.9988 Y50.6151
G01 X71.9988 Y50.6201
G00 Z1.0000
G00 X70.8012 Y50.6201
G01 F400.00
G01 Z-0.0500
G01 F2500.00
G01 X70.7906 Y50.7276
G01 X70.7607 Y50.8262
G01 X70.7121 Y50.9171
G01 X70.6467 Y50.9967
G01 X70.5671 Y51.0621
G01 X70.4762 Y51.1107
G01 X70.4210 Y51.1274
G01 X70.4129 Y51.1303
G01 X70.4039 Y51.1344
G01 X70.3965 Y51.1387
G01 X70.3856 Y51.1466
G01 X70.3784 Y51.1533
G01 X70.3712 Y51.1616
G01 X70.3655 Y51.1697
G01 X70.3618 Y51.1760
G01 X70.3586 Y51.1826
G01 X70.3547 Y51.1929
G01 X70.3522 Y51.2024
G01 X70.3505 Y51.2133
G01 X70.3500 Y51.2219
G01 X70.3500 Y52.8591
G01 X70.3506 Y52.8701
G01 X70.3522 Y52.8798
G01 X70.3551 Y52.8905
G01 X70.3586 Y52.8996
G01 X70.3618 Y52.9062
G01 X70.3655 Y52.9126
G01 X70.3719 Y52.9216
G01 X70.3784 Y52.9289
G01 X70.3865 Y52.9364
G01 X70.3934 Y52.9416
G01 X70.4039 Y52.9479
G01 X70.4117 Y52.9515
G01 X70.4186 Y52.9540
G01 X70.5033 Y52.9798
G01 X70.5726 Y53.0168
G01 X70.6333 Y53.0667
G01 X70.6832 Y53.1274
G01 X70.7202 Y53.1967
G01 X70.7430 Y53.2718
G01 X70.7512 Y53.3549
G01 X70.7512 Y53.9951
G01 X70.7430 Y54.0782
G01 X70.7202 Y54.1533
G01 X70.6832 Y54.2226
G01 X70.6333 Y54.2833
G01 X70.5726 Y54.3332
G01 X70.5033 Y54.3702
G01 X70.4282 Y54.3930
G01 X70.3451 Y54.4012
G01 X69.4549 Y54.4012
G01 X69.3718 Y54.3930
G01 X69.2967 Y54.3702
G01 X69.2274 Y54.3332
G01 X69.1667 Y54.2833
G01 X69.1168 Y54.2226
G01 X69.0798 Y54.1533
G01 X69.0570 Y54.0782
G01 X69.0488 Y53.9951
G01 X69.0488 Y53.3549
G01 X69.0570 Y53.2718
G01 X69.0798 Y53.1967
G01 X69.1168 Y53.1274
G01 X69.1667 Y53.0667
G01 X69.2274 Y53.0168
G01 X69.2967 Y52.9798
G01 X69.3814 Y52.9540
G01 X69.3883 Y52.9515
G01 X69.3961 Y52.9479
G01 X69.4076 Y52.9409
G01 X69.4135 Y52.9364
G01 X69.4190 Y52.9315
G01 X69.4257 Y52.9244
G01 X69.4325 Y52.9157
G01 X69.4382 Y52.9062
G01 X69.4429 Y52.8962
G01 X69.4464 Y52.8858
G01 X69.4481 Y52.8786
G01 X69.4492 Y52.8713
G01 X69.4500 Y52.8603
G01 X69.4500 Y51.2231
G01 X69.4495 Y51.2133
G01 X69.4481 Y51.2036
G01 X69.4457 Y51.1941
G01 X69.4424 Y51.1849
G01 X69.4382 Y51.1760
G01 X69.4345 Y51.1697
G01 X69.4257 Y51.1578
G01 X69.4198 Y51.1516
G01 X69.4125 Y51.1451
G01 X69.4056 Y51.1400
G01 X69.3993 Y51.1361
G01 X69.3871 Y51.1303
G01 X69.3790 Y51.1274
G01 X69.3238 Y51.1107
G01 X69.2329 Y51.0621
G01 X69.1533 Y50.9967
G01 X69.0879 Y50.9171
G01 X69.0393 Y50.8262
G01 X69.0094 Y50.7276
G01 X68.9988 Y50.6201
G01 X68.9988 Y49.3799
G01 X69.0094 Y49.2724
G01 X69.0393 Y49.1738
G01 X69.0879 Y49.0829
G01 X69.1533 Y49.0033
G01 X69.2329 Y48.9379
G01 X69.3238 Y48.8893
G01 X69.4224 Y48.8594
G01 X69.5299 Y48.8488
G01 X70.2701 Y48.8488
G01 X70.3776 Y48.8594
G01 X70.4762 Y48.8893
G01 X70.5671 Y48.9379
G01 X70.6467 Y49.0033
G01 X70.7121 Y49.0829
G01 X70.7607 Y49.1738
G01 X70.7906 Y49.2724
G01 X70.8012 Y49.3799
G01 X70.8012 Y50.6201
G00 Z1.0000
G00 X70.8012 Y50.6151
G01 F400.00
G01 Z-0.0500
G01 F2500.00
G01 X70.8012 Y50.6201
G01 X70.8007 Y50.6251
G01 X70.8012 Y50.6201
G00 Z1.0000
G00 X69.5498 Y51.0500
G01 F400.00
G01 Z-0.0500
G01 F2500.00
G01 X69.5238 Y51.0500
G01 X69.4821 Y51.0478
G01 X69.4421 Y51.0418
G01 X69.4005 Y51.0313
G01 X69.3624 Y51.0176
G01 X69.3247 Y50.9998
G01 X69.2889 Y50.9784
G01 X69.2563 Y50.9543
G01 X69.2245 Y50.9255
G01 X69.1981 Y50.8965
G01 X69.1703 Y50.8590
G01 X69.1502 Y50.8253
G01 X69.1324 Y50.7876
G01 X69.1183 Y50.7484
G01 X69.1084 Y50.7091
G01 X69.1020 Y50.6667
G01 X69.1000 Y50.6250
G01 X69.1000 Y49.3738
G01 X69.1020 Y49.3333
G01 X69.1082 Y49.2921
G01 X69.1183 Y49.2516
G01 X69.1328 Y49.2112
G01 X69.1514 Y49.1725
G01 X69.1716 Y49.1389
G01 X69.1950 Y49.1073
G01 X69.2245 Y49.0745
G01 X69.2554 Y49.0465
G01 X69.2910 Y49.0203
G01 X69.3247 Y49.0002
G01 X69.3601 Y48.9833
G01 X69.4016 Y48.9683
G01 X69.4433 Y48.9579
G01 X69.4833 Y48.9520
G01 X69.5250 Y48.9500
G01 X70.2762 Y48.9500
G01 X70.3167 Y48.9520
G01 X70.3579 Y48.9582
G01 X70.3984 Y48.9683
G01 X70.4388 Y48.9828
G01 X70.4775 Y49.0014
G01 X70.5111 Y49.0216
G01 X70.5427 Y49.0450
G01 X70.5755 Y49.0745
G01 X70.6035 Y49.1054
G01 X70.6297 Y49.1410
G01 X70.6498 Y49.1747
G01 X70.6667 Y49.2101
G01 X70.6817 Y49.2516
G01 X70.6923 Y49.2945
G01 X70.6980 Y49.3333
G01 X70.7000 Y49.3750
G01 X70.7000 Y50.6250
G01 X70.6980 Y50.6667
G01 X70.6918 Y50.7079
G01 X70.6817 Y50.7484
G01 X70.6676 Y50.7876
G01 X70.6498 Y50.8253
G01 X70.6284 Y50.8611
G01 X70.6035 Y50.8946
G01 X70.5746 Y50.9264
G01 X70.5446 Y50.9535
G01 X70.5111 Y50.9784
G01 X70.4753 Y50.9998
G01 X70.4365 Y51.0181
G01 X70.3984 Y51.0317
G01 X70.3567 Y51.0421
G01 X70.3154 Y51.0481
G01 X70.2762 Y51.0500
G01 X70.2501 Y51.0500
G01 X70.2502 Y53.0500
G01 X70.3512 Y53.0500
G01 X70.3794 Y53.0514
G01 X70.4085 Y53.0558
G01 X70.4371 Y53.0629
G01 X70.4648 Y53.0728
G01 X70.4914 Y53.0854
G01 X70.5167 Y53.1006
G01 X70.5403 Y53.1181
G01 X70.5638 Y53.1396
G01 X70.5819 Y53.1597
G01 X70.5980 Y53.1813
G01 X70.6134 Y53.2064
G01 X70.6272 Y53.2352
G01 X70.6371 Y53.2629
G01 X70.6442 Y53.2915
G01 X70.6487 Y53.3230
G01 X70.6500 Y53.3500
G01 X70.6500 Y54.0000
G01 X70.6486 Y54.0294
G01 X70.6440 Y54.0597
G01 X70.6371 Y54.0871
G01 X70.6280 Y54.1125
G01 X70.6146 Y54.1414
G01 X70.5980 Y54.1687
G01 X70.5819 Y54.1903
G01 X70.5638 Y54.2104
G01 X70.5403 Y54.2319
G01 X70.5146 Y54.2508
G01 X70.4914 Y54.2646
G01 X70.4670 Y54.2762
G01 X70.4359 Y54.2874
G01 X70.4085 Y54.2942
G01 X70.3818 Y54.2983
G01 X70.3500 Y54.3000
G01 X69.4500 Y54.3000
G01 X69.4206 Y54.2986
G01 X69.3939 Y54.2947
G01 X69.3629 Y54.2871
G01 X69.3330 Y54.2762
G01 X69.3086 Y54.2646
G01 X69.2854 Y54.2508
G01 X69.2578 Y54.2303
G01 X69.2379 Y54.2121
G01 X69.2197 Y54.1922
G01 X69.2006 Y54.1667
G01 X69.1854 Y54.1414
G01 X69.1738 Y54.1170
G01 X69.1626 Y54.0859
G01 X69.1558 Y54.0585
G01 X69.1517 Y54.0318
G01 X69.1500 Y54.0012
G01 X69.1500 Y53.3500
G01 X69.1514 Y53.3206
G01 X69.1558 Y53.2915
G01 X69.1629 Y53.2629
G01 X69.1724 Y53.2363
G01 X69.1854 Y53.2086
G01 X69.1992 Y53.1854
G01 X69.2197 Y53.1578
G01 X69.2379 Y53.1379
G01 X69.2597 Y53.1181
G01 X69.2833 Y53.1006
G01 X69.3097 Y53.0849
G01 X69.3352 Y53.0728
G01 X69.3629 Y53.0629
G01 X69.3915 Y53.0558
G01 X69.4182 Y53.0517
G01 X69.4488 Y53.0500
G01 X69.5499 Y53.0500
G01 X69.5498 Y51.0500
G00 Z1.0000
G00 X69.5498 Y51.0550
G01 F400.00
G01 Z-0.0500
G01 F2500.00
G01 X69.5498 Y51.0500
G01 X69.5448 Y51.0500
G01 X69.5498 Y51.0500
G00 Z1.0000
G00 X67.8012 Y50.6201
G01 F400.00
G01 Z-0.0500
G01 F2500.00
G01 X67.7906 Y50.7276
G01 X67.7607 Y50.8262
G01 X67.7121 Y50.9171
G01 X67.6467 Y50.9967
G01 X67.5671 Y51.0621
G01 X67.4762 Y51.1107
G01 X67.4210 Y51.1274
G01 X67.4129 Y51.1303
G01 X67.4039 Y51.1344
G01 X67.3965 Y51.1387
G01 X67.3856 Y51.1466
G01 X67.3784 Y51.1533
G01 X67.3712 Y51.1616
G01 X67.3655 Y51.1697
G01 X67.3618 Y51.1760
G01 X67.3586 Y51.1826
G01 X67.3547 Y51.1929
G01 X67.3522 Y51.2024
G01 X67.3505 Y51.2133
G01 X67.3500 Y51.2219
G01 X67.3500 Y52.8591
G01 X67.3506 Y52.8701
G01 X67.3522 Y52.8798
G01 X67.3551 Y52.8905
G01 X67.3586 Y52.8996
G01 X67.3618 Y52.9062
G01 X67.3655 Y52.9126
G01 X67.3719 Y52.9216
G01 X67.3784 Y52.9289
G01 X67.3865 Y52.9364
G01 X67.3934 Y52.9416
G01 X67.4039 Y52.9479
G01 X67.4117 Y52.9515
G01 X67.4186 Y52.9540
G01 X67.5033 Y52.9798
G01 X67.5726 Y53.0168
G01 X67.6333 Y53.0667
G01 X67.6832 Y53.1274
G01 X67.7202 Y53.1967
G01 X67.7430 Y53.2718
G01 X67.7512 Y53.3549
G01 X67.7512 Y53.9951
G01 X67.7430 Y54.0782
G01 X67.7202 Y54.1533
G01 X67.6832 Y54.2226
G01 X67.6333 Y54.2833
G01 X67.5726 Y54.3332
G01 X67.5033 Y54.3702
G01 X67.4282 Y54.3930
G01 X67.3451 Y54.4012
G01 X66.4549 Y54.4012
G01 X66.3718 Y54.3930
G01 X66.2967 Y54.3702
G01 X66.2274 Y54.3332
G01 X66.1667 Y54.2833
G01 X66.1168 Y54.2226
G01 X66.0798 Y54.1533
G01 X66.0570 Y54.0782
G01 X66.0488 Y53.9951
G01 X66.0488 Y53.3549
G01 X66.0570 Y53.2718
G01 X66.0798 Y53.1967
G01 X66.1168 Y53.1274
G01 X66.1667 Y53.0667
G01 X66.2274 Y53.0168
G01 X66.2967 Y52.9798
G01 X66.3814 Y52.9540
G01 X66.3883 Y52.9515
G01 X66.3961 Y52.9479
G01 X66.4076 Y52.9409
G01 X66.4135 Y52.9364
G01 X66.4190 Y52.9315
G01 X66.4257 Y52.9244
G01 X66.4325 Y52.9157
G01 X66.4382 Y52.9062
G01 X66.4429 Y52.8962
G01 X66.4464 Y52.8858
G01 X66.4481 Y52.8786
G01 X66.4492 Y52.8713
G01 X66.4500 Y52.8603
G01 X66.4500 Y51.2231
G01 X66.4495 Y51.2133
G01 X66.4481 Y51.2036
G01 X66.4457 Y51.1941
G01 X66.4424 Y51.1849
G01 X66.4382 Y51.1760
G01 X66.4345 Y51.1697
G01 X66.4257 Y51.1578
G01 X66.4198 Y51.1516
G01 X66.4125 Y51.1451
G01 X66.4056 Y51.1400
G01 X66.3993 Y51.1361
G01 X66.3871 Y51.1303
G01 X66.3790 Y51.1274
G01 X66.3238 Y51.1107
G01 X66.2329 Y51.0621
G01 X66.1533 Y50.9967
G01 X66.0879 Y50.9171
G01 X66.0393 Y50.8262
G01 X66.0094 Y50.7276
G01 X65.9988 Y50.6201
G01 X65.9988 Y49.3799
G01 X66.0094 Y49.2724
G01 X66.0393 Y49.1738
G01 X66.0879 Y49.0829
G01 X66.1533 Y49.0033
G01 X66.2329 Y48.9379
G01 X66.3238 Y48.8893
G01 X66.4224 Y48.8594
G01 X66.5299 Y48.8488
G01 X67.2701 Y48.8488
G01 X67.3776 Y48.8594
G01 X67.4762 Y48.8893
G01 X67.5671 Y48.9379
G01 X67.6467 Y49.0033
G01 X67.7121 Y49.0829
G01 X67.7607 Y49.1738
G01 X67.7906 Y49.2724
G01 X67.8012 Y49.3799
G01 X67.8012 Y50.6201
G00 Z1.0000
G00 X67.8012 Y50.6151
G01 F400.00
G01 Z-0.0500
G01 F2500.00
G01 X67.8012 Y50.6201
G01 X67.8007 Y50.6251
G01 X67.8012 Y50.6201
G00 Z1.0000
G00 X66.5498 Y51.0500
G01 F400.00
G01 Z-0.0500
G01 F2500.00
G01 X66.5238 Y51.0500
G01 X66.4821 Y51.0478
G01 X66.4421 Y51.0418
G01 X66.4005 Y51.0313
G01 X66.3624 Y51.0176
G01 X66.3247 Y50.9998
G01 X66.2889 Y50.9784
G01 X66.2563 Y50.9543
G01 X66.2245 Y50.9255
G01 X66.1981 Y50.8965
G01 X66.1703 Y50.8590
G01 X66.1502 Y50.8253
G01 X66.1324 Y50.7876
G01 X66.1183 Y50.7484
G01 X66.1084 Y50.7091
G01 X66.1020 Y50.6667
G01 X66.1000 Y50.6250
G01 X66.1000 Y49.3738
G01 X66.1020 Y49.3333
G01 X66.1082 Y49.2921
G01 X66.1183 Y49.2516
G01 X66.1328 Y49.2112
G01 X66.1514 Y49.1725
G01 X66.1716 Y49.1389
G01 X66.1950 Y49.1073
G01 X66.2245 Y49.0745
G01 X66.2554 Y49.0465
G01 X66.2910 Y49.0203
G01 X66.3247 Y49.0002
G01 X66.3601 Y48.9833
G01 X66.4016 Y48.9683
G01 X66.4433 Y48.9579
G01 X66.4833 Y48.9520
G01 X66.5250 Y48.9500
G01 X67.2762 Y48.9500
G01 X67.3167 Y48.9520
G01 X67.3579 Y48.9582
G01 X67.3984 Y48.9683
G01 X67.4388 Y48.9828
G01 X67.4775 Y49.0014
G01 X67.5111 Y49.0216
G01 X67.5427 Y49.0450
G01 X67.5755 Y49.0745
G01 X67.6035 Y49.1054
G01 X67.6297 Y49.1410
G01 X67.6498 Y49.1747
G01 X67.6667 Y49.2101
G01 X67.6817 Y49.2516
G01 X67.6923 Y49.2945
G01 X67.6980 Y49.3333
G01 X67.7000 Y49.3750
G01 X67.7000 Y50.6250
G01 X67.6980 Y50.6667
G01 X67.6918 Y50.7079
G01 X67.6817 Y50.7484
G01 X67.6676 Y50.7876
G01 X67.6498 Y50.8253
G01 X67.6284 Y50.8611
G01 X67.6035 Y50.8946
G01 X67.5746 Y50.9264
G01 X67.5446 Y50.9535
G01 X67.5111 Y50.9784
G01 X67.4753 Y50.9998
G01 X67.4365 Y51.0181
G01 X67.3984 Y51.0317
G01 X67.3567 Y51.0421
G01 X67.3154 Y51.0481
G01 X67.2762 Y51.0500
G01 X67.2501 Y51.0500
G01 X67.2502 Y53.0500
G01 X67.3512 Y53.0500
G01 X67.3794 Y53.0514
G01 X67.4085 Y53.0558
G01 X67.4371 Y53.0629
G01 X67.4648 Y53.0728
G01 X67.4914 Y53.0854
G01 X67.5167 Y53.1006
G01 X67.5403 Y53.1181
G01 X67.5638 Y53.1396
G01 X67.5819 Y53.1597
G01 X67.5980 Y53.1813
G01 X67.6134 Y53.2064
G01 X67.6272 Y53.2352
G01 X67.6371 Y53.2629
G01 X67.6442 Y53.2915
G01 X67.6487 Y53.3230
G01 X67.6500 Y53.3500
G01 X67.6500 Y54.0000
G01 X67.6486 Y54.0294
G01 X67.6440 Y54.0597
G01 X67.6371 Y54.0871
G01 X67.6280 Y54.1125
G01 X67.6146 Y54.1414
G01 X67.5980 Y54.1687
G01 X67.5819 Y54.1903
G01 X67.5638 Y54.2104
G01 X67.5403 Y54.2319
G01 X67.5146 Y54.2508
G01 X67.4914 Y54.2646
G01 X67.4670 Y54.2762
G01 X67.4359 Y54.2874
G01 X67.4085 Y54.2942
G01 X67.3818 Y54.2983
G01 X67.3500 Y54.3000
G01 X66.4500 Y54.3000
G01 X66.4206 Y54.2986
G01 X66.3939 Y54.2947
G01 X66.3629 Y54.2871
G01 X66.3330 Y54.2762
G01 X66.3086 Y54.2646
G01 X66.2854 Y54.2508
G01 X66.2578 Y54.2303
G01 X66.2379 Y54.2121
G01 X66.2197 Y54.1922
G01 X66.2006 Y54.1667
G01 X66.1854 Y54.1414
