(G-CODE GENERATED BY FLATCAM v8.992 - www.flatcam.org - Version Date: 2020/05/03)

(Name: MSP430G2553_array.drl_10_cnc)
(Type: G-code from Excellon)
(Units: MM)

(Created on Saturday, 30 May 2020 at 13:10)

(This preprocessor is the default preprocessor used by FlatCAM.)
(It is made to work with MACH3 compatible motion controllers.)


(TOOLS DIAMETER: )
(Tool: 1 -> Dia: 0.7)
(Tool: 2 -> Dia: 1.0)
(Tool: 3 -> Dia: 0.7)
(Tool: 4 -> Dia: 0.9)

(FEEDRATE Z: )
(Tool: 1 -> Feedrate: 140.0)
(Tool: 2 -> Feedrate: 140.0)
(Tool: 3 -> Feedrate: 140.0)
(Tool: 4 -> Feedrate: 140.0)

(FEEDRATE RAPIDS: )
(Tool: 1 -> Feedrate Rapids: 1500)
(Tool: 2 -> Feedrate Rapids: 1500)
(Tool: 3 -> Feedrate Rapids: 1500)
(Tool: 4 -> Feedrate Rapids: 1500)

(Z_CUT: )
(Tool: 1 -> Z_Cut: -2.0)
(Tool: 2 -> Z_Cut: -2.0)
(Tool: 3 -> Z_Cut: -2.0)
(Tool: 4 -> Z_Cut: -2.0)

(Tools Offset: )
(Tool: 2 -> Offset Z: -0.0)

(Z_MOVE: )
(Tool: 1 -> Z_Move: 1.0)
(Tool: 2 -> Z_Move: 1.0)
(Tool: 3 -> Z_Move: 1.0)
(Tool: 4 -> Z_Move: 1.0)

(Z Start: None mm)
(Z End: 2.0 mm)
(Steps per circle: 64)
(Preprocessor Excellon: default)

(X range:   61.5500 ...   89.1500  mm)
(Y range:   27.6500 ...   88.5500  mm)

(Spindle Speed: 10000.0 RPM)
G21
G90
G94



G00 Z1.0000

G01 F140.00
M03 S10000
G4 P2.0
G00 X87.9000 Y69.2000
G01 Z-2.0000
G01 Z0
G00 Z1.0000
G00 X87.9000 Y73.7000
G01 Z-2.0000
G01 Z0
G00 Z1.0000
G00 X87.9000 Y76.2400
G01 Z-2.0000
G01 Z0
G00 Z1.0000
G00 X62.9000 Y87.4000
G01 Z-2.0000
G01 Z0
G00 Z1.0000
G00 X62.9000 Y84.8600
G01 Z-2.0000
G01 Z0
G00 Z1.0000
G00 X62.9000 Y82.3200
G01 Z-2.0000
G01 Z0
G00 Z1.0000
G00 X62.9000 Y79.7800
G01 Z-2.0000
G01 Z0
G00 Z1.0000
G00 X62.9000 Y77.2400
G01 Z-2.0000
G01 Z0
G00 Z1.0000
G00 X62.9000 Y74.7000
G01 Z-2.0000
G01 Z0
G00 Z1.0000
G00 X63.1200 Y69.7000
G01 Z-2.0000
G01 Z0
G00 Z1.0000
G00 X65.6600 Y69.7000
G01 Z-2.0000
G01 Z0
G00 Z1.0000
G00 X68.2000 Y69.7000
G01 Z-2.0000
G01 Z0
G00 Z1.0000
G00 X70.7400 Y69.7000
G01 Z-2.0000
G01 Z0
G00 Z1.0000
G00 X73.2800 Y69.7000
G01 Z-2.0000
G01 Z0
G00 Z1.0000
G00 X75.8200 Y69.7000
G01 Z-2.0000
G01 Z0
G00 Z1.0000
G00 X78.3600 Y69.7000
G01 Z-2.0000
G01 Z0
G00 Z1.0000
G00 X80.9000 Y69.7000
G01 Z-2.0000
G01 Z0
G00 Z1.0000
G00 X82.5000 Y46.5000
G01 Z-2.0000
G01 Z0
G00 Z1.0000
G00 X79.9600 Y46.5000
G01 Z-2.0000
G01 Z0
G00 Z1.0000
G00 X77.4200 Y46.5000
G01 Z-2.0000
G01 Z0
G00 Z1.0000
G00 X74.8800 Y46.5000
G01 Z-2.0000
G01 Z0
G00 Z1.0000
G00 X72.3400 Y46.5000
G01 Z-2.0000
G01 Z0
G00 Z1.0000
G00 X69.8000 Y46.5000
G01 Z-2.0000
G01 Z0
G00 Z1.0000
G00 X62.8000 Y54.6200
G01 Z-2.0000
G01 Z0
G00 Z1.0000
G00 X62.8000 Y52.0800
G01 Z-2.0000
G01 Z0
G00 Z1.0000
G00 X62.8000 Y49.5400
G01 Z-2.0000
G01 Z0
G00 Z1.0000
G00 X62.8000 Y47.0000
G01 Z-2.0000
G01 Z0
G00 Z1.0000
G00 X62.8000 Y42.5000
G01 Z-2.0000
G01 Z0
G00 Z1.0000
G00 X62.8000 Y39.9600
G01 Z-2.0000
G01 Z0
G00 Z1.0000
G00 X87.8000 Y28.8000
G01 Z-2.0000
G01 Z0
G00 Z1.0000
G00 X87.8000 Y31.3400
G01 Z-2.0000
G01 Z0
G00 Z1.0000
G00 X87.8000 Y33.8800
G01 Z-2.0000
G01 Z0
G00 Z1.0000
G00 X87.8000 Y36.4200
G01 Z-2.0000
G01 Z0
G00 Z1.0000
G00 X87.8000 Y38.9600
G01 Z-2.0000
G01 Z0
G00 Z1.0000
G00 X87.8000 Y41.5000
G01 Z-2.0000
G01 Z0
G00 Z1.0000
G00 X87.5800 Y46.5000
G01 Z-2.0000
G01 Z0
G00 Z1.0000
G00 X85.0400 Y46.5000
G01 Z-2.0000
G01 Z0
G00 Z1.0000
G00 X87.9000 Y61.5800
G01 Z-2.0000
G01 Z0
G00 Z1.0000
G00 X87.9000 Y64.1200
G01 Z-2.0000
G01 Z0
G00 Z1.0000
G00 X87.9000 Y66.6600
G01 Z-2.0000
G01 Z0
G00 Z1.0000
M05
G00 Z2.00

