(G-CODE GENERATED BY FLATCAM v8.992 - www.flatcam.org - Version Date: 2020/05/03)

(Name: MSP430G2553_array.drl_10_cnc)
(Type: G-code from Excellon)
(Units: MM)

(Created on Sunday, 31 May 2020 at 17:20)

(This preprocessor is the default preprocessor used by FlatCAM.)
(It is made to work with MACH3 compatible motion controllers.)


(TOOLS DIAMETER: )
(Tool: 1 -> Dia: 0.7)
(Tool: 2 -> Dia: 1.0)
(Tool: 3 -> Dia: 1.1)
(Tool: 4 -> Dia: 0.7)
(Tool: 5 -> Dia: 0.9)

(FEEDRATE Z: )
(Tool: 1 -> Feedrate: 140.0)
(Tool: 2 -> Feedrate: 140.0)
(Tool: 3 -> Feedrate: 140.0)
(Tool: 4 -> Feedrate: 140.0)
(Tool: 5 -> Feedrate: 140.0)

(FEEDRATE RAPIDS: )
(Tool: 1 -> Feedrate Rapids: 1500)
(Tool: 2 -> Feedrate Rapids: 1500)
(Tool: 3 -> Feedrate Rapids: 1500)
(Tool: 4 -> Feedrate Rapids: 1500)
(Tool: 5 -> Feedrate Rapids: 1500)

(Z_CUT: )
(Tool: 1 -> Z_Cut: -2.2)
(Tool: 2 -> Z_Cut: -2.2)
(Tool: 3 -> Z_Cut: -2.2)
(Tool: 4 -> Z_Cut: -2.2)
(Tool: 5 -> Z_Cut: -2.2)

(Tools Offset: )
(Tool: 2 -> Offset Z: -0.0)
(Tool: 3 -> Offset Z: -0.0)

(Z_MOVE: )
(Tool: 1 -> Z_Move: 1.0)
(Tool: 2 -> Z_Move: 1.0)
(Tool: 3 -> Z_Move: 1.0)
(Tool: 4 -> Z_Move: 1.0)
(Tool: 5 -> Z_Move: 1.0)

(Z Start: None mm)
(Z End: 2.0 mm)
(Steps per circle: 64)
(Preprocessor Excellon: default)

(X range:   61.2500 ...   88.6500  mm)
(Y range:   28.5000 ...   87.3200  mm)

(Spindle Speed: 10000.0 RPM)
G21
G90
G94



G00 Z1.0000

G01 F140.00
M03 S10000
G4 P2.0
G00 X80.9000 Y46.7000
G01 Z-2.2000
G01 Z0
G00 Z1.0000
G00 X78.3600 Y46.7000
G01 Z-2.2000
G01 Z0
G00 Z1.0000
G00 X75.8200 Y46.7000
G01 Z-2.2000
G01 Z0
G00 Z1.0000
G00 X73.2800 Y46.7000
G01 Z-2.2000
G01 Z0
G00 Z1.0000
G00 X70.7400 Y46.7000
G01 Z-2.2000
G01 Z0
G00 Z1.0000
G00 X68.2000 Y46.7000
G01 Z-2.2000
G01 Z0
G00 Z1.0000
G00 X65.6600 Y46.7000
G01 Z-2.2000
G01 Z0
G00 Z1.0000
G00 X62.9000 Y29.0000
G01 Z-2.2000
G01 Z0
G00 Z1.0000
G00 X62.9000 Y31.5400
G01 Z-2.2000
G01 Z0
G00 Z1.0000
G00 X62.9000 Y34.0800
G01 Z-2.2000
G01 Z0
G00 Z1.0000
G00 X62.9000 Y36.6200
G01 Z-2.2000
G01 Z0
G00 Z1.0000
G00 X62.9000 Y39.1600
G01 Z-2.2000
G01 Z0
G00 Z1.0000
G00 X62.9000 Y41.7000
G01 Z-2.2000
G01 Z0
G00 Z1.0000
G00 X63.1200 Y46.7000
G01 Z-2.2000
G01 Z0
G00 Z1.0000
G00 X62.9000 Y61.0000
G01 Z-2.2000
G01 Z0
G00 Z1.0000
G00 X62.9000 Y63.5400
G01 Z-2.2000
G01 Z0
G00 Z1.0000
G00 X62.9000 Y66.0800
G01 Z-2.2000
G01 Z0
G00 Z1.0000
G00 X62.9000 Y68.6200
G01 Z-2.2000
G01 Z0
G00 Z1.0000
G00 X62.9000 Y71.1600
G01 Z-2.2000
G01 Z0
G00 Z1.0000
G00 X62.9000 Y73.7000
G01 Z-2.2000
G01 Z0
G00 Z1.0000
G00 X63.1200 Y78.7000
G01 Z-2.2000
G01 Z0
G00 Z1.0000
G00 X65.6600 Y78.7000
G01 Z-2.2000
G01 Z0
G00 Z1.0000
G00 X68.2000 Y78.7000
G01 Z-2.2000
G01 Z0
G00 Z1.0000
G00 X70.7400 Y78.7000
G01 Z-2.2000
G01 Z0
G00 Z1.0000
G00 X73.2800 Y78.7000
G01 Z-2.2000
G01 Z0
G00 Z1.0000
G00 X75.8200 Y78.7000
G01 Z-2.2000
G01 Z0
G00 Z1.0000
G00 X78.3600 Y78.7000
G01 Z-2.2000
G01 Z0
G00 Z1.0000
G00 X80.9000 Y78.7000
G01 Z-2.2000
G01 Z0
G00 Z1.0000
G00 X87.9000 Y86.8200
G01 Z-2.2000
G01 Z0
G00 Z1.0000
G00 X87.9000 Y84.2800
G01 Z-2.2000
G01 Z0
G00 Z1.0000
G00 X87.9000 Y81.7400
G01 Z-2.2000
G01 Z0
G00 Z1.0000
G00 X87.9000 Y79.2000
G01 Z-2.2000
G01 Z0
G00 Z1.0000
G00 X87.9000 Y74.7000
G01 Z-2.2000
G01 Z0
G00 Z1.0000
G00 X87.9000 Y72.1600
G01 Z-2.2000
G01 Z0
G00 Z1.0000
G00 X87.9000 Y54.8200
G01 Z-2.2000
G01 Z0
G00 Z1.0000
G00 X87.9000 Y52.2800
G01 Z-2.2000
G01 Z0
G00 Z1.0000
G00 X87.9000 Y49.7400
G01 Z-2.2000
G01 Z0
G00 Z1.0000
G00 X87.9000 Y47.2000
G01 Z-2.2000
G01 Z0
G00 Z1.0000
G00 X87.9000 Y42.7000
G01 Z-2.2000
G01 Z0
G00 Z1.0000
G00 X87.9000 Y40.1600
G01 Z-2.2000
G01 Z0
G00 Z1.0000
G01 F140.00
M03 S10000
G4 P2.0
G00 X88.1000 Y68.4000
G01 Z-2.2000
G01 Z0
G00 Z1.0000
G00 X83.6000 Y68.4000
G01 Z-2.2000
G01 Z0
G00 Z1.0000
G00 X83.6000 Y61.9000
G01 Z-2.2000
G01 Z0
G00 Z1.0000
G00 X88.1000 Y36.4000
G01 Z-2.2000
G01 Z0
G00 Z1.0000
G00 X88.1000 Y29.9000
G01 Z-2.2000
G01 Z0
G00 Z1.0000
G00 X83.6000 Y29.9000
G01 Z-2.2000
G01 Z0
G00 Z1.0000
G00 X83.6000 Y36.4000
G01 Z-2.2000
G01 Z0
G00 Z1.0000
G00 X88.1000 Y61.9000
G01 Z-2.2000
G01 Z0
G00 Z1.0000
M05
G00 Z2.00

